;FLAVOR:Marlin
;TIME:3394
;Filament used: 6.06694m
;Layer height: 0.3
;MINX:41.665
;MINY:54.26
;MINZ:0.3
;MAXX:135.53
;MAXY:101.34
;MAXZ:20.1
;Generated with Cura_SteamEngine 4.12.1
M82 ;absolute extrusion mode
G21 ;metric values
G90 ;absolute positioning
M82 ;set extruder to absolute mode
M107 ;start with the fan off

M104 S200 T0 ; start heating T0 to what is set in Cura
M140 S60 ; start heating the bed to what is set in Cura
M190 S60 ; start heating the bed to what is set in Cura
M109 S200 T0 ; start heating T0 to what is set in Cura

G28 X0 Y0 ;move X/Y to min endstops
G28 Z0 ;move Z to min endstops
G1 Z15.0 F2400 ;move the platform down 15mm
G92 E0 ;zero the extruded length
G1 F200 E3 ;extrude 3mm of feed stock
G92 E0 ;zero the extruded length again
G1 F2400
G0 Y20 F2400
M117 Printing...
G5
G92 E0
G92 E0
G1 F2400 E-1.2
;LAYER_COUNT:67
;LAYER:0
M107
G0 F3000 X43.408 Y55.598 Z0.3
;TYPE:SKIRT
G1 F2400 E0
G1 F1500 X43.882 Y55.29 E0.0255
G1 X44.394 Y55.052 E0.05098
G1 X44.935 Y54.888 E0.07648
G1 X45.661 Y54.792 E0.10952
G1 X46.333 Y54.778 E0.13985
G1 X63.116 Y54.777 E0.89704
G1 X63.82 Y54.787 E0.92881
G1 X64.16 Y54.807 E0.94417
G1 X64.994 Y54.89 E0.98199
G1 X67.753 Y55.125 E1.10691
G1 X70.499 Y55.281 E1.231
G1 X73.17 Y55.358 E1.35156
G1 X75.913 Y55.36 E1.47532
G1 X78.585 Y55.285 E1.59591
G1 X81.322 Y55.131 E1.71959
G1 X84.025 Y54.902 E1.84198
G1 X86.739 Y54.595 E1.96521
G1 X87.575 Y54.476 E2.00331
G1 X88.391 Y54.371 E2.04043
G1 X88.933 Y54.31 E2.06503
G1 X89.527 Y54.27 E2.09189
G1 X90.057 Y54.26 E2.11581
G1 X90.638 Y54.278 E2.14203
G1 X91.234 Y54.327 E2.16902
G1 X92.391 Y54.458 E2.22155
G1 X93.191 Y54.555 E2.25791
G1 X95.92 Y54.815 E2.38159
G1 X98.618 Y54.996 E2.50359
G1 X101.324 Y55.1 E2.62576
G1 X104.068 Y55.129 E2.74957
G1 X106.741 Y55.08 E2.87019
G1 X109.489 Y54.954 E2.9943
G1 X112.544 Y54.72 E3.13253
G1 X113.048 Y54.673 E3.15537
G1 X113.939 Y54.646 E3.19559
G1 X130.722 Y54.645 E3.95278
G1 X131.427 Y54.655 E3.98459
G1 X131.99 Y54.703 E4.01008
G1 X132.541 Y54.83 E4.0356
G1 X133.068 Y55.034 E4.06109
G1 X133.562 Y55.309 E4.0866
G1 X134.179 Y55.807 E4.12237
G1 X134.327 Y55.953 E4.13175
G1 X134.701 Y56.378 E4.15729
G1 X135.01 Y56.851 E4.18278
G1 X135.25 Y57.363 E4.2083
G1 X135.416 Y57.903 E4.23378
G1 X135.514 Y58.618 E4.26634
G1 X135.529 Y59.281 E4.29626
G1 X135.53 Y96.075 E5.95629
G1 X135.52 Y96.8 E5.989
G1 X135.472 Y97.363 E6.01449
G1 X135.345 Y97.914 E6.04001
G1 X135.142 Y98.442 E6.06553
G1 X134.867 Y98.936 E6.09104
G1 X134.368 Y99.554 E6.12687
G1 X134.225 Y99.699 E6.13606
G1 X133.801 Y100.072 E6.16154
G1 X133.328 Y100.382 E6.18705
G1 X132.816 Y100.622 E6.21256
G1 X132.275 Y100.788 E6.2381
G1 X131.61 Y100.883 E6.2684
G1 X130.861 Y100.904 E6.30221
G1 X114.075 Y100.905 E7.05954
G1 X113.343 Y100.894 E7.09257
G1 X112.781 Y100.86 E7.11797
G1 X110.741 Y100.685 E7.21035
G1 X107.971 Y100.528 E7.33552
G1 X105.3 Y100.451 E7.45608
G1 X102.557 Y100.451 E7.57983
G1 X99.884 Y100.526 E7.70048
G1 X97.146 Y100.68 E7.8242
G1 X94.438 Y100.909 E7.94681
G1 X92.591 Y101.125 E8.03071
G1 X92.51 Y101.129 E8.03437
G1 X91.065 Y101.29 E8.09997
G1 X90.472 Y101.33 E8.12678
G1 X89.943 Y101.34 E8.15065
G1 X89.366 Y101.322 E8.1767
G1 X89.176 Y101.31 E8.18529
G1 X87.603 Y101.174 E8.25652
G1 X84.819 Y100.973 E8.38245
G1 X82.146 Y100.854 E8.50317
G1 X79.406 Y100.812 E8.6268
G1 X76.696 Y100.846 E8.74908
G1 X73.927 Y100.959 E8.87411
G1 X73.249 Y100.997 E8.90475
G1 X73.107 Y101.002 E8.91116
G1 X72.261 Y101.019 E8.94934
G1 X72.124 Y101.02 E8.95552
G1 X71.149 Y101.006 E8.99951
G1 X67.793 Y101.016 E9.15092
G1 X67.501 Y101.021 E9.1641
G1 X64.622 Y101.02 E9.29399
G1 X63.206 Y101.036 E9.35788
G1 X46.472 Y101.037 E10.11286
G1 X45.766 Y101.027 E10.14472
G1 X45.203 Y100.979 E10.17021
G1 X44.652 Y100.852 E10.19572
G1 X44.125 Y100.649 E10.2212
G1 X43.631 Y100.373 E10.24673
G1 X43.014 Y99.875 E10.2825
G1 X42.868 Y99.731 E10.29176
G1 X42.495 Y99.306 E10.31727
G1 X42.185 Y98.834 E10.34274
G1 X41.945 Y98.322 E10.36826
G1 X41.779 Y97.781 E10.39379
G1 X41.682 Y97.085 E10.42549
G1 X41.665 Y96.326 E10.45974
G1 X41.665 Y59.558 E12.1186
G1 X41.676 Y58.871 E12.1496
G1 X41.724 Y58.308 E12.17509
G1 X41.852 Y57.757 E12.20061
G1 X42.057 Y57.23 E12.22612
G1 X42.333 Y56.737 E12.25161
G1 X42.837 Y56.116 E12.2877
G1 X42.982 Y55.97 E12.29698
G1 X43.408 Y55.598 E12.3225
G0 F3000 X43.671 Y55.901
G1 F1500 X44.124 Y55.614 E12.34669
G1 X44.614 Y55.397 E12.37087
G1 X45.132 Y55.255 E12.3951
G1 X45.677 Y55.192 E12.41985
G1 X46.338 Y55.178 E12.44968
G1 X63.11 Y55.177 E13.20638
G1 X63.814 Y55.187 E13.23814
G1 X64.12 Y55.205 E13.25197
G1 X64.973 Y55.29 E13.29065
G1 X67.732 Y55.525 E13.41558
G1 X70.43 Y55.679 E13.5375
G1 X73.194 Y55.758 E13.66225
G1 X75.888 Y55.76 E13.7838
G1 X78.655 Y55.683 E13.90868
G1 X81.343 Y55.531 E14.03015
G1 X84.068 Y55.3 E14.15354
G1 X86.774 Y54.994 E14.2764
G1 X87.626 Y54.873 E14.31523
G1 X88.435 Y54.769 E14.35202
G1 X88.977 Y54.708 E14.37663
G1 X89.55 Y54.669 E14.40254
G1 X90.061 Y54.66 E14.4256
G1 X90.623 Y54.678 E14.45097
G1 X91.189 Y54.724 E14.47659
G1 X92.343 Y54.855 E14.52899
G1 X93.149 Y54.952 E14.56562
G1 X95.886 Y55.214 E14.68967
G1 X98.612 Y55.396 E14.81293
G1 X101.305 Y55.5 E14.93452
G1 X104.071 Y55.529 E15.05932
G1 X106.768 Y55.48 E15.18102
G1 X109.505 Y55.354 E15.30463
G1 X112.565 Y55.119 E15.4431
G1 X113.084 Y55.071 E15.46661
G1 X113.944 Y55.046 E15.50543
G1 X130.716 Y55.045 E16.26213
G1 X131.421 Y55.055 E16.29394
G1 X131.955 Y55.103 E16.31813
G1 X132.476 Y55.229 E16.34231
G1 X132.973 Y55.432 E16.36653
G1 X133.434 Y55.706 E16.39073
G1 X133.898 Y56.092 E16.41796
G1 X134.046 Y56.238 E16.42734
G1 X134.399 Y56.642 E16.45154
G1 X134.688 Y57.094 E16.47575
G1 X134.906 Y57.584 E16.49994
G1 X135.049 Y58.101 E16.52414
G1 X135.114 Y58.636 E16.54846
G1 X135.129 Y59.286 E16.57779
G1 X135.13 Y96.07 E18.23736
G1 X135.12 Y96.795 E18.27008
G1 X135.072 Y97.329 E18.29427
G1 X134.946 Y97.85 E18.31845
G1 X134.744 Y98.347 E18.34265
G1 X134.47 Y98.808 E18.36685
G1 X134.083 Y99.273 E18.39414
G1 X133.94 Y99.418 E18.40333
G1 X133.536 Y99.771 E18.42754
G1 X133.084 Y100.059 E18.45172
G1 X132.595 Y100.278 E18.47589
G1 X132.078 Y100.421 E18.50009
G1 X131.433 Y100.493 E18.52937
G1 X130.856 Y100.504 E18.55541
G1 X114.081 Y100.505 E19.31224
G1 X113.349 Y100.494 E19.34527
G1 X112.809 Y100.461 E19.36968
G1 X110.727 Y100.283 E19.46396
G1 X108.04 Y100.13 E19.58538
G1 X105.277 Y100.051 E19.71009
G1 X102.582 Y100.051 E19.83168
G1 X99.814 Y100.128 E19.95661
G1 X97.125 Y100.28 E20.07812
G1 X94.42 Y100.509 E20.2006
G1 X92.544 Y100.728 E20.28581
G1 X92.471 Y100.731 E20.28911
G1 X91.02 Y100.893 E20.35498
G1 X90.449 Y100.931 E20.3808
G1 X89.939 Y100.94 E20.40381
G1 X89.381 Y100.922 E20.429
G1 X89.211 Y100.912 E20.43668
G1 X87.609 Y100.773 E20.50923
G1 X84.83 Y100.572 E20.63494
G1 X82.171 Y100.455 E20.75502
G1 X79.407 Y100.412 E20.87974
G1 X76.675 Y100.446 E21.00301
G1 X73.892 Y100.56 E21.12867
G1 X73.227 Y100.597 E21.15872
G1 X73.099 Y100.602 E21.1645
G1 X72.13 Y100.62 E21.20823
G1 X71.154 Y100.606 E21.25227
G1 X67.785 Y100.616 E21.40426
G1 X67.501 Y100.621 E21.41708
G1 X64.617 Y100.62 E21.5472
G1 X63.206 Y100.636 E21.61086
G1 X46.478 Y100.637 E22.36557
G1 X45.772 Y100.627 E22.39743
G1 X45.238 Y100.579 E22.42162
G1 X44.717 Y100.453 E22.4458
G1 X44.22 Y100.25 E22.47002
G1 X43.759 Y99.977 E22.49419
G1 X43.295 Y99.59 E22.52145
G1 X43.149 Y99.446 E22.53071
G1 X42.796 Y99.042 E22.55491
G1 X42.508 Y98.59 E22.57909
G1 X42.289 Y98.1 E22.60331
G1 X42.146 Y97.584 E22.62746
G1 X42.082 Y97.065 E22.65106
G1 X42.065 Y96.322 E22.68459
G1 X42.064 Y59.564 E24.34299
G1 X42.075 Y58.877 E24.37399
G1 X42.124 Y58.343 E24.39818
G1 X42.251 Y57.822 E24.42237
G1 X42.455 Y57.326 E24.44657
G1 X42.729 Y56.866 E24.47073
G1 X43.121 Y56.398 E24.49827
G1 X43.266 Y56.252 E24.50755
G1 X43.671 Y55.901 E24.53173
G0 F3000 X43.933 Y56.205
G1 F1500 X44.364 Y55.94 E24.55456
G1 X44.831 Y55.746 E24.57737
G1 X45.322 Y55.628 E24.60016
G1 X45.844 Y55.586 E24.62378
G1 X46.382 Y55.578 E24.64806
G1 X63.104 Y55.577 E25.4025
G1 X63.808 Y55.587 E25.43427
G1 X64.081 Y55.603 E25.44661
G1 X64.967 Y55.691 E25.48678
G1 X67.679 Y55.922 E25.60957
G1 X70.43 Y56.079 E25.73389
G1 X73.183 Y56.158 E25.85815
G1 X75.9 Y56.16 E25.98073
G1 X78.651 Y56.083 E26.1049
G1 X81.366 Y55.93 E26.22758
G1 X84.11 Y55.698 E26.35183
G1 X86.838 Y55.389 E26.47569
G1 X87.678 Y55.269 E26.51397
G1 X88.48 Y55.166 E26.55045
G1 X89.022 Y55.105 E26.57506
G1 X89.574 Y55.068 E26.60002
G1 X90.215 Y55.062 E26.62894
G1 X90.763 Y55.087 E26.65369
G1 X91.144 Y55.121 E26.67095
G1 X92.295 Y55.252 E26.72322
G1 X93.142 Y55.354 E26.76171
G1 X95.822 Y55.61 E26.88317
G1 X98.571 Y55.794 E27.00747
G1 X101.32 Y55.901 E27.13159
G1 X104.074 Y55.929 E27.25585
G1 X106.757 Y55.88 E27.37692
G1 X109.521 Y55.753 E27.50175
G1 X112.652 Y55.513 E27.64343
G1 X113.121 Y55.47 E27.66467
G1 X113.949 Y55.446 E27.70205
G1 X130.71 Y55.445 E28.45825
G1 X131.415 Y55.455 E28.49006
G1 X131.919 Y55.502 E28.5129
G1 X132.408 Y55.628 E28.53568
G1 X132.872 Y55.83 E28.55851
G1 X133.298 Y56.101 E28.58129
G1 X133.765 Y56.523 E28.60969
G1 X134.096 Y56.905 E28.63249
G1 X134.362 Y57.335 E28.6553
G1 X134.558 Y57.801 E28.67811
G1 X134.677 Y58.293 E28.70095
G1 X134.724 Y58.892 E28.72806
G1 X134.729 Y59.331 E28.74787
G1 X134.73 Y96.064 E30.40514
G1 X134.72 Y96.789 E30.43785
G1 X134.673 Y97.293 E30.46069
G1 X134.547 Y97.782 E30.48347
G1 X134.346 Y98.246 E30.50628
G1 X134.074 Y98.672 E30.52909
G1 X133.655 Y99.137 E30.55733
G1 X133.273 Y99.468 E30.58013
G1 X132.843 Y99.734 E30.60294
G1 X132.377 Y99.93 E30.62575
G1 X131.886 Y100.049 E30.64855
G1 X131.262 Y100.099 E30.67679
G1 X130.812 Y100.104 E30.69709
G1 X114.087 Y100.105 E31.45167
G1 X113.355 Y100.094 E31.4847
G1 X112.837 Y100.062 E31.50811
G1 X110.786 Y99.886 E31.60099
G1 X108.04 Y99.73 E31.72508
G1 X105.288 Y99.651 E31.84929
G1 X102.57 Y99.651 E31.97192
G1 X99.818 Y99.728 E32.09613
G1 X97.102 Y99.881 E32.21886
G1 X94.342 Y100.115 E32.34383
G1 X92.498 Y100.33 E32.42759
G1 X92.432 Y100.332 E32.43057
G1 X90.976 Y100.495 E32.49667
G1 X90.426 Y100.532 E32.52154
G1 X89.783 Y100.538 E32.55055
G1 X89.245 Y100.513 E32.57485
G1 X87.661 Y100.376 E32.64658
G1 X84.876 Y100.175 E32.77256
G1 X82.16 Y100.054 E32.89521
G1 X79.408 Y100.012 E33.01939
G1 X76.652 Y100.047 E33.14374
G1 X73.92 Y100.158 E33.2671
G1 X73.205 Y100.198 E33.29941
G1 X73.091 Y100.202 E33.30456
G1 X72.136 Y100.22 E33.34765
G1 X71.158 Y100.206 E33.39178
G1 X67.781 Y100.216 E33.54414
G1 X67.501 Y100.221 E33.55677
G1 X64.612 Y100.22 E33.68712
G1 X63.206 Y100.236 E33.75055
G1 X46.484 Y100.237 E34.505
G1 X45.778 Y100.227 E34.53685
G1 X45.274 Y100.18 E34.55969
G1 X44.785 Y100.054 E34.58247
G1 X44.321 Y99.853 E34.60529
G1 X43.895 Y99.581 E34.62809
G1 X43.43 Y99.161 E34.65636
G1 X43.099 Y98.779 E34.67916
G1 X42.833 Y98.349 E34.70198
G1 X42.637 Y97.883 E34.72478
G1 X42.518 Y97.392 E34.74758
G1 X42.473 Y96.887 E34.77045
G1 X42.465 Y96.318 E34.79613
G1 X42.464 Y59.571 E36.45403
G1 X42.475 Y58.884 E36.48503
G1 X42.523 Y58.38 E36.50787
G1 X42.65 Y57.891 E36.53066
G1 X42.852 Y57.428 E36.55346
G1 X43.125 Y57.002 E36.57628
G1 X43.549 Y56.534 E36.60477
G1 X43.933 Y56.205 E36.62759
G1 F2400 E35.42759
;MESH:angle_joint-slide_block.stl
G0 F3000 X51.645 Y63.507
;TYPE:WALL-INNER
G1 F2400 E36.62759
G1 F1500 X50.394 Y64.758 E36.70741
G1 X50.394 Y71.056 E36.99155
G1 X51.645 Y72.307 E37.07137
G1 X57.943 Y72.307 E37.35552
G1 X59.194 Y71.056 E37.43534
G1 X59.194 Y64.758 E37.71948
G1 X57.943 Y63.507 E37.7993
G1 X51.645 Y63.507 E38.08345
G0 F3000 X51.811 Y63.907
;TYPE:WALL-OUTER
G1 F1500 X50.794 Y64.924 E38.14834
G1 X50.794 Y70.89 E38.4175
G1 X51.811 Y71.907 E38.48239
G1 X57.777 Y71.907 E38.75156
G1 X58.794 Y70.89 E38.81645
G1 X58.794 Y64.924 E39.08561
G1 X57.777 Y63.907 E39.1505
G1 X51.811 Y63.907 E39.41967
G0 F3000 X51.67 Y64.048
G0 X51.359 Y63.737
G1 F2400 E38.21967
G0 F3000 X51.645 Y83.507
;TYPE:WALL-INNER
G1 F2400 E39.41967
G1 F1500 X50.394 Y84.758 E39.49949
G1 X50.394 Y91.056 E39.78363
G1 X51.645 Y92.307 E39.86345
G1 X57.943 Y92.307 E40.1476
G1 X59.194 Y91.056 E40.22742
G1 X59.194 Y84.758 E40.51156
G1 X57.943 Y83.507 E40.59138
G1 X51.645 Y83.507 E40.87553
G0 F3000 X51.811 Y83.907
;TYPE:WALL-OUTER
G1 F1500 X50.794 Y84.924 E40.94042
G1 X50.794 Y90.89 E41.20958
G1 X51.811 Y91.907 E41.27447
G1 X57.777 Y91.907 E41.54364
G1 X58.794 Y90.89 E41.60853
G1 X58.794 Y84.924 E41.87769
G1 X57.777 Y83.907 E41.94258
G1 X51.811 Y83.907 E42.21175
G0 F3000 X51.67 Y84.048
G0 X51.359 Y83.737
G1 F2400 E41.01175
G0 F3000 X46.265 Y96.437
;TYPE:WALL-INNER
G1 F2400 E42.21175
G1 F1500 X46.264 Y59.378 E43.88373
G1 X63.323 Y59.377 E44.65338
G1 X63.324 Y96.436 E46.32536
G1 X46.265 Y96.437 E47.095
G0 F3000 X45.865 Y96.801
;TYPE:WALL-OUTER
G1 F1500 X45.864 Y59.014 E48.79983
G1 X45.9 Y58.978 E48.80212
G1 X63.687 Y58.977 E49.60462
G1 X63.723 Y59.013 E49.60691
G1 X63.724 Y96.8 E51.31174
G1 X63.688 Y96.836 E51.31403
G1 X45.901 Y96.837 E52.11653
G1 X45.865 Y96.801 E52.11882
G0 F3000 X45.865 Y96.601
G0 X46.306 Y96.396
G0 X46.655 Y96.047
;TYPE:SKIN
G1 F1500 X46.654 Y59.768 E53.78689
G1 X62.933 Y59.767 E54.53538
G1 X62.934 Y96.046 E56.20344
G1 X46.655 Y96.047 E56.95193
G1 F2400 E55.75193
G0 F3000 X51.483 Y92.697
G1 F2400 E56.95193
G1 F1500 X58.105 Y92.697 E57.2564
G1 X59.584 Y91.218 E57.35257
G1 X59.584 Y84.596 E57.65704
G1 X58.105 Y83.117 E57.75321
G1 X51.483 Y83.117 E58.05769
G1 X50.004 Y84.596 E58.15386
G1 X50.004 Y91.218 E58.45833
G1 X51.483 Y92.697 E58.5545
G1 F2400 E57.3545
G0 F3000 X51.483 Y72.697
G1 F2400 E58.5545
G1 F1500 X58.105 Y72.697 E58.85897
G1 X59.584 Y71.218 E58.95514
G1 X59.584 Y64.596 E59.25961
G1 X58.105 Y63.117 E59.35578
G1 X51.483 Y63.117 E59.66025
G1 X50.004 Y64.596 E59.75642
G1 X50.004 Y71.218 E60.0609
G1 X51.483 Y72.697 E60.15707
G1 F2400 E58.95707
G0 F3000 X62.753 Y60.49
G1 F2400 E60.15707
G1 F1500 X62.209 Y59.947 E60.19241
G0 F3000 X61.644 Y59.947
G1 F1500 X62.753 Y61.056 E60.26452
G0 F3000 X62.753 Y61.622
G1 F1500 X61.078 Y59.947 E60.37343
G0 F3000 X60.512 Y59.947
G1 F1500 X62.753 Y62.187 E60.51912
G0 F3000 X62.753 Y62.753
G1 F1500 X59.947 Y59.947 E60.70158
G0 F3000 X59.381 Y59.947
G1 F1500 X62.753 Y63.319 E60.92084
G0 F3000 X62.753 Y63.884
G1 F1500 X58.815 Y59.947 E61.17687
G0 F3000 X58.25 Y59.947
G1 F1500 X62.753 Y64.45 E61.46967
G0 F3000 X62.753 Y65.016
G1 F1500 X57.684 Y59.947 E61.79928
G0 F3000 X57.118 Y59.947
G1 F1500 X62.753 Y65.582 E62.16569
G0 F3000 X62.753 Y66.147
G1 F1500 X56.552 Y59.947 E62.56887
G0 F3000 X55.987 Y59.947
G1 F1500 X62.753 Y66.713 E63.00882
G0 F3000 X62.753 Y67.279
G1 F1500 X55.421 Y59.947 E63.48557
G0 F3000 X54.855 Y59.947
G1 F1500 X57.844 Y62.936 E63.67993
G0 F3000 X57.279 Y62.936
G1 F1500 X54.29 Y59.947 E63.87429
G0 F3000 X53.724 Y59.947
G1 F1500 X56.713 Y62.936 E64.06864
G0 F3000 X56.147 Y62.936
G1 F1500 X53.158 Y59.947 E64.263
G0 F3000 X52.593 Y59.947
G1 F1500 X55.582 Y62.936 E64.45735
G0 F3000 X55.016 Y62.936
G1 F1500 X52.027 Y59.947 E64.65171
G0 F3000 X51.461 Y59.947
G1 F1500 X54.45 Y62.936 E64.84607
G0 F3000 X53.885 Y62.936
G1 F1500 X50.896 Y59.947 E65.04042
G0 F3000 X50.33 Y59.947
G1 F1500 X53.319 Y62.936 E65.23478
G0 F3000 X52.753 Y62.936
G1 F1500 X49.764 Y59.947 E65.42914
G0 F3000 X49.199 Y59.947
G1 F1500 X52.188 Y62.936 E65.62349
G0 F3000 X51.622 Y62.936
G1 F1500 X48.633 Y59.947 E65.81785
G0 F3000 X48.067 Y59.947
G1 F1500 X51.232 Y63.112 E66.02365
G0 F3000 X50.949 Y63.394
G1 F1500 X47.502 Y59.947 E66.24779
G0 F3000 X46.936 Y59.947
G1 F1500 X50.667 Y63.677 E66.49036
G0 F3000 X50.384 Y63.96
G1 F1500 X46.834 Y60.41 E66.72119
G0 F3000 X46.834 Y60.976
G1 F1500 X50.101 Y64.243 E66.93363
G0 F3000 X49.824 Y64.531
G1 F1500 X46.834 Y61.542 E67.12801
G0 F3000 X46.834 Y62.108
G1 F1500 X49.824 Y65.097 E67.3224
G0 F3000 X49.824 Y65.663
G1 F1500 X46.834 Y62.673 E67.51682
G0 F3000 X46.834 Y63.239
G1 F1500 X49.824 Y66.229 E67.71125
G0 F3000 X49.824 Y66.794
G1 F1500 X46.834 Y63.805 E67.90563
G0 F3000 X46.834 Y64.37
G1 F1500 X49.824 Y67.36 E68.10006
G0 F3000 X49.824 Y67.926
G1 F1500 X46.834 Y64.936 E68.29448
G0 F3000 X46.834 Y65.502
G1 F1500 X49.824 Y68.491 E68.48887
G0 F3000 X49.824 Y69.057
G1 F1500 X46.834 Y66.067 E68.68329
