;FLAVOR:Marlin
;TIME:1254
;Filament used: 2.04561m
;Layer height: 0.3
;MINX:65.011
;MINY:67.71
;MINZ:0.3
;MAXX:112.29
;MAXY:112.29
;MAXZ:20.1
;Generated with Cura_SteamEngine 4.13.1
M82 ;absolute extrusion mode
G21 ;metric values
G90 ;absolute positioning
M82 ;set extruder to absolute mode
M107 ;start with the fan off

M104 S205.0 T0 ; start heating T0 to what is set in Cura
M140 S55 ; start heating the bed to what is set in Cura
M190 S55 ; start heating the bed to what is set in Cura
M109 S205.0 T0 ; start heating T0 to what is set in Cura

G28 X0 Y0 ;move X/Y to min endstops
G28 Z0 ;move Z to min endstops
G1 Z15.0 F2400 ;move the platform down 15mm
G92 E0 ;zero the extruded length
G1 F200 E3 ;extrude 3mm of feed stock
G92 E0 ;zero the extruded length again
G1 F2400
G0 Y20 F2400
M117 Printing...
G5
G92 E0
G92 E0
G1 F2400 E-1.2
;LAYER_COUNT:67
;LAYER:0
M107
G0 F3000 X66.344 Y69.715 Z0.3
;TYPE:SKIRT
G1 F2400 E0
G1 F1500 X66.866 Y69.248 E0.0316
G1 X67.149 Y69.009 E0.04831
G1 X67.609 Y68.68 E0.07383
G1 X68.11 Y68.419 E0.09931
G1 X68.644 Y68.231 E0.12486
G1 X69.198 Y68.12 E0.15035
G1 X69.643 Y68.088 E0.17048
G1 X70.24 Y68.079 E0.19741
G1 X72.955 Y68.002 E0.31996
G1 X75.021 Y67.891 E0.4133
G1 X75.867 Y67.887 E0.45147
G1 X76.187 Y67.9 E0.46592
G1 X78.91 Y67.976 E0.58882
G1 X81.649 Y67.976 E0.71239
G1 X83.591 Y67.919 E0.80005
G1 X84.741 Y67.902 E0.85194
G1 X87.455 Y67.825 E0.97443
G1 X89.521 Y67.714 E1.06778
G1 X90.36 Y67.71 E1.10563
G1 X91.153 Y67.743 E1.14144
G1 X92.606 Y67.825 E1.2071
G1 X95.355 Y67.903 E1.33118
G1 X95.851 Y67.91 E1.35356
G1 X96.415 Y67.958 E1.37909
G1 X96.966 Y68.085 E1.40461
G1 X97.493 Y68.288 E1.43009
G1 X97.987 Y68.564 E1.45562
G1 X98.727 Y69.145 E1.49806
G1 X99.137 Y69.505 E1.52268
G1 X99.551 Y69.925 E1.54929
G1 X101.24 Y71.846 E1.66469
G1 X103.083 Y73.827 E1.78677
G1 X104.995 Y75.77 E1.90975
G1 X106.953 Y77.65 E2.03222
G1 X109.104 Y79.575 E2.16245
G1 X109.251 Y79.726 E2.17196
G1 X110.062 Y80.439 E2.22068
G1 X110.405 Y80.779 E2.24247
G1 X110.926 Y81.362 E2.27775
G1 X111.175 Y81.659 E2.29523
G1 X111.503 Y82.119 E2.32072
G1 X111.763 Y82.621 E2.34623
G1 X111.949 Y83.155 E2.37174
G1 X112.058 Y83.71 E2.39726
G1 X112.089 Y84.144 E2.41689
G1 X112.098 Y84.74 E2.44378
G1 X112.175 Y87.455 E2.56632
G1 X112.286 Y89.521 E2.65967
G1 X112.29 Y90.359 E2.69748
G1 X112.257 Y91.153 E2.73333
G1 X112.175 Y92.606 E2.79899
G1 X112.097 Y95.355 E2.92306
G1 X112.09 Y95.852 E2.94549
G1 X112.042 Y96.416 E2.97103
G1 X111.915 Y96.967 E2.99654
G1 X111.712 Y97.494 E3.02202
G1 X111.436 Y97.988 E3.04755
G1 X110.851 Y98.731 E3.09021
G1 X110.493 Y99.138 E3.11467
G1 X110.05 Y99.573 E3.14268
G1 X108.154 Y101.24 E3.25658
G1 X106.173 Y103.083 E3.37866
G1 X104.229 Y104.996 E3.50171
G1 X102.35 Y106.953 E3.62411
G1 X100.425 Y109.104 E3.75434
G1 X100.274 Y109.251 E3.76385
G1 X99.561 Y110.062 E3.81257
G1 X99.221 Y110.405 E3.83436
G1 X98.553 Y111 E3.87472
G1 X98.38 Y111.146 E3.88493
G1 X97.923 Y111.479 E3.91044
G1 X97.424 Y111.745 E3.93596
G1 X96.892 Y111.937 E3.96147
G1 X96.339 Y112.053 E3.98697
G1 X95.86 Y112.089 E4.00864
G1 X95.26 Y112.098 E4.03571
G1 X92.545 Y112.175 E4.15825
G1 X90.479 Y112.286 E4.2516
G1 X89.641 Y112.29 E4.28941
G1 X88.847 Y112.257 E4.32526
G1 X87.394 Y112.175 E4.39092
G1 X84.646 Y112.097 E4.51495
G1 X83.713 Y112.083 E4.55705
G1 X81.696 Y112.025 E4.64809
G1 X78.972 Y112.025 E4.77098
G1 X76.843 Y112.078 E4.86707
G1 X75.737 Y112.117 E4.917
G1 X75.141 Y112.113 E4.94389
G1 X74.347 Y112.08 E4.97974
G1 X72.894 Y111.998 E5.0454
G1 X70.145 Y111.92 E5.16948
G1 X69.648 Y111.913 E5.1919
G1 X69.084 Y111.865 E5.21744
G1 X68.533 Y111.738 E5.24295
G1 X68.006 Y111.535 E5.26843
G1 X67.512 Y111.259 E5.29396
G1 X66.769 Y110.674 E5.33662
G1 X66.379 Y110.332 E5.36003
G1 X65.982 Y109.93 E5.38552
G1 X65.646 Y109.475 E5.41104
G1 X65.377 Y108.978 E5.43653
G1 X65.181 Y108.448 E5.46203
G1 X65.062 Y107.895 E5.48755
G1 X65.023 Y107.411 E5.50946
G1 X65.011 Y106.729 E5.54023
G1 X65.025 Y105.73 E5.58531
G1 X65.015 Y102.399 E5.73559
G1 X65.029 Y101.735 E5.76555
G1 X65.091 Y101.107 E5.79403
G1 X65.279 Y99.444 E5.86953
G1 X65.507 Y96.741 E5.99192
G1 X65.66 Y94.005 E6.11555
G1 X65.735 Y91.331 E6.23624
G1 X65.733 Y88.586 E6.36008
G1 X65.656 Y85.883 E6.48208
G1 X65.501 Y83.194 E6.6036
G1 X65.14 Y79.262 E6.78175
G1 X65.05 Y78.464 E6.81798
G1 X65.026 Y78.099 E6.83448
G1 X65.012 Y77.422 E6.86503
G1 X65.011 Y77.283 E6.8713
G1 X65.025 Y76.284 E6.91638
G1 X65.015 Y72.918 E7.06824
G1 X65.012 Y72.772 E7.07483
G1 X65.041 Y72.208 E7.10031
G1 X65.149 Y71.653 E7.12582
G1 X65.335 Y71.119 E7.15133
G1 X65.594 Y70.616 E7.17686
G1 X65.921 Y70.155 E7.20236
G1 X66.344 Y69.715 E7.2299
G0 F3000 X66.611 Y70.013
G1 F1500 X67.133 Y69.546 E7.2615
G1 X67.405 Y69.317 E7.27754
G1 X67.842 Y69.006 E7.30174
G1 X68.32 Y68.764 E7.32591
G1 X68.829 Y68.596 E7.35009
G1 X69.358 Y68.505 E7.37431
G1 X69.649 Y68.488 E7.38746
G1 X70.216 Y68.479 E7.41305
G1 X72.988 Y68.4 E7.53816
G1 X74.95 Y68.294 E7.62681
G1 X75.457 Y68.281 E7.64969
G1 X75.961 Y68.29 E7.67243
G1 X76.159 Y68.298 E7.68137
G1 X78.935 Y68.376 E7.80667
G1 X81.661 Y68.376 E7.92965
G1 X83.597 Y68.319 E8.01704
G1 X84.716 Y68.302 E8.06753
G1 X87.488 Y68.223 E8.19264
G1 X89.45 Y68.117 E8.28129
G1 X89.959 Y68.104 E8.30426
G1 X90.454 Y68.113 E8.3266
G1 X91.13 Y68.143 E8.35713
G1 X92.536 Y68.223 E8.42067
G1 X95.381 Y68.303 E8.54907
G1 X95.846 Y68.31 E8.57005
G1 X96.38 Y68.358 E8.59424
G1 X96.901 Y68.484 E8.61843
G1 X97.398 Y68.686 E8.64263
G1 X97.859 Y68.96 E8.66683
G1 X98.471 Y69.453 E8.70228
G1 X98.872 Y69.805 E8.72636
G1 X99.255 Y70.194 E8.75099
G1 X100.948 Y72.119 E8.86665
G1 X102.804 Y74.115 E8.98961
G1 X104.716 Y76.057 E9.11257
G1 X106.677 Y77.94 E9.23523
G1 X108.837 Y79.873 E9.366
G1 X108.979 Y80.021 E9.37526
G1 X109.798 Y80.74 E9.42443
G1 X110.106 Y81.045 E9.44398
G1 X110.627 Y81.628 E9.47926
G1 X110.866 Y81.913 E9.49604
G1 X111.176 Y82.351 E9.52025
G1 X111.417 Y82.83 E9.54444
G1 X111.584 Y83.34 E9.56865
G1 X111.673 Y83.869 E9.59286
G1 X111.689 Y84.15 E9.60555
G1 X111.697 Y84.697 E9.63024
G1 X111.777 Y87.488 E9.75621
G1 X111.883 Y89.45 E9.84486
G1 X111.896 Y89.959 E9.86783
G1 X111.887 Y90.453 E9.89012
G1 X111.857 Y91.13 E9.92069
G1 X111.777 Y92.536 E9.98423
G1 X111.696 Y95.401 E10.11354
G1 X111.69 Y95.847 E10.13367
G1 X111.642 Y96.381 E10.15785
G1 X111.516 Y96.902 E10.18204
G1 X111.314 Y97.399 E10.20624
G1 X111.04 Y97.86 E10.23044
G1 X110.544 Y98.474 E10.26605
G1 X110.193 Y98.874 E10.29006
G1 X109.782 Y99.276 E10.316
G1 X107.881 Y100.948 E10.43022
G1 X105.885 Y102.804 E10.55319
G1 X103.942 Y104.717 E10.67621
G1 X102.06 Y106.677 E10.7988
G1 X100.127 Y108.837 E10.92958
G1 X99.979 Y108.979 E10.93883
G1 X99.26 Y109.798 E10.988
G1 X98.955 Y110.106 E11.00756
G1 X98.295 Y110.694 E11.04744
G1 X98.122 Y110.84 E11.05765
G1 X97.687 Y111.155 E11.08188
G1 X97.211 Y111.401 E11.10605
G1 X96.703 Y111.574 E11.13027
G1 X96.176 Y111.669 E11.15443
G1 X95.854 Y111.689 E11.16898
G1 X95.284 Y111.698 E11.1947
G1 X92.512 Y111.777 E11.31982
G1 X90.55 Y111.883 E11.40846
G1 X90.041 Y111.896 E11.43144
G1 X89.547 Y111.887 E11.45373
G1 X88.87 Y111.857 E11.4843
G1 X87.464 Y111.777 E11.54784
G1 X84.618 Y111.697 E11.67629
G1 X83.725 Y111.684 E11.71658
G1 X81.673 Y111.625 E11.8092
G1 X78.963 Y111.625 E11.93147
G1 X76.821 Y111.678 E12.02814
G1 X75.723 Y111.717 E12.07771
G1 X75.147 Y111.713 E12.10369
G1 X74.419 Y111.683 E12.13657
G1 X72.964 Y111.6 E12.20232
G1 X70.119 Y111.52 E12.33073
G1 X69.653 Y111.513 E12.35175
G1 X69.119 Y111.465 E12.37594
G1 X68.598 Y111.339 E12.40013
G1 X68.101 Y111.137 E12.42433
G1 X67.64 Y110.863 E12.44853
G1 X67.026 Y110.367 E12.48414
G1 X66.643 Y110.032 E12.50709
G1 X66.268 Y109.649 E12.53128
G1 X65.954 Y109.214 E12.55548
G1 X65.709 Y108.737 E12.57968
G1 X65.536 Y108.23 E12.60384
G1 X65.441 Y107.702 E12.62805
G1 X65.423 Y107.403 E12.64156
G1 X65.411 Y106.735 E12.67171
G1 X65.425 Y105.736 E12.71678
G1 X65.415 Y102.391 E12.8677
G1 X65.427 Y101.774 E12.89554
G1 X65.489 Y101.152 E12.92374
G1 X65.677 Y99.487 E12.99934
G1 X65.907 Y96.763 E13.12267
G1 X66.058 Y94.074 E13.24418
G1 X66.135 Y91.306 E13.36912
G1 X66.133 Y88.61 E13.49075
G1 X66.054 Y85.849 E13.61537
G1 X65.9 Y83.166 E13.73662
G1 X65.53 Y79.144 E13.91884
G1 X65.448 Y78.419 E13.95176
G1 X65.426 Y78.09 E13.96664
G1 X65.411 Y77.289 E14.00278
G1 X65.425 Y76.29 E14.04786
G1 X65.415 Y72.916 E14.20008
G1 X65.412 Y72.765 E14.2069
G1 X65.441 Y72.229 E14.23111
G1 X65.55 Y71.704 E14.2553
G1 X65.736 Y71.201 E14.2795
G1 X65.995 Y70.731 E14.30371
G1 X66.32 Y70.305 E14.32789
G1 X66.611 Y70.013 E14.34648
G0 F3000 X66.877 Y70.311
G1 F1500 X67.399 Y69.844 E14.37809
G1 X67.66 Y69.625 E14.39346
G1 X68.074 Y69.334 E14.41629
G1 X68.528 Y69.112 E14.43909
G1 X69.011 Y68.964 E14.46188
G1 X69.655 Y68.888 E14.49114
G1 X70.233 Y68.879 E14.51722
G1 X73.02 Y68.799 E14.64301
G1 X75.046 Y68.691 E14.73455
G1 X75.856 Y68.687 E14.77109
G1 X76.132 Y68.698 E14.78355
G1 X78.923 Y68.776 E14.90952
G1 X81.639 Y68.776 E15.03206
G1 X83.603 Y68.719 E15.12071
G1 X84.732 Y68.702 E15.17165
G1 X87.52 Y68.622 E15.29749
G1 X89.546 Y68.514 E15.38902
G1 X90.437 Y68.513 E15.42922
G1 X91.107 Y68.542 E15.45948
G1 X92.536 Y68.623 E15.52405
G1 X95.365 Y68.703 E15.65174
G1 X95.84 Y68.71 E15.67317
G1 X96.344 Y68.757 E15.69601
G1 X96.833 Y68.883 E15.71879
G1 X97.297 Y69.084 E15.74161
G1 X97.841 Y69.45 E15.77119
G1 X98.286 Y69.821 E15.79733
G1 X98.86 Y70.354 E15.83267
G1 X98.994 Y70.501 E15.84164
G1 X100.671 Y72.41 E15.95628
G1 X102.492 Y74.367 E16.07689
G1 X104.436 Y76.343 E16.20195
G1 X106.416 Y78.243 E16.32575
G1 X108.57 Y80.171 E16.45618
G1 X108.699 Y80.307 E16.46464
G1 X109.534 Y81.04 E16.51477
G1 X109.808 Y81.312 E16.53218
G1 X110.329 Y81.895 E16.56746
G1 X110.558 Y82.168 E16.58354
G1 X110.847 Y82.582 E16.60632
G1 X111.068 Y83.037 E16.62914
G1 X111.215 Y83.521 E16.65196
G1 X111.289 Y84.156 E16.6808
G1 X111.297 Y84.708 E16.70571
G1 X111.378 Y87.52 E16.83263
G1 X111.486 Y89.546 E16.92417
G1 X111.49 Y90.347 E16.9603
G1 X111.458 Y91.107 E16.99462
G1 X111.377 Y92.536 E17.0592
G1 X111.296 Y95.39 E17.18801
G1 X111.29 Y95.841 E17.20836
G1 X111.243 Y96.344 E17.23116
G1 X111.117 Y96.834 E17.25398
G1 X110.916 Y97.298 E17.2768
G1 X110.548 Y97.845 E17.30654
G1 X110.178 Y98.286 E17.33251
G1 X109.636 Y98.87 E17.36846
G1 X109.486 Y99.004 E17.37753
G1 X107.61 Y100.653 E17.49022
G1 X105.633 Y102.492 E17.61204
G1 X103.656 Y104.437 E17.73717
G1 X101.757 Y106.416 E17.86091
G1 X99.829 Y108.57 E17.99133
G1 X99.693 Y108.699 E17.99979
G1 X98.96 Y109.534 E18.04992
G1 X98.688 Y109.808 E18.06734
G1 X98.037 Y110.389 E18.10671
G1 X97.864 Y110.535 E18.11692
G1 X97.453 Y110.829 E18.13972
G1 X97.001 Y111.055 E18.16252
G1 X96.519 Y111.207 E18.18532
G1 X95.848 Y111.289 E18.21582
G1 X95.267 Y111.298 E18.24203
G1 X92.48 Y111.378 E18.36783
G1 X90.454 Y111.486 E18.45936
G1 X89.653 Y111.49 E18.4955
G1 X88.893 Y111.458 E18.52982
G1 X87.464 Y111.377 E18.5944
G1 X84.634 Y111.297 E18.72213
G1 X83.736 Y111.284 E18.76265
G1 X81.684 Y111.225 E18.85526
G1 X78.953 Y111.225 E18.97848
G1 X76.798 Y111.279 E19.07573
G1 X75.709 Y111.317 E19.1249
G1 X75.153 Y111.313 E19.14998
G1 X74.393 Y111.281 E19.1843
G1 X72.964 Y111.2 E19.24888
G1 X70.135 Y111.12 E19.37656
G1 X69.659 Y111.113 E19.39804
G1 X69.156 Y111.066 E19.42083
G1 X68.666 Y110.94 E19.44366
G1 X68.202 Y110.739 E19.46647
G1 X67.655 Y110.371 E19.49622
G1 X67.217 Y110.004 E19.522
G1 X66.908 Y109.732 E19.54057
G1 X66.556 Y109.369 E19.56338
G1 X66.265 Y108.955 E19.58621
G1 X66.044 Y108.501 E19.609
G1 X65.897 Y108.017 E19.63182
G1 X65.823 Y107.395 E19.66008
G1 X65.811 Y106.74 E19.68963
G1 X65.825 Y105.741 E19.73471
G1 X65.815 Y102.361 E19.8872
G1 X65.825 Y101.813 E19.91193
G1 X65.886 Y101.197 E19.93986
G1 X66.074 Y99.529 E20.01559
G1 X66.306 Y96.786 E20.13979
G1 X66.458 Y94.07 E20.26252
G1 X66.535 Y91.318 E20.38673
G1 X66.533 Y88.599 E20.5094
G1 X66.454 Y85.849 E20.63352
G1 X66.299 Y83.134 E20.75621
G1 X65.928 Y79.107 E20.93867
G1 X65.845 Y78.375 E20.9719
G1 X65.826 Y78.082 E20.98515
G1 X65.811 Y77.294 E21.02071
G1 X65.825 Y76.295 E21.06579
G1 X65.815 Y72.915 E21.21828
G1 X65.812 Y72.757 E21.22541
G1 X65.842 Y72.252 E21.24824
G1 X65.951 Y71.759 E21.27101
G1 X66.137 Y71.289 E21.29382
G1 X66.395 Y70.853 E21.31668
G1 X66.877 Y70.311 E21.3494
G1 F2400 E20.1494
;MESH:clip-clip.stl(5)
G0 F3000 X75.7 Y77.144
;TYPE:WALL-INNER
G1 F2400 E21.3494
G1 F1500 X75.5 Y77.41 E21.36442
G1 X75.3 Y77.144 E21.37222
G1 X75.3 Y73.41 E21.54069
G1 X75.5 Y73.144 E21.55571
G1 X75.7 Y73.41 E21.56351
G1 X75.7 Y77.144 E21.69862
G0 F3000 X76.1 Y77.177
G1 F1500 X79.149 Y77.177 E21.83619
G1 X81.026 Y77.177 E21.92087
G1 X81.399 Y77.602 E21.94638
G1 X81.078 Y77.877 E21.96545
G1 X79.748 Y77.877 E22.02546
G1 X79.149 Y77.277 E22.06371
G1 X76.1 Y77.277 E22.09818
G1 X75.5 Y78.077 E22.1433
G1 X74.9 Y77.277 E22.18842
G1 X71.851 Y77.277 E22.32598
G1 X71.252 Y77.877 E22.36423
G1 X69.922 Y77.877 E22.42423
G1 X69.601 Y77.602 E22.4433
G1 X69.974 Y77.177 E22.46882
G1 X71.851 Y77.177 E22.5535
G1 X74.9 Y77.177 E22.58798
G1 X74.9 Y73.377 E22.75942
G1 X71.851 Y73.377 E22.89698
G1 X69.972 Y73.377 E22.98176
G1 X69.601 Y72.952 E23.00721
G1 X69.922 Y72.677 E23.02628
G1 X71.252 Y72.677 E23.08628
G1 X71.851 Y73.277 E23.12454
G1 X74.9 Y73.277 E23.15901
G1 X75.5 Y72.477 E23.20413
G1 X76.1 Y73.277 E23.24924
G1 X79.149 Y73.277 E23.38681
G1 X79.748 Y72.677 E23.42506
G1 X81.078 Y72.677 E23.48506
G1 X81.399 Y72.952 E23.50413
G1 X81.028 Y73.377 E23.52958
G1 X79.149 Y73.377 E23.61436
G1 X76.1 Y73.377 E23.64884
G1 X76.1 Y77.177 E23.82028
G0 F3000 X76.5 Y76.777
;TYPE:WALL-OUTER
G1 F1500 X81.208 Y76.777 E24.03269
G1 X81.8 Y77.453 E24.07323
G1 X81.8 Y77.785 E24.08821
G1 X81.226 Y78.277 E24.12232
G1 X79.582 Y78.277 E24.19649
G1 X78.983 Y77.677 E24.23474
G1 X76.3 Y77.677 E24.35579
G1 X75.7 Y78.477 E24.4009
G1 X75.3 Y78.477 E24.41895
G1 X74.7 Y77.677 E24.46407
G1 X72.017 Y77.677 E24.58512
G1 X71.418 Y78.277 E24.62337
G1 X69.774 Y78.277 E24.69754
G1 X69.2 Y77.785 E24.73165
G1 X69.2 Y77.453 E24.74663
G1 X69.792 Y76.777 E24.78717
G1 X74.5 Y76.777 E24.99958
G1 X74.5 Y73.777 E25.13493
G1 X69.791 Y73.777 E25.34738
G1 X69.2 Y73.101 E25.38789
G1 X69.2 Y72.769 E25.40287
G1 X69.774 Y72.277 E25.43698
G1 X71.418 Y72.277 E25.51115
G1 X72.017 Y72.877 E25.5494
G1 X74.7 Y72.877 E25.67045
G1 X75.3 Y72.077 E25.71557
G1 X75.7 Y72.077 E25.73361
G1 X76.3 Y72.877 E25.77873
G1 X78.983 Y72.877 E25.89978
G1 X79.582 Y72.277 E25.93803
G1 X81.226 Y72.277 E26.0122
G1 X81.8 Y72.769 E26.04631
G1 X81.8 Y73.101 E26.06129
G1 X81.209 Y73.777 E26.1018
G1 X76.5 Y73.777 E26.31425
G1 X76.5 Y76.777 E26.4496
G0 F3000 X76.7 Y76.777
G0 X76.7 Y77.217
G1 F2400 E25.2496
G0 F3000 X79.789 Y77.527
;TYPE:SKIN
G1 F2400 E26.4496
G1 F1500 X80.072 Y77.527 E26.4629
G1 X80.904 Y77.51 E26.50199
G1 F2400 E25.30199
G0 F3000 X80.663 Y73.027
G1 F2400 E26.50199
G1 F1500 X80.903 Y72.983 E26.50932
G1 X79.856 Y73.068 E26.54084
G1 X79.644 Y73.139 E26.54755
G1 F2400 E25.34755
G0 F3000 X71.046 Y73.026
G1 F2400 E26.54755
G1 F1500 X70.763 Y73.026 E26.56009
G1 X70.197 Y73.026 E26.58517
G1 X70.031 Y73.142 E26.59415
G1 F2400 E25.39415
G0 F3000 X70.454 Y77.525
G1 F2400 E26.59415
G1 F1500 X70.737 Y77.525 E26.60796
G1 X71.231 Y77.454 E26.63231
G1 F2400 E25.43231
G0 F3000 X70.183 Y77.537
G1 F2400 E26.63231
G1 F1500 X69.975 Y77.612 E26.6457
G1 F2400 E25.4457
;MESH:clip-clip.stl(2)
G0 F3000 X90.2 Y76.967
;TYPE:WALL-INNER
G1 F2400 E26.6457
G1 F1500 X90 Y77.233 E26.66071
G1 X89.8 Y76.967 E26.66852
G1 X89.8 Y73.233 E26.83699
G1 X90 Y72.967 E26.852
G1 X90.2 Y73.233 E26.85981
G1 X90.2 Y76.967 E26.99492
G0 F3000 X90.6 Y77
G1 F1500 X93.649 Y77 E27.13248
G1 X95.526 Y77 E27.21716
G1 X95.899 Y77.425 E27.24268
G1 X95.578 Y77.7 E27.26175
G1 X94.248 Y77.7 E27.32175
G1 X93.649 Y77.1 E27.36
G1 X90.6 Y77.1 E27.39448
G1 X90 Y77.9 E27.4396
G1 X89.4 Y77.1 E27.48471
G1 X86.351 Y77.1 E27.62227
G1 X85.752 Y77.7 E27.66052
G1 X84.422 Y77.7 E27.72053
G1 X84.101 Y77.425 E27.7396
G1 X84.474 Y77 E27.76511
G1 X86.351 Y77 E27.8498
G1 X89.4 Y77 E27.88427
G1 X89.4 Y73.2 E28.05572
G1 X86.351 Y73.2 E28.19328
G1 X84.472 Y73.2 E28.27805
G1 X84.101 Y72.775 E28.3035
G1 X84.422 Y72.5 E28.32257
