;FLAVOR:Marlin
;TIME:1048
;Filament used: 1.72938m
;Layer height: 0.3
;MINX:67.71
;MINY:67.71
;MINZ:0.3
;MAXX:112.29
;MAXY:112.29
;MAXZ:20.1
;Generated with Cura_SteamEngine 4.12.1
M82 ;absolute extrusion mode
G21 ;metric values
G90 ;absolute positioning
M82 ;set extruder to absolute mode
M107 ;start with the fan off

M104 S205.0 T0 ; start heating T0 to what is set in Cura
M140 S60 ; start heating the bed to what is set in Cura
M190 S60 ; start heating the bed to what is set in Cura
M109 S205.0 T0 ; start heating T0 to what is set in Cura

G28 X0 Y0 ;move X/Y to min endstops
G28 Z0 ;move Z to min endstops
G1 Z15.0 F2400 ;move the platform down 15mm
G92 E0 ;zero the extruded length
G1 F200 E3 ;extrude 3mm of feed stock
G92 E0 ;zero the extruded length again
G1 F2400
G0 Y20 F2400
M117 Printing...
G5
G92 E0
G92 E0
G1 F2400 E-1.2
;LAYER_COUNT:67
;LAYER:0
M107
G0 F3000 X79.575 Y70.896 Z0.3
;TYPE:SKIRT
G1 F2400 E0
G1 F1500 X79.726 Y70.749 E0.00951
G1 X80.439 Y69.938 E0.05823
G1 X80.779 Y69.595 E0.08002
G1 X81.455 Y68.993 E0.12086
G1 X81.621 Y68.853 E0.13065
G1 X82.078 Y68.52 E0.15616
G1 X82.577 Y68.255 E0.18166
G1 X83.109 Y68.063 E0.20717
G1 X83.662 Y67.947 E0.23267
G1 X84.14 Y67.911 E0.25429
G1 X84.74 Y67.902 E0.28137
G1 X87.455 Y67.825 E0.40391
G1 X89.521 Y67.714 E0.49725
G1 X90.36 Y67.71 E0.53511
G1 X91.153 Y67.743 E0.57091
G1 X92.606 Y67.825 E0.63657
G1 X95.356 Y67.903 E0.76069
G1 X95.851 Y67.91 E0.78303
G1 X96.414 Y67.958 E0.80852
G1 X96.965 Y68.085 E0.83403
G1 X97.492 Y68.288 E0.85951
G1 X97.986 Y68.564 E0.88504
G1 X98.722 Y69.142 E0.92726
G1 X99.137 Y69.505 E0.95214
G1 X99.562 Y69.937 E0.97948
G1 X101.24 Y71.846 E1.09415
G1 X103.083 Y73.827 E1.21623
G1 X104.995 Y75.77 E1.33921
G1 X106.953 Y77.65 E1.46168
G1 X109.104 Y79.575 E1.59191
G1 X109.251 Y79.726 E1.60142
G1 X110.062 Y80.439 E1.65014
G1 X110.405 Y80.779 E1.67193
G1 X110.926 Y81.362 E1.70721
G1 X111.175 Y81.659 E1.72469
G1 X111.503 Y82.119 E1.75018
G1 X111.763 Y82.621 E1.77569
G1 X111.949 Y83.155 E1.8012
G1 X112.058 Y83.71 E1.82672
G1 X112.089 Y84.144 E1.84635
G1 X112.098 Y84.74 E1.87324
G1 X112.175 Y87.455 E1.99578
G1 X112.286 Y89.521 E2.08913
G1 X112.29 Y90.359 E2.12694
G1 X112.257 Y91.153 E2.16279
G1 X112.175 Y92.589 E2.22768
G1 X112.097 Y95.355 E2.35252
G1 X112.09 Y95.852 E2.37495
G1 X112.042 Y96.416 E2.40049
G1 X111.915 Y96.967 E2.426
G1 X111.712 Y97.494 E2.45148
G1 X111.436 Y97.988 E2.47701
G1 X110.851 Y98.731 E2.51967
G1 X110.493 Y99.138 E2.54413
G1 X110.063 Y99.562 E2.57137
G1 X108.134 Y101.259 E2.68729
G1 X106.173 Y103.083 E2.80812
G1 X104.229 Y104.996 E2.93117
G1 X102.35 Y106.953 E3.05357
G1 X100.425 Y109.104 E3.18381
G1 X100.274 Y109.251 E3.19331
G1 X99.561 Y110.062 E3.24203
G1 X99.221 Y110.405 E3.26382
G1 X98.553 Y111 E3.30418
G1 X98.38 Y111.146 E3.3144
G1 X97.923 Y111.479 E3.33991
G1 X97.424 Y111.745 E3.36542
G1 X96.892 Y111.937 E3.39094
G1 X96.339 Y112.053 E3.41643
G1 X95.86 Y112.089 E3.4381
G1 X95.26 Y112.098 E3.46517
G1 X92.545 Y112.175 E3.58771
G1 X90.479 Y112.286 E3.68106
G1 X89.641 Y112.29 E3.71887
G1 X88.847 Y112.257 E3.75472
G1 X87.394 Y112.175 E3.82038
G1 X84.645 Y112.097 E3.94446
G1 X84.148 Y112.09 E3.96688
G1 X83.584 Y112.042 E3.99242
G1 X83.033 Y111.915 E4.01793
G1 X82.506 Y111.712 E4.04341
G1 X82.012 Y111.436 E4.06894
G1 X81.269 Y110.851 E4.11161
G1 X80.858 Y110.49 E4.13629
G1 X80.425 Y110.048 E4.1642
G1 X78.76 Y108.154 E4.27798
G1 X76.917 Y106.173 E4.40005
G1 X75 Y104.225 E4.52336
G1 X73.047 Y102.35 E4.6455
G1 X70.896 Y100.425 E4.77574
G1 X70.755 Y100.28 E4.78486
G1 X69.935 Y99.559 E4.83413
G1 X69.593 Y99.219 E4.85588
G1 X69.074 Y98.638 E4.89103
G1 X68.832 Y98.351 E4.90797
G1 X68.503 Y97.891 E4.93348
G1 X68.242 Y97.39 E4.95897
G1 X68.054 Y96.857 E4.98447
G1 X67.943 Y96.302 E5.01001
G1 X67.911 Y95.857 E5.03014
G1 X67.902 Y95.26 E5.05707
G1 X67.825 Y92.545 E5.17961
G1 X67.714 Y90.479 E5.27296
G1 X67.71 Y89.64 E5.31081
G1 X67.743 Y88.847 E5.34662
G1 X67.825 Y87.394 E5.41228
G1 X67.903 Y84.645 E5.53636
G1 X67.91 Y84.148 E5.55878
G1 X67.958 Y83.584 E5.58432
G1 X68.085 Y83.033 E5.60983
G1 X68.288 Y82.506 E5.63531
G1 X68.564 Y82.012 E5.66084
G1 X69.149 Y81.269 E5.70351
G1 X69.507 Y80.862 E5.72796
G1 X69.96 Y80.418 E5.75658
G1 X71.846 Y78.76 E5.86987
G1 X73.827 Y76.917 E5.99195
G1 X75.771 Y75.004 E6.115
G1 X77.65 Y73.047 E6.2374
G1 X79.575 Y70.896 E6.36764
G0 F3000 X79.873 Y71.163
G1 F1500 X80.021 Y71.021 E6.37689
G1 X80.74 Y70.202 E6.42606
G1 X81.046 Y69.893 E6.44568
G1 X81.713 Y69.299 E6.48597
G1 X81.879 Y69.159 E6.49577
G1 X82.314 Y68.845 E6.51998
G1 X82.79 Y68.599 E6.54415
G1 X83.298 Y68.426 E6.56836
G1 X83.826 Y68.331 E6.59257
G1 X84.146 Y68.311 E6.60703
G1 X84.716 Y68.302 E6.63275
G1 X87.488 Y68.223 E6.75787
G1 X89.45 Y68.117 E6.84651
G1 X89.959 Y68.104 E6.86949
G1 X90.454 Y68.113 E6.89182
G1 X91.13 Y68.143 E6.92235
G1 X92.536 Y68.223 E6.98589
G1 X95.381 Y68.303 E7.1143
G1 X95.845 Y68.31 E7.13523
G1 X96.379 Y68.358 E7.15942
G1 X96.9 Y68.484 E7.18361
G1 X97.397 Y68.687 E7.20783
G1 X97.858 Y68.96 E7.232
G1 X98.467 Y69.45 E7.26726
G1 X98.872 Y69.805 E7.29156
G1 X99.265 Y70.205 E7.31686
G1 X100.948 Y72.119 E7.43185
G1 X102.804 Y74.115 E7.55482
G1 X104.716 Y76.057 E7.67778
G1 X106.677 Y77.94 E7.80043
G1 X108.837 Y79.873 E7.93121
G1 X108.979 Y80.021 E7.94046
G1 X109.798 Y80.74 E7.98963
G1 X110.106 Y81.045 E8.00919
G1 X110.627 Y81.628 E8.04447
G1 X110.866 Y81.913 E8.06125
G1 X111.176 Y82.351 E8.08546
G1 X111.417 Y82.83 E8.10965
G1 X111.584 Y83.34 E8.13386
G1 X111.673 Y83.869 E8.15806
G1 X111.689 Y84.15 E8.17076
G1 X111.697 Y84.697 E8.19544
G1 X111.777 Y87.488 E8.32141
G1 X111.883 Y89.45 E8.41006
G1 X111.896 Y89.959 E8.43303
G1 X111.887 Y90.453 E8.45533
G1 X111.857 Y91.13 E8.4859
G1 X111.777 Y92.536 E8.54944
G1 X111.696 Y95.401 E8.67875
G1 X111.69 Y95.847 E8.69887
G1 X111.642 Y96.381 E8.72306
G1 X111.516 Y96.902 E8.74724
G1 X111.314 Y97.399 E8.77145
G1 X111.04 Y97.86 E8.79564
G1 X110.544 Y98.474 E8.83126
G1 X110.193 Y98.874 E8.85526
G1 X109.794 Y99.266 E8.8805
G1 X107.881 Y100.948 E8.99543
G1 X105.885 Y102.804 E9.11839
G1 X103.942 Y104.717 E9.24141
G1 X102.06 Y106.677 E9.36401
G1 X100.127 Y108.837 E9.49478
G1 X99.979 Y108.979 E9.50404
G1 X99.26 Y109.798 E9.55321
G1 X98.955 Y110.106 E9.57276
G1 X98.295 Y110.694 E9.61264
G1 X98.122 Y110.84 E9.62286
G1 X97.687 Y111.155 E9.64709
G1 X97.211 Y111.401 E9.67126
G1 X96.703 Y111.574 E9.69547
G1 X96.176 Y111.669 E9.71963
G1 X95.854 Y111.689 E9.73419
G1 X95.284 Y111.698 E9.75991
G1 X92.512 Y111.777 E9.88502
G1 X90.55 Y111.883 E9.97367
G1 X90.041 Y111.896 E9.99664
G1 X89.547 Y111.887 E10.01894
G1 X88.87 Y111.857 E10.04951
G1 X87.464 Y111.777 E10.11305
G1 X84.619 Y111.697 E10.24145
G1 X84.153 Y111.69 E10.26248
G1 X83.619 Y111.642 E10.28667
G1 X83.098 Y111.516 E10.31085
G1 X82.601 Y111.314 E10.33506
G1 X82.14 Y111.04 E10.35925
G1 X81.526 Y110.544 E10.39486
G1 X81.123 Y110.19 E10.41906
G1 X80.722 Y109.78 E10.44494
G1 X79.052 Y107.881 E10.55903
G1 X77.196 Y105.885 E10.682
G1 X75.283 Y103.942 E10.80502
G1 X73.323 Y102.06 E10.92761
G1 X71.163 Y100.127 E11.05839
G1 X71.026 Y99.985 E11.06729
G1 X70.199 Y99.258 E11.11697
G1 X69.891 Y98.952 E11.13656
G1 X69.372 Y98.371 E11.17171
G1 X69.14 Y98.095 E11.18798
G1 X68.83 Y97.658 E11.21215
G1 X68.587 Y97.18 E11.23634
G1 X68.419 Y96.671 E11.26052
G1 X68.328 Y96.142 E11.28474
G1 X68.311 Y95.851 E11.29789
G1 X68.302 Y95.254 E11.32483
G1 X68.223 Y92.508 E11.44877
G1 X68.117 Y90.55 E11.53724
G1 X68.104 Y90.041 E11.56021
G1 X68.113 Y89.546 E11.58255
G1 X68.143 Y88.87 E11.61308
G1 X68.223 Y87.464 E11.67661
G1 X68.304 Y84.599 E11.80593
G1 X68.31 Y84.153 E11.82605
G1 X68.358 Y83.619 E11.85024
G1 X68.484 Y83.098 E11.87442
G1 X68.686 Y82.601 E11.89863
G1 X68.96 Y82.14 E11.92282
G1 X69.456 Y81.526 E11.95843
G1 X69.807 Y81.126 E11.98244
G1 X70.228 Y80.715 E12.00899
G1 X72.119 Y79.052 E12.1226
G1 X74.115 Y77.196 E12.24557
G1 X76.058 Y75.283 E12.36859
G1 X77.94 Y73.323 E12.49118
G1 X79.873 Y71.163 E12.62196
G0 F3000 X80.171 Y71.43
G1 F1500 X80.307 Y71.301 E12.63042
G1 X81.04 Y70.466 E12.68055
G1 X81.312 Y70.191 E12.698
G1 X81.902 Y69.664 E12.73369
G1 X82.137 Y69.465 E12.74758
G1 X82.548 Y69.17 E12.77041
G1 X83 Y68.944 E12.79321
G1 X83.482 Y68.792 E12.81601
G1 X84.152 Y68.711 E12.84646
G1 X84.733 Y68.702 E12.87267
G1 X87.52 Y68.622 E12.99846
G1 X89.546 Y68.514 E13.09
G1 X90.437 Y68.513 E13.1302
G1 X91.107 Y68.542 E13.16046
G1 X92.536 Y68.623 E13.22503
G1 X95.365 Y68.703 E13.35272
G1 X95.839 Y68.71 E13.3741
G1 X96.343 Y68.757 E13.39694
G1 X96.832 Y68.883 E13.41973
G1 X97.296 Y69.084 E13.44254
G1 X97.837 Y69.447 E13.47193
G1 X98.286 Y69.821 E13.4983
G1 X98.863 Y70.358 E13.53386
G1 X98.999 Y70.508 E13.54299
G1 X100.653 Y72.39 E13.65603
G1 X102.492 Y74.367 E13.77785
G1 X104.436 Y76.343 E13.90291
G1 X106.416 Y78.243 E14.02672
G1 X108.57 Y80.171 E14.15715
G1 X108.699 Y80.307 E14.1656
G1 X109.534 Y81.04 E14.21573
G1 X109.808 Y81.312 E14.23315
G1 X110.329 Y81.895 E14.26843
G1 X110.558 Y82.168 E14.2845
G1 X110.847 Y82.582 E14.30728
G1 X111.068 Y83.037 E14.3301
G1 X111.215 Y83.521 E14.35293
G1 X111.289 Y84.156 E14.38177
G1 X111.297 Y84.708 E14.40668
G1 X111.377 Y87.503 E14.53283
G1 X111.486 Y89.546 E14.62513
G1 X111.49 Y90.347 E14.66127
G1 X111.458 Y91.107 E14.69559
G1 X111.377 Y92.536 E14.76017
G1 X111.296 Y95.39 E14.88898
G1 X111.29 Y95.841 E14.90933
G1 X111.243 Y96.344 E14.93212
G1 X111.117 Y96.834 E14.95495
G1 X110.916 Y97.298 E14.97776
G1 X110.548 Y97.845 E15.00751
G1 X110.178 Y98.286 E15.03348
G1 X109.643 Y98.863 E15.06898
G1 X109.489 Y99.002 E15.07834
G1 X107.608 Y100.655 E15.19132
G1 X105.633 Y102.492 E15.31301
G1 X103.656 Y104.437 E15.43813
G1 X101.757 Y106.416 E15.56188
G1 X99.829 Y108.57 E15.6923
G1 X99.693 Y108.699 E15.70076
G1 X98.96 Y109.534 E15.75089
G1 X98.688 Y109.808 E15.76831
G1 X98.037 Y110.389 E15.80767
G1 X97.864 Y110.535 E15.81789
G1 X97.453 Y110.829 E15.84068
G1 X97.001 Y111.055 E15.86348
G1 X96.519 Y111.207 E15.88629
G1 X95.848 Y111.289 E15.91679
G1 X95.267 Y111.298 E15.943
G1 X92.48 Y111.378 E16.06879
G1 X90.454 Y111.486 E16.16033
G1 X89.653 Y111.49 E16.19647
G1 X88.893 Y111.458 E16.23079
G1 X87.464 Y111.377 E16.29536
G1 X84.635 Y111.297 E16.42305
G1 X84.159 Y111.29 E16.44453
G1 X83.656 Y111.243 E16.46732
G1 X83.166 Y111.117 E16.49015
G1 X82.702 Y110.916 E16.51296
G1 X82.155 Y110.548 E16.5427
G1 X81.713 Y110.178 E16.56871
G1 X81.128 Y109.634 E16.60475
G1 X80.994 Y109.484 E16.61383
G1 X79.347 Y107.61 E16.72639
G1 X77.508 Y105.633 E16.84821
G1 X75.563 Y103.656 E16.97333
G1 X73.584 Y101.757 E17.09707
G1 X71.43 Y99.829 E17.2275
G1 X71.3 Y99.693 E17.23599
G1 X70.464 Y98.958 E17.28621
G1 X70.19 Y98.686 E17.30363
G1 X69.671 Y98.105 E17.33878
G1 X69.448 Y97.84 E17.3544
G1 X69.157 Y97.427 E17.3772
G1 X68.935 Y96.973 E17.4
G1 X68.787 Y96.489 E17.42283
G1 X68.711 Y95.845 E17.45209
G1 X68.702 Y95.248 E17.47903
G1 X68.622 Y92.465 E17.60464
G1 X68.514 Y90.454 E17.6955
G1 X68.51 Y89.652 E17.73168
G1 X68.542 Y88.893 E17.76596
G1 X68.623 Y87.464 E17.83053
G1 X68.703 Y84.635 E17.95822
G1 X68.71 Y84.159 E17.9797
G1 X68.757 Y83.656 E18.00249
G1 X68.883 Y83.166 E18.02532
G1 X69.084 Y82.702 E18.04813
G1 X69.452 Y82.155 E18.07787
G1 X69.822 Y81.714 E18.10384
G1 X70.364 Y81.13 E18.13979
G1 X70.524 Y80.987 E18.14947
G1 X72.39 Y79.347 E18.26155
G1 X74.367 Y77.508 E18.38337
G1 X76.344 Y75.563 E18.5085
G1 X78.243 Y73.584 E18.63224
G1 X80.171 Y71.43 E18.76267
G1 F2400 E17.56267
;MESH:clip-clip.stl
G0 F3000 X77.425 Y84.101
;TYPE:WALL-INNER
G1 F2400 E18.76267
G1 F1500 X77.7 Y84.422 E18.78174
G1 X77.7 Y85.752 E18.84174
G1 X77.1 Y86.351 E18.87999
G1 X77.1 Y89.4 E19.01755
G1 X77.9 Y90 E19.06267
G1 X77.1 Y90.6 E19.10779
G1 X77.1 Y93.649 E19.24535
G1 X77.7 Y94.248 E19.2836
G1 X77.7 Y95.578 E19.3436
G1 X77.425 Y95.899 E19.36268
G1 X77 Y95.528 E19.38813
G1 X77 Y93.649 E19.4729
G1 X77 Y90.6 E19.50738
G1 X73.2 Y90.6 E19.67882
G1 X73.2 Y93.649 E19.81638
G1 X73.2 Y95.528 E19.90116
G1 X72.775 Y95.899 E19.92661
G1 X72.5 Y95.578 E19.94568
G1 X72.5 Y94.248 E20.00569
G1 X73.1 Y93.649 E20.04394
G1 X73.1 Y90.6 E20.07841
G1 X72.3 Y90 E20.12353
G1 X73.1 Y89.4 E20.16865
G1 X73.1 Y86.351 E20.30621
G1 X72.5 Y85.752 E20.34446
G1 X72.5 Y84.422 E20.40446
G1 X72.775 Y84.101 E20.42353
G1 X73.2 Y84.474 E20.44905
G1 X73.2 Y86.351 E20.53373
G1 X73.2 Y89.4 E20.56821
G1 X77 Y89.4 E20.73965
G1 X77 Y86.351 E20.77413
G1 X77 Y84.474 E20.85881
G1 X77.425 Y84.101 E20.88432
G0 F3000 X77.608 Y83.7
;TYPE:WALL-OUTER
G1 F1500 X78.1 Y84.274 E20.91843
G1 X78.1 Y85.918 E20.9926
G1 X77.5 Y86.517 E21.03085
G1 X77.5 Y89.2 E21.1519
G1 X78.3 Y89.8 E21.19702
G1 X78.3 Y90.2 E21.21506
G1 X77.5 Y90.8 E21.26018
G1 X77.5 Y93.483 E21.38123
G1 X78.1 Y94.082 E21.41948
G1 X78.1 Y95.726 E21.49365
G1 X77.608 Y96.3 E21.52776
G1 X77.276 Y96.3 E21.54274
G1 X76.6 Y95.709 E21.58325
G1 X76.6 Y91 E21.79571
G1 X73.6 Y91 E21.93106
G1 X73.6 Y95.709 E22.14351
G1 X72.924 Y96.3 E22.18402
G1 X72.592 Y96.3 E22.199
G1 X72.1 Y95.726 E22.23311
G1 X72.1 Y94.082 E22.30728
G1 X72.7 Y93.483 E22.34553
G1 X72.7 Y90.8 E22.46658
G1 X71.9 Y90.2 E22.5117
G1 X71.9 Y89.8 E22.52974
G1 X72.7 Y89.2 E22.57486
G1 X72.7 Y86.517 E22.69591
G1 X72.1 Y85.918 E22.73416
G1 X72.1 Y84.274 E22.80833
G1 X72.592 Y83.7 E22.84244
G1 X72.924 Y83.7 E22.85742
G1 X73.6 Y84.292 E22.89796
G1 X73.6 Y89 E23.11037
G1 X76.6 Y89 E23.24572
G1 X76.6 Y84.292 E23.45813
G1 X77.276 Y83.7 E23.49867
G1 X77.608 Y83.7 E23.51365
G0 F3000 X77.738 Y83.851
G0 X77.403 Y84.137
G0 X77.19 Y84.544
;TYPE:SKIN
G1 F1500 X77.52 Y84.874 E23.5351
G0 F3000 X77.179 Y85.099
G1 F1500 X77.52 Y85.439 E23.55724
G0 F3000 X77.179 Y85.665
G1 F1500 X77.355 Y85.84 E23.56866
G1 F2400 E22.36866
G0 F3000 X72.679 Y84.559
G1 F2400 E23.56866
G1 F1500 X73.02 Y84.899 E23.5908
G0 F3000 X72.679 Y85.125
G1 F1500 X73.02 Y85.465 E23.61294
G1 F2400 E22.41294
G0 F3000 X73.23 Y89.79
G1 F2400 E23.61294
G1 F1500 X76.97 Y89.79 E23.7849
G1 X77.25 Y90 E23.80099
G1 X76.97 Y90.21 E23.81708
G1 X73.23 Y90.21 E23.98904
G1 X72.95 Y90 E24.00514
G1 X73.23 Y89.79 E24.02123
G0 F3000 X73.564 Y89.969
G1 F1500 X73.623 Y90.028 E24.02507
G0 F3000 X74.13 Y89.969
G1 F1500 X74.189 Y90.028 E24.0289
G0 F3000 X74.695 Y89.969
G1 F1500 X74.755 Y90.028 E24.03277
G0 F3000 X75.261 Y89.969
G1 F1500 X75.321 Y90.028 E24.03664
G0 F3000 X75.827 Y89.969
G1 F1500 X75.886 Y90.028 E24.04048
G0 F3000 X76.392 Y89.969
G1 F1500 X76.452 Y90.028 E24.04435
G1 F2400 E22.84435
G0 F3000 X77.52 Y94.49
G1 F2400 E24.04435
G1 F1500 X77.179 Y94.15 E24.06649
G0 F3000 X77.179 Y94.716
G1 F1500 X77.52 Y95.056 E24.08863
G0 F3000 X77.179 Y95.281
G1 F1500 X77.468 Y95.57 E24.10742
G1 F2400 E22.90742
G0 F3000 X72.911 Y95.538
G1 F2400 E24.10742
G1 F1500 X72.679 Y95.307 E24.12247
G0 F3000 X73.02 Y95.081
G1 F1500 X72.679 Y94.741 E24.14461
G0 F3000 X73.02 Y94.516
G1 F1500 X72.752 Y94.248 E24.16204
G1 F2400 E22.96204
;MESH:build_cubes-cube_1x1.stl
G0 F3000 X85.6 Y93.149
;TYPE:WALL-INNER
G1 F2400 E24.16204
G1 F1500 X86.851 Y94.4 E24.24186
G1 X93.149 Y94.4 E24.526
G1 X94.4 Y93.149 E24.60582
G1 X94.4 Y86.851 E24.88997
G1 X93.149 Y85.6 E24.96979
G1 X86.851 Y85.6 E25.25393
G1 X85.6 Y86.851 E25.33375
G1 X85.6 Y93.149 E25.6179
G0 F3000 X86 Y92.983
;TYPE:WALL-OUTER
G1 F1500 X87.017 Y94 E25.68279
G1 X92.983 Y94 E25.95195
G1 X94 Y92.983 E26.01684
G1 X94 Y87.017 E26.28601
G1 X92.983 Y86 E26.3509
G1 X87.017 Y86 E26.62006
G1 X86 Y87.017 E26.68495
G1 X86 Y92.983 E26.95412
G0 F3000 X86.141 Y93.124
G0 X85.83 Y93.435
G1 F2400 E25.75412
G0 F3000 X81.45 Y98.551
;TYPE:WALL-INNER
G1 F2400 E26.95412
G1 F1500 X81.449 Y81.45 E27.72566
G1 X98.55 Y81.449 E28.4972
G1 X98.551 Y98.55 E29.26874
G1 X81.45 Y98.551 E30.04028
G0 F3000 X81.05 Y98.917
;TYPE:WALL-OUTER
G1 F1500 X81.049 Y81.083 E30.8449
G1 X81.083 Y81.05 E30.84703
G1 X98.917 Y81.049 E31.65164
G1 X98.95 Y81.083 E31.65378
G1 X98.951 Y98.917 E32.45839
G1 X98.917 Y98.95 E32.46053
G1 X81.083 Y98.951 E33.26514
G1 X81.05 Y98.917 E33.26728
G0 F3000 X81.05 Y98.717
G0 X81.491 Y98.51
G0 X81.84 Y98.161
;TYPE:SKIN
G1 F1500 X81.839 Y81.84 E34.0177
G1 X98.16 Y81.839 E34.76812
G1 X98.161 Y98.16 E35.51854
G1 X81.84 Y98.161 E36.26896
G1 F2400 E35.06896
G0 F3000 X86.689 Y94.79
G1 F2400 E36.26896
