;FLAVOR:Marlin
;TIME:2822
;Filament used: 4.43514m
;Layer height: 0.3
;MINX:76.649
;MINY:26.649
;MINZ:0.3
;MAXX:103.351
;MAXY:153.351
;MAXZ:9.9
;Generated with Cura_SteamEngine 4.12.1
M82 ;absolute extrusion mode
G21 ;metric values
G90 ;absolute positioning
M82 ;set extruder to absolute mode
M107 ;start with the fan off

M104 S205.0 T0 ; start heating T0 to what is set in Cura
M140 S60 ; start heating the bed to what is set in Cura
M190 S60 ; start heating the bed to what is set in Cura
M109 S205.0 T0 ; start heating T0 to what is set in Cura

G28 X0 Y0 ;move X/Y to min endstops
G28 Z0 ;move Z to min endstops
G1 Z15.0 F2400 ;move the platform down 15mm
G92 E0 ;zero the extruded length
G1 F200 E3 ;extrude 3mm of feed stock
G92 E0 ;zero the extruded length again
G1 F2400
G0 Y20 F2400
M117 Printing...
G5
G92 E0
G92 E0
G1 F2400 E-1.2
;LAYER_COUNT:33
;LAYER:0
M107
G0 F3000 X76.835 Y29.631 Z0.3
;TYPE:SKIRT
G1 F2400 E0
G1 F1500 X77.038 Y29.104 E0.02548
G1 X77.314 Y28.61 E0.05101
G1 X77.84 Y27.966 E0.08852
G1 X77.985 Y27.822 E0.09774
G1 X78.414 Y27.453 E0.12327
G1 X78.89 Y27.148 E0.14878
G1 X79.404 Y26.913 E0.17428
G1 X79.946 Y26.753 E0.19978
G1 X80.666 Y26.662 E0.23252
G1 X81.262 Y26.65 E0.25941
G1 X98.548 Y26.649 E1.0393
G1 X99.252 Y26.659 E1.07107
G1 X99.815 Y26.707 E1.09656
G1 X100.366 Y26.834 E1.12207
G1 X100.894 Y27.038 E1.14761
G1 X101.387 Y27.313 E1.17308
G1 X102.023 Y27.831 E1.21008
G1 X102.168 Y27.976 E1.21934
G1 X102.539 Y28.403 E1.24486
G1 X102.846 Y28.878 E1.27037
G1 X103.082 Y29.391 E1.29585
G1 X103.244 Y29.933 E1.32137
G1 X103.338 Y30.674 E1.35507
G1 X103.35 Y31.185 E1.37813
G1 X103.351 Y148.536 E6.67262
G1 X103.341 Y149.252 E6.70493
G1 X103.293 Y149.815 E6.73042
G1 X103.166 Y150.366 E6.75593
G1 X102.963 Y150.894 E6.78146
G1 X102.687 Y151.387 E6.80695
G1 X102.345 Y151.837 E6.83245
G1 X101.961 Y152.226 E6.85711
G1 X101.527 Y152.587 E6.88258
G1 X101.046 Y152.884 E6.90808
G1 X100.527 Y153.11 E6.93362
G1 X99.982 Y153.261 E6.95914
G1 X99.333 Y153.337 E6.98862
G1 X98.738 Y153.35 E7.01547
G1 X81.452 Y153.351 E7.79535
G1 X80.748 Y153.341 E7.82712
G1 X80.185 Y153.293 E7.85261
G1 X79.634 Y153.166 E7.87812
G1 X79.106 Y152.962 E7.90366
G1 X78.613 Y152.687 E7.92913
G1 X77.977 Y152.169 E7.96614
G1 X77.832 Y152.024 E7.97539
G1 X77.461 Y151.597 E8.00091
G1 X77.154 Y151.122 E8.02643
G1 X76.918 Y150.609 E8.0519
G1 X76.756 Y150.067 E8.07743
G1 X76.662 Y149.322 E8.1113
G1 X76.65 Y148.694 E8.13964
G1 X76.649 Y31.426 E13.43039
G1 X76.659 Y30.745 E13.46112
G1 X76.708 Y30.182 E13.48661
G1 X76.835 Y29.631 E13.51212
G0 F3000 X77.234 Y29.696
G1 F1500 X77.436 Y29.199 E13.53633
G1 X77.711 Y28.738 E13.56055
G1 X78.122 Y28.25 E13.58933
G1 X78.267 Y28.106 E13.59855
G1 X78.675 Y27.757 E13.62278
G1 X79.13 Y27.473 E13.64697
G1 X79.622 Y27.26 E13.67116
G1 X80.14 Y27.122 E13.69535
G1 X80.679 Y27.062 E13.71982
G1 X81.265 Y27.05 E13.74626
G1 X98.542 Y27.049 E14.52574
G1 X99.246 Y27.059 E14.55751
G1 X99.78 Y27.107 E14.5817
G1 X100.301 Y27.233 E14.60588
G1 X100.798 Y27.436 E14.6301
G1 X101.259 Y27.71 E14.6543
G1 X101.741 Y28.113 E14.68264
G1 X101.886 Y28.258 E14.69189
G1 X102.235 Y28.665 E14.71608
G1 X102.521 Y29.119 E14.74029
G1 X102.736 Y29.61 E14.76447
G1 X102.876 Y30.128 E14.78868
G1 X102.938 Y30.687 E14.81406
G1 X102.95 Y31.191 E14.8368
G1 X102.951 Y148.53 E20.13075
G1 X102.941 Y149.246 E20.16306
G1 X102.893 Y149.78 E20.18725
G1 X102.767 Y150.302 E20.21148
G1 X102.565 Y150.798 E20.23564
G1 X102.291 Y151.259 E20.25983
G1 X101.834 Y151.793 E20.29154
G1 X101.684 Y151.937 E20.30093
G1 X101.271 Y152.279 E20.32512
G1 X100.811 Y152.555 E20.34932
G1 X100.315 Y152.76 E20.37354
G1 X99.795 Y152.889 E20.39771
G1 X99.092 Y152.946 E20.42953
G1 X98.707 Y152.95 E20.4469
G1 X81.458 Y152.951 E21.22512
G1 X80.754 Y152.941 E21.25688
G1 X80.22 Y152.893 E21.28107
G1 X79.699 Y152.767 E21.30526
G1 X79.202 Y152.564 E21.32948
G1 X78.741 Y152.29 E21.35367
G1 X78.259 Y151.887 E21.38202
G1 X78.114 Y151.742 E21.39127
G1 X77.765 Y151.335 E21.41546
G1 X77.479 Y150.881 E21.43967
G1 X77.264 Y150.39 E21.46385
G1 X77.124 Y149.872 E21.48806
G1 X77.062 Y149.31 E21.51357
G1 X77.05 Y148.691 E21.5415
G1 X77.049 Y31.432 E26.83184
G1 X77.059 Y30.751 E26.86257
G1 X77.107 Y30.217 E26.88676
G1 X77.234 Y29.696 E26.91095
G0 F3000 X77.633 Y29.764
G1 F1500 X77.834 Y29.3 E26.93377
G1 X78.106 Y28.874 E26.95657
G1 X78.549 Y28.389 E26.98621
G1 X78.935 Y28.063 E27.009
G1 X79.367 Y27.801 E27.03179
G1 X79.836 Y27.61 E27.05464
G1 X80.328 Y27.496 E27.07743
G1 X80.924 Y27.454 E27.10438
G1 X81.293 Y27.45 E27.12103
G1 X98.536 Y27.449 E27.89898
G1 X99.24 Y27.459 E27.93075
G1 X99.744 Y27.506 E27.95358
G1 X100.233 Y27.632 E27.97637
G1 X100.697 Y27.834 E27.9992
G1 X101.123 Y28.105 E28.02198
G1 X101.603 Y28.541 E28.05123
G1 X101.931 Y28.926 E28.07405
G1 X102.194 Y29.357 E28.09683
G1 X102.387 Y29.825 E28.11967
G1 X102.503 Y30.317 E28.14248
G1 X102.545 Y30.916 E28.16957
G1 X102.55 Y31.24 E28.18419
G1 X102.551 Y148.525 E33.4757
G1 X102.541 Y149.241 E33.50801
G1 X102.494 Y149.744 E33.5308
G1 X102.368 Y150.234 E33.55363
G1 X102.167 Y150.698 E33.57644
G1 X101.895 Y151.124 E33.59924
G1 X101.557 Y151.504 E33.62219
G1 X101.407 Y151.648 E33.63157
G1 X101.016 Y151.969 E33.65439
G1 X100.579 Y152.223 E33.6772
G1 X100.108 Y152.406 E33.7
G1 X99.613 Y152.512 E33.72284
G1 X99.078 Y152.546 E33.74702
G1 X98.707 Y152.55 E33.76376
G1 X81.464 Y152.551 E34.54171
G1 X80.76 Y152.541 E34.57347
G1 X80.256 Y152.494 E34.59631
G1 X79.767 Y152.368 E34.61909
G1 X79.303 Y152.166 E34.64193
G1 X78.877 Y151.895 E34.6647
G1 X78.397 Y151.459 E34.69396
G1 X78.069 Y151.074 E34.71678
G1 X77.806 Y150.643 E34.73956
G1 X77.613 Y150.175 E34.7624
G1 X77.497 Y149.683 E34.78521
G1 X77.454 Y149.044 E34.8141
G1 X77.45 Y148.665 E34.8312
G1 X77.449 Y31.438 E40.1201
G1 X77.459 Y30.757 E40.15082
G1 X77.507 Y30.254 E40.17362
G1 X77.633 Y29.764 E40.19645
G1 F2400 E38.99645
;MESH:build_cubes-cube_side_con_11x1.stl
G0 F3000 X81.649 Y31.65
;TYPE:WALL-INNER
G1 F2400 E40.19645
G1 F1500 X98.35 Y31.649 E40.94994
G1 X98.351 Y148.35 E46.21511
G1 X81.65 Y148.351 E46.9686
G1 X81.65 Y144.765 E47.13039
G1 X81.685 Y144.8 E47.13262
G1 X88.315 Y144.8 E47.43175
G1 X89.8 Y143.315 E47.5265
G1 X89.8 Y136.685 E47.82562
G1 X88.315 Y135.2 E47.92037
G1 X81.685 Y135.2 E48.21949
G1 X81.65 Y135.235 E48.22173
G1 X81.65 Y134.765 E48.24293
G1 X81.685 Y134.8 E48.24516
G1 X88.315 Y134.8 E48.54429
G1 X89.8 Y133.315 E48.63904
G1 X89.8 Y126.685 E48.93816
G1 X88.315 Y125.2 E49.03291
G1 X81.685 Y125.2 E49.33204
G1 X81.65 Y125.235 E49.33427
G1 X81.65 Y124.765 E49.35547
G1 X81.685 Y124.8 E49.35771
G1 X88.315 Y124.8 E49.65683
G1 X89.8 Y123.315 E49.75158
G1 X89.8 Y116.685 E50.0507
G1 X88.315 Y115.2 E50.14545
G1 X81.685 Y115.2 E50.44458
G1 X81.65 Y115.235 E50.44681
G1 X81.65 Y114.765 E50.46802
G1 X81.685 Y114.8 E50.47025
G1 X88.315 Y114.8 E50.76937
G1 X89.8 Y113.315 E50.86412
G1 X89.8 Y106.685 E51.16325
G1 X88.315 Y105.2 E51.258
G1 X81.685 Y105.2 E51.55712
G1 X81.65 Y105.235 E51.55935
G1 X81.65 Y104.765 E51.58056
G1 X81.685 Y104.8 E51.58279
G1 X88.315 Y104.8 E51.88192
G1 X89.8 Y103.315 E51.97667
G1 X89.8 Y96.685 E52.27579
G1 X88.315 Y95.2 E52.37054
G1 X81.685 Y95.2 E52.66966
G1 X81.65 Y95.235 E52.6719
G1 X81.65 Y94.765 E52.6931
G1 X81.685 Y94.8 E52.69533
G1 X88.315 Y94.8 E52.99446
G1 X89.8 Y93.315 E53.08921
G1 X89.8 Y86.685 E53.38833
G1 X88.315 Y85.2 E53.48308
G1 X81.685 Y85.2 E53.78221
G1 X81.649 Y85.236 E53.7845
G1 X81.649 Y84.764 E53.8058
G1 X81.685 Y84.8 E53.80809
G1 X88.315 Y84.8 E54.10722
G1 X89.8 Y83.315 E54.20197
G1 X89.8 Y76.685 E54.50109
G1 X88.315 Y75.2 E54.59584
G1 X81.685 Y75.2 E54.89497
G1 X81.649 Y75.236 E54.89726
G1 X81.649 Y74.764 E54.91856
G1 X81.685 Y74.8 E54.92085
G1 X88.315 Y74.8 E55.21998
G1 X89.8 Y73.315 E55.31473
G1 X89.8 Y66.685 E55.61385
G1 X88.315 Y65.2 E55.7086
G1 X81.685 Y65.2 E56.00773
G1 X81.649 Y65.236 E56.01002
G1 X81.649 Y64.764 E56.03132
G1 X81.685 Y64.8 E56.03361
G1 X88.315 Y64.8 E56.33274
G1 X89.8 Y63.315 E56.42749
G1 X89.8 Y56.685 E56.72661
G1 X88.315 Y55.2 E56.82136
G1 X81.685 Y55.2 E57.12049
G1 X81.649 Y55.236 E57.12278
G1 X81.649 Y54.764 E57.14408
G1 X81.685 Y54.8 E57.14637
G1 X88.315 Y54.8 E57.4455
G1 X89.8 Y53.315 E57.54025
G1 X89.8 Y46.685 E57.83937
G1 X88.315 Y45.2 E57.93412
G1 X81.685 Y45.2 E58.23325
G1 X81.649 Y45.236 E58.23554
G1 X81.649 Y44.764 E58.25684
G1 X81.685 Y44.8 E58.25914
G1 X88.315 Y44.8 E58.55826
G1 X89.8 Y43.315 E58.65301
G1 X89.8 Y36.685 E58.95213
G1 X88.315 Y35.2 E59.04688
G1 X81.685 Y35.2 E59.34601
G1 X81.649 Y35.236 E59.3483
G1 X81.649 Y31.65 E59.51009
G0 F3000 X81.249 Y31.25
G1 F1500 X98.75 Y31.249 E60.29968
G1 X98.751 Y148.75 E65.60094
G1 X81.25 Y148.751 E66.39053
G1 X81.25 Y144.28 E66.59224
G1 X81.25 Y143.799 E66.61394
G1 X81.851 Y144.4 E66.63832
G1 X88.149 Y144.4 E66.92247
G1 X89.4 Y143.149 E67.00229
G1 X89.4 Y136.851 E67.28643
G1 X88.149 Y135.6 E67.36625
G1 X81.851 Y135.6 E67.6504
G1 X81.25 Y136.201 E67.68874
G1 X81.25 Y135.72 E67.69649
G1 X81.25 Y134.28 E67.76146
G1 X81.25 Y133.799 E67.78316
G1 X81.851 Y134.4 E67.80754
G1 X88.149 Y134.4 E68.09168
G1 X89.4 Y133.149 E68.1715
G1 X89.4 Y126.851 E68.45565
G1 X88.149 Y125.6 E68.53547
G1 X81.851 Y125.6 E68.81961
G1 X81.25 Y126.201 E68.85796
G1 X81.25 Y125.72 E68.86571
G1 X81.25 Y124.28 E68.93068
G1 X81.25 Y123.799 E68.95238
G1 X81.851 Y124.4 E68.97676
G1 X88.149 Y124.4 E69.2609
G1 X89.4 Y123.149 E69.34072
G1 X89.4 Y116.851 E69.62487
G1 X88.149 Y115.6 E69.70469
G1 X81.851 Y115.6 E69.98883
G1 X81.25 Y116.201 E70.02718
G1 X81.25 Y115.72 E70.03493
G1 X81.25 Y114.28 E70.0999
G1 X81.25 Y113.799 E70.1216
G1 X81.851 Y114.4 E70.14598
G1 X88.149 Y114.4 E70.43012
G1 X89.4 Y113.149 E70.50994
G1 X89.4 Y106.851 E70.79409
G1 X88.149 Y105.6 E70.8739
G1 X81.851 Y105.6 E71.15805
G1 X81.25 Y106.201 E71.1964
G1 X81.25 Y105.72 E71.20415
G1 X81.25 Y104.28 E71.26911
G1 X81.25 Y103.799 E71.29081
G1 X81.851 Y104.4 E71.31519
G1 X88.149 Y104.4 E71.59934
G1 X89.4 Y103.149 E71.67916
G1 X89.4 Y96.851 E71.9633
G1 X88.149 Y95.6 E72.04312
G1 X81.851 Y95.6 E72.32727
G1 X81.25 Y96.201 E72.36561
G1 X81.25 Y95.72 E72.37336
G1 X81.25 Y94.28 E72.43833
G1 X81.25 Y93.799 E72.46003
G1 X81.851 Y94.4 E72.48441
G1 X88.149 Y94.4 E72.76856
G1 X89.4 Y93.149 E72.84838
G1 X89.4 Y86.851 E73.13252
G1 X88.149 Y85.6 E73.21234
G1 X81.851 Y85.6 E73.49649
G1 X81.249 Y86.202 E73.5349
G1 X81.249 Y85.721 E73.54262
G1 X81.249 Y84.279 E73.60768
G1 X81.249 Y83.798 E73.62938
G1 X81.851 Y84.4 E73.65381
G1 X88.149 Y84.4 E73.93796
G1 X89.4 Y83.149 E74.01778
G1 X89.4 Y76.851 E74.30192
G1 X88.149 Y75.6 E74.38174
G1 X81.851 Y75.6 E74.66589
G1 X81.249 Y76.202 E74.7043
G1 X81.249 Y75.721 E74.71202
G1 X81.249 Y74.279 E74.77708
G1 X81.249 Y73.798 E74.79878
G1 X81.851 Y74.4 E74.82321
G1 X88.149 Y74.4 E75.10736
G1 X89.4 Y73.149 E75.18718
G1 X89.4 Y66.851 E75.47132
G1 X88.149 Y65.6 E75.55114
G1 X81.851 Y65.6 E75.83529
G1 X81.249 Y66.202 E75.8737
G1 X81.249 Y65.721 E75.88142
G1 X81.249 Y64.279 E75.94648
G1 X81.249 Y63.798 E75.96818
G1 X81.851 Y64.4 E75.99261
G1 X88.149 Y64.4 E76.27676
G1 X89.4 Y63.149 E76.35658
G1 X89.4 Y56.851 E76.64072
G1 X88.149 Y55.6 E76.72054
G1 X81.851 Y55.6 E77.00469
G1 X81.249 Y56.202 E77.0431
G1 X81.249 Y55.721 E77.05082
G1 X81.249 Y54.279 E77.11588
G1 X81.249 Y53.798 E77.13758
G1 X81.851 Y54.4 E77.16201
G1 X88.149 Y54.4 E77.44616
G1 X89.4 Y53.149 E77.52598
G1 X89.4 Y46.851 E77.81012
G1 X88.149 Y45.6 E77.88994
G1 X81.851 Y45.6 E78.17409
G1 X81.249 Y46.202 E78.2125
G1 X81.249 Y45.721 E78.22022
G1 X81.249 Y44.279 E78.28528
G1 X81.249 Y43.798 E78.30698
G1 X81.851 Y44.4 E78.33141
G1 X88.149 Y44.4 E78.61556
G1 X89.4 Y43.149 E78.69538
G1 X89.4 Y36.851 E78.97952
G1 X88.149 Y35.6 E79.05934
G1 X81.851 Y35.6 E79.34349
G1 X81.249 Y36.202 E79.3819
G1 X81.249 Y35.721 E79.38962
G1 X81.249 Y31.25 E79.59134
G1 F2400 E78.39134
G0 F3000 X82.017 Y36
;TYPE:WALL-OUTER
G1 F2400 E79.59134
G1 F1500 X81 Y37.017 E79.65623
G1 X81 Y42.983 E79.9254
G1 X82.017 Y44 E79.99028
G1 X87.983 Y44 E80.25945
G1 X89 Y42.983 E80.32434
G1 X89 Y37.017 E80.59351
G1 X87.983 Y36 E80.6584
G1 X82.017 Y36 E80.92756
G0 F3000 X81.876 Y36.141
G0 X81.565 Y35.83
G1 F2400 E79.72756
G0 F3000 X82.017 Y46
G1 F2400 E80.92756
G1 F1500 X81 Y47.017 E80.99245
G1 X81 Y52.983 E81.26162
G1 X82.017 Y54 E81.32651
G1 X87.983 Y54 E81.59567
G1 X89 Y52.983 E81.66056
G1 X89 Y47.017 E81.92973
G1 X87.983 Y46 E81.99462
G1 X82.017 Y46 E82.26378
G0 F3000 X81.876 Y46.141
G0 X81.565 Y45.83
G1 F2400 E81.06378
G0 F3000 X82.017 Y56
G1 F2400 E82.26378
G1 F1500 X81 Y57.017 E82.32867
G1 X81 Y62.983 E82.59784
G1 X82.017 Y64 E82.66273
G1 X87.983 Y64 E82.9319
G1 X89 Y62.983 E82.99679
G1 X89 Y57.017 E83.26595
G1 X87.983 Y56 E83.33084
G1 X82.017 Y56 E83.60001
G0 F3000 X81.876 Y56.141
G0 X81.565 Y55.83
G1 F2400 E82.40001
G0 F3000 X82.017 Y66
G1 F2400 E83.60001
G1 F1500 X81 Y67.017 E83.6649
G1 X81 Y72.983 E83.93406
G1 X82.017 Y74 E83.99895
G1 X87.983 Y74 E84.26812
G1 X89 Y72.983 E84.33301
G1 X89 Y67.017 E84.60217
G1 X87.983 Y66 E84.66706
G1 X82.017 Y66 E84.93623
G0 F3000 X81.876 Y66.141
G0 X81.565 Y65.83
G1 F2400 E83.73623
G0 F3000 X82.017 Y76
G1 F2400 E84.93623
G1 F1500 X81 Y77.017 E85.00112
G1 X81 Y82.983 E85.27029
G1 X82.017 Y84 E85.33517
G1 X87.983 Y84 E85.60434
G1 X89 Y82.983 E85.66923
G1 X89 Y77.017 E85.9384
G1 X87.983 Y76 E86.00329
G1 X82.017 Y76 E86.27245
G0 F3000 X81.876 Y76.141
G0 X81.565 Y75.83
G1 F2400 E85.07245
G0 F3000 X82.017 Y86
G1 F2400 E86.27245
G1 F1500 X81 Y87.017 E86.33734
G1 X81 Y92.983 E86.60651
G1 X82.017 Y94 E86.6714
G1 X87.983 Y94 E86.94056
G1 X89 Y92.983 E87.00545
G1 X89 Y87.017 E87.27462
G1 X87.983 Y86 E87.33951
G1 X82.017 Y86 E87.60867
G0 F3000 X81.876 Y86.141
G0 X81.565 Y85.83
G1 F2400 E86.40867
G0 F3000 X82.017 Y96
G1 F2400 E87.60867
G1 F1500 X81 Y97.017 E87.67356
G1 X81 Y102.983 E87.94273
G1 X82.017 Y104 E88.00762
G1 X87.983 Y104 E88.27679
G1 X89 Y102.983 E88.34168
G1 X89 Y97.017 E88.61084
G1 X87.983 Y96 E88.67573
G1 X82.017 Y96 E88.9449
G0 F3000 X81.876 Y96.141
G0 X81.565 Y95.83
G1 F2400 E87.7449
G0 F3000 X82.017 Y106
G1 F2400 E88.9449
G1 F1500 X81 Y107.017 E89.00979
G1 X81 Y112.983 E89.27895
G1 X82.017 Y114 E89.34384
G1 X87.983 Y114 E89.61301
G1 X89 Y112.983 E89.6779
G1 X89 Y107.017 E89.94706
G1 X87.983 Y106 E90.01195
G1 X82.017 Y106 E90.28112
G0 F3000 X81.876 Y106.141
G0 X81.565 Y105.83
G1 F2400 E89.08112
G0 F3000 X82.017 Y116
G1 F2400 E90.28112
G1 F1500 X81 Y117.017 E90.34601
G1 X81 Y122.983 E90.61518
G1 X82.017 Y124 E90.68006
G1 X87.983 Y124 E90.94923
G1 X89 Y122.983 E91.01412
G1 X89 Y117.017 E91.28329
G1 X87.983 Y116 E91.34818
G1 X82.017 Y116 E91.61734
G0 F3000 X81.876 Y116.141
G0 X81.565 Y115.83
G1 F2400 E90.41734
G0 F3000 X82.017 Y126
G1 F2400 E91.61734
G1 F1500 X81 Y127.017 E91.68223
G1 X81 Y132.983 E91.9514
G1 X82.017 Y134 E92.01629
G1 X87.983 Y134 E92.28545
G1 X89 Y132.983 E92.35034
G1 X89 Y127.017 E92.61951
G1 X87.983 Y126 E92.6844
G1 X82.017 Y126 E92.95356
G0 F3000 X81.876 Y126.141
G0 X81.565 Y125.83
G1 F2400 E91.75356
G0 F3000 X82.017 Y136
G1 F2400 E92.95356
G1 F1500 X81 Y137.017 E93.01845
G1 X81 Y142.983 E93.28762
G1 X82.017 Y144 E93.35251
G1 X87.983 Y144 E93.62168
G1 X89 Y142.983 E93.68657
G1 X89 Y137.017 E93.95573
G1 X87.983 Y136 E94.02062
G1 X82.017 Y136 E94.28979
G0 F3000 X81.876 Y136.141
G0 X81.565 Y135.83
G1 F2400 E93.08979
G0 F3000 X80.85 Y137.018
G1 F2400 E94.28979
G1 F1500 X80.85 Y132.983 E94.47183
G1 X80.85 Y127.018 E94.57274
G1 X80.85 Y122.983 E94.75479
G1 X80.85 Y117.018 E94.85569
G1 X80.85 Y112.983 E95.03774
G1 X80.85 Y107.018 E95.13864
G1 X80.85 Y102.983 E95.32069
G1 X80.85 Y97.018 E95.4216
G1 X80.85 Y92.983 E95.60364
G1 X80.85 Y87.018 E95.70455
G1 X80.85 Y82.983 E95.88659
G1 X80.85 Y77.018 E95.9875
G1 X80.85 Y72.983 E96.16955
G1 X80.85 Y67.018 E96.27045
G1 X80.85 Y62.983 E96.4525
G1 X80.85 Y57.018 E96.5534
G1 X80.85 Y52.983 E96.73545
G1 X80.85 Y47.018 E96.83636
G1 X80.85 Y42.983 E97.0184
G1 X80.85 Y37.018 E97.11931
G1 X80.849 Y30.883 E97.3961
G1 X80.883 Y30.85 E97.39824
G1 X99.117 Y30.849 E98.2209
G1 X99.15 Y30.883 E98.22303
G1 X99.151 Y149.117 E103.55736
G1 X99.117 Y149.15 E103.5595
G1 X80.883 Y149.151 E104.38216
G1 X80.85 Y149.117 E104.3843
