;FLAVOR:Marlin
;TIME:1467
;Filament used: 2.46185m
;Layer height: 0.3
;MINX:67.792
;MINY:54.899
;MINZ:0.3
;MAXX:110.5
;MAXY:110.51
;MAXZ:18
;Generated with Cura_SteamEngine 4.12.1
M82 ;absolute extrusion mode
G21 ;metric values
G90 ;absolute positioning
M82 ;set extruder to absolute mode
M107 ;start with the fan off

M104 S200 T0 ; start heating T0 to what is set in Cura
M140 S60 ; start heating the bed to what is set in Cura
M190 S60 ; start heating the bed to what is set in Cura
M109 S200 T0 ; start heating T0 to what is set in Cura

G28 X0 Y0 ;move X/Y to min endstops
G28 Z0 ;move Z to min endstops
G1 Z15.0 F2400 ;move the platform down 15mm
G92 E0 ;zero the extruded length
G1 F200 E3 ;extrude 3mm of feed stock
G92 E0 ;zero the extruded length again
G1 F2400
G0 Y20 F2400
M117 Printing...
G5
G92 E0
G92 E0
G1 F2400 E-1.2
;LAYER_COUNT:60
;LAYER:0
M107
G0 F3000 X69.581 Y68.147 Z0.3
;TYPE:SKIRT
G1 F2400 E0
G1 F1500 X69.984 Y67.75 E0.02552
G1 X70.438 Y67.414 E0.05101
G1 X71.155 Y67.053 E0.08722
G1 X71.744 Y66.827 E0.11569
G1 X74.314 Y65.798 E0.24058
G1 X76.786 Y64.725 E0.36217
G1 X79.276 Y63.561 E0.48618
G1 X81.683 Y62.351 E0.60772
G1 X84.07 Y61.065 E0.73005
G1 X86.519 Y59.653 E0.85759
G1 X87.291 Y59.223 E0.89746
G1 X88.347 Y58.746 E0.94974
G1 X88.984 Y58.47 E0.98106
G1 X91.406 Y57.335 E1.10173
G1 X93.875 Y56.092 E1.22645
G1 X94.261 Y55.883 E1.24625
G1 X95.248 Y55.369 E1.29646
G1 X95.767 Y55.144 E1.32198
G1 X96.312 Y54.995 E1.34747
G1 X97.007 Y54.918 E1.37902
G1 X97.589 Y54.905 E1.40528
G1 X98.216 Y54.911 E1.43357
G1 X100.936 Y54.911 E1.55629
G1 X102.005 Y54.899 E1.60452
G1 X102.355 Y54.904 E1.62031
G1 X102.918 Y54.952 E1.64581
G1 X103.469 Y55.079 E1.67132
G1 X103.997 Y55.283 E1.69686
G1 X104.49 Y55.558 E1.72232
G1 X104.94 Y55.901 E1.74785
G1 X105.278 Y56.235 E1.76929
G1 X105.741 Y56.752 E1.8006
G1 X105.986 Y57.043 E1.81777
G1 X106.315 Y57.503 E1.84328
G1 X106.576 Y58.004 E1.86877
G1 X106.764 Y58.537 E1.89427
G1 X106.917 Y59.27 E1.92805
G1 X107.468 Y61.991 E2.0533
G1 X108.077 Y64.619 E2.17501
G1 X108.768 Y67.253 E2.29787
G1 X109.928 Y71.12 E2.48002
G1 X110.296 Y72.26 E2.53407
G1 X110.432 Y72.809 E2.55958
G1 X110.488 Y73.369 E2.58497
G1 X110.5 Y73.82 E2.60533
G1 X110.5 Y83.527 E3.04328
G1 X110.495 Y84.683 E3.09543
G1 X110.5 Y85.362 E3.12607
G1 X110.5 Y95.023 E3.56194
G1 X110.496 Y96.241 E3.61689
G1 X110.5 Y96.694 E3.63733
G1 X110.5 Y105.829 E4.04947
G1 X110.49 Y106.556 E4.08228
G1 X110.442 Y107.119 E4.10777
G1 X110.315 Y107.67 E4.13328
G1 X110.112 Y108.198 E4.1588
G1 X109.837 Y108.692 E4.18431
G1 X109.495 Y109.142 E4.20981
G1 X109.092 Y109.539 E4.23533
G1 X108.638 Y109.875 E4.26081
G1 X108.141 Y110.144 E4.28631
G1 X107.611 Y110.341 E4.31182
G1 X107.058 Y110.46 E4.33734
G1 X106.282 Y110.508 E4.37242
G1 X106.17 Y110.51 E4.37747
G1 X97.146 Y110.51 E4.78461
G1 X96.428 Y110.499 E4.817
G1 X96.15 Y110.485 E4.82956
G1 X93.369 Y110.249 E4.95548
G1 X90.662 Y110.096 E5.07781
G1 X86.575 Y110.01 E5.26224
G1 X85.65 Y110.01 E5.30398
G1 X84.947 Y110 E5.3357
G1 X84.384 Y109.952 E5.36119
G1 X83.833 Y109.825 E5.3867
G1 X83.305 Y109.621 E5.41224
G1 X82.812 Y109.346 E5.43771
G1 X82.362 Y109.003 E5.46323
G1 X82.117 Y108.769 E5.47852
G1 X81.677 Y108.309 E5.50724
G1 X80.697 Y107.257 E5.5721
G1 X78.782 Y105.313 E5.69522
G1 X76.81 Y103.421 E5.81852
G1 X74.816 Y101.612 E5.93998
G1 X72.754 Y99.847 E6.06244
G1 X71.449 Y98.793 E6.13812
G1 X70.954 Y98.382 E6.16715
G1 X70.545 Y97.991 E6.19268
G1 X70.196 Y97.547 E6.21816
G1 X69.913 Y97.057 E6.24369
G1 X69.702 Y96.533 E6.26917
G1 X69.567 Y95.984 E6.29468
G1 X69.491 Y95.263 E6.32739
G1 X69.341 Y93.193 E6.42103
G1 X69.068 Y90.491 E6.54355
G1 X68.722 Y87.82 E6.66507
G1 X68.286 Y85.07 E6.79069
G1 X68.056 Y83.786 E6.84954
G1 X67.993 Y83.141 E6.87878
G1 X67.984 Y82.539 E6.90594
G1 X67.907 Y79.824 E7.02848
G1 X67.796 Y77.758 E7.12183
G1 X67.792 Y76.919 E7.15968
G1 X67.825 Y76.126 E7.19549
G1 X67.907 Y74.673 E7.26115
G1 X67.985 Y71.924 E7.38522
G1 X67.992 Y71.427 E7.40765
G1 X68.04 Y70.863 E7.43319
G1 X68.167 Y70.312 E7.4587
G1 X68.37 Y69.785 E7.48418
G1 X68.646 Y69.291 E7.50971
G1 X69.231 Y68.548 E7.55237
G1 X69.581 Y68.147 E7.57639
G0 F3000 X69.882 Y68.411
G1 F1500 X70.265 Y68.036 E7.60057
G1 X70.7 Y67.722 E7.62478
G1 X71.298 Y67.426 E7.65488
G1 X71.91 Y67.191 E7.68446
G1 X74.473 Y66.165 E7.80901
G1 X76.979 Y65.077 E7.93227
G1 X79.404 Y63.943 E8.05305
G1 X81.887 Y62.695 E8.17843
G1 X84.265 Y61.414 E8.30029
G1 X86.71 Y60.005 E8.42761
G1 X87.456 Y59.588 E8.46617
G1 X88.507 Y59.113 E8.5182
G1 X89.135 Y58.841 E8.54908
G1 X91.606 Y57.683 E8.6722
G1 X94.023 Y56.466 E8.79429
G1 X94.446 Y56.238 E8.81597
G1 X95.433 Y55.724 E8.86617
G1 X95.926 Y55.512 E8.89039
G1 X96.445 Y55.376 E8.91459
G1 X97.016 Y55.318 E8.94049
G1 X97.598 Y55.305 E8.96675
G1 X98.21 Y55.311 E8.99436
G1 X100.941 Y55.311 E9.11758
G1 X101.999 Y55.299 E9.16531
G1 X102.349 Y55.304 E9.18111
G1 X102.884 Y55.352 E9.20534
G1 X103.405 Y55.478 E9.22952
G1 X103.901 Y55.681 E9.2537
G1 X104.362 Y55.955 E9.2779
G1 X104.778 Y56.294 E9.30211
G1 X104.98 Y56.502 E9.31519
G1 X105.443 Y57.019 E9.3465
G1 X105.678 Y57.299 E9.363
G1 X105.988 Y57.736 E9.38717
G1 X106.231 Y58.214 E9.41136
G1 X106.443 Y58.922 E9.44471
G1 X106.532 Y59.388 E9.46611
G1 X107.072 Y62.055 E9.58888
G1 X107.686 Y64.705 E9.7116
G1 X108.382 Y67.359 E9.83539
G1 X109.538 Y71.213 E10.01693
G1 X109.916 Y72.383 E10.0724
G1 X110.042 Y72.904 E10.09658
G1 X110.098 Y73.711 E10.13308
G1 X110.1 Y73.82 E10.138
G1 X110.1 Y83.526 E10.5759
G1 X110.095 Y84.682 E10.62806
G1 X110.1 Y85.365 E10.65887
G1 X110.1 Y95.022 E11.09456
G1 X110.096 Y96.24 E11.14952
G1 X110.1 Y96.697 E11.17014
G1 X110.1 Y105.824 E11.58192
G1 X110.09 Y106.551 E11.61472
G1 X110.042 Y107.085 E11.63891
G1 X109.916 Y107.606 E11.66309
G1 X109.714 Y108.103 E11.6873
G1 X109.44 Y108.564 E11.71149
G1 X109.101 Y108.979 E11.73567
G1 X108.704 Y109.34 E11.75988
G1 X108.258 Y109.637 E11.78405
G1 X107.772 Y109.865 E11.80827
G1 X107.258 Y110.018 E11.83247
G1 X106.591 Y110.1 E11.86279
G1 X106.17 Y110.11 E11.88179
G1 X97.152 Y110.11 E12.28865
G1 X96.434 Y110.099 E12.32105
G1 X96.184 Y110.086 E12.33234
G1 X93.39 Y109.849 E12.45885
G1 X90.694 Y109.697 E12.58068
G1 X86.583 Y109.61 E12.76619
G1 X85.656 Y109.61 E12.80802
G1 X84.953 Y109.6 E12.83974
G1 X84.419 Y109.552 E12.86393
G1 X83.897 Y109.426 E12.88815
G1 X83.401 Y109.223 E12.91233
G1 X82.94 Y108.949 E12.93653
G1 X82.406 Y108.492 E12.96824
G1 X81.969 Y108.036 E12.99673
G1 X80.974 Y106.967 E13.06262
G1 X79.061 Y105.026 E13.18558
G1 X77.092 Y103.137 E13.30868
G1 X75.08 Y101.311 E13.43127
G1 X72.999 Y99.53 E13.55485
G1 X71.704 Y98.486 E13.62989
G1 X71.209 Y98.075 E13.65892
G1 X70.823 Y97.702 E13.68314
G1 X70.497 Y97.277 E13.7073
G1 X70.238 Y96.807 E13.73152
G1 X70.051 Y96.305 E13.75569
G1 X69.922 Y95.608 E13.78767
G1 X69.886 Y95.186 E13.80677
G1 X69.739 Y93.157 E13.89856
G1 X69.465 Y90.44 E14.02176
G1 X69.12 Y87.773 E14.14309
G1 X68.687 Y85.042 E14.26784
G1 X68.449 Y83.716 E14.32862
G1 X68.393 Y83.135 E14.35496
G1 X68.384 Y82.533 E14.38212
G1 X68.305 Y79.791 E14.50588
G1 X68.199 Y77.829 E14.59453
G1 X68.186 Y77.32 E14.6175
G1 X68.195 Y76.825 E14.63984
G1 X68.225 Y76.149 E14.67037
G1 X68.305 Y74.743 E14.7339
G1 X68.386 Y71.878 E14.86321
G1 X68.392 Y71.432 E14.88334
G1 X68.44 Y70.898 E14.90753
G1 X68.566 Y70.377 E14.93171
G1 X68.768 Y69.88 E14.95592
G1 X69.042 Y69.419 E14.98011
G1 X69.538 Y68.805 E15.01572
G1 X69.882 Y68.411 E15.03932
G0 F3000 X70.182 Y68.676
G1 F1500 X70.545 Y68.323 E15.06216
G1 X70.959 Y68.033 E15.08497
G1 X71.441 Y67.8 E15.10912
G1 X72.033 Y67.573 E15.13773
G1 X74.645 Y66.527 E15.26467
G1 X77.115 Y65.454 E15.38617
G1 X79.617 Y64.285 E15.51077
G1 X82.051 Y63.062 E15.63366
G1 X84.449 Y61.769 E15.75658
G1 X86.941 Y60.333 E15.88634
G1 X87.621 Y59.952 E15.92151
G1 X88.666 Y59.48 E15.97324
G1 X89.285 Y59.212 E16.00367
G1 X91.79 Y58.038 E16.12849
G1 X94.214 Y56.817 E16.25094
G1 X94.631 Y56.593 E16.27229
G1 X95.618 Y56.079 E16.3225
G1 X96.083 Y55.881 E16.3453
G1 X96.574 Y55.76 E16.36812
G1 X97.025 Y55.718 E16.38855
G1 X97.725 Y55.704 E16.42014
G1 X98.205 Y55.711 E16.4418
G1 X100.946 Y55.711 E16.56547
G1 X101.994 Y55.699 E16.61275
G1 X102.344 Y55.704 E16.62854
G1 X102.847 Y55.751 E16.65134
G1 X103.337 Y55.877 E16.67416
G1 X103.8 Y56.079 E16.69695
G1 X104.227 Y56.351 E16.71979
G1 X104.682 Y56.769 E16.74767
G1 X105.145 Y57.286 E16.77898
G1 X105.37 Y57.554 E16.79477
G1 X105.661 Y57.967 E16.81756
G1 X105.883 Y58.421 E16.84036
G1 X106.05 Y58.997 E16.86742
G1 X106.132 Y59.428 E16.88722
G1 X106.685 Y62.161 E17.01302
G1 X107.295 Y64.792 E17.13487
G1 X107.994 Y67.458 E17.25922
G1 X109.164 Y71.358 E17.44292
G1 X109.535 Y72.506 E17.49735
G1 X109.652 Y72.998 E17.52017
G1 X109.699 Y73.723 E17.55294
G1 X109.7 Y83.524 E17.99513
G1 X109.695 Y84.68 E18.04729
G1 X109.7 Y85.368 E18.07833
G1 X109.7 Y95.021 E18.51384
G1 X109.696 Y96.239 E18.56879
G1 X109.7 Y96.7 E18.58959
G1 X109.7 Y105.818 E19.00097
G1 X109.69 Y106.545 E19.03377
G1 X109.643 Y107.048 E19.05656
G1 X109.517 Y107.538 E19.07939
G1 X109.316 Y108.002 E19.1022
G1 X109.044 Y108.428 E19.12501
G1 X108.709 Y108.807 E19.14783
G1 X108.318 Y109.127 E19.17062
G1 X107.882 Y109.382 E19.19341
G1 X107.411 Y109.566 E19.21623
G1 X106.916 Y109.672 E19.23906
G1 X106.26 Y109.709 E19.26871
G1 X97.158 Y109.71 E19.67936
G1 X96.44 Y109.699 E19.71176
G1 X96.218 Y109.688 E19.72179
G1 X93.413 Y109.45 E19.84879
G1 X90.696 Y109.297 E19.97157
G1 X86.591 Y109.21 E20.15682
G1 X85.661 Y109.21 E20.19877
G1 X84.958 Y109.2 E20.23049
G1 X84.455 Y109.153 E20.25329
G1 X83.965 Y109.027 E20.27611
G1 X83.502 Y108.825 E20.2989
G1 X83.075 Y108.554 E20.32172
G1 X82.695 Y108.215 E20.3447
G1 X82.262 Y107.764 E20.3729
G1 X81.269 Y106.698 E20.43863
G1 X79.323 Y104.722 E20.56376
G1 X77.374 Y102.852 E20.68562
G1 X75.343 Y101.009 E20.80935
G1 X73.264 Y99.231 E20.93277
G1 X71.96 Y98.178 E21.00839
G1 X71.465 Y97.767 E21.03742
G1 X71.103 Y97.414 E21.06023
G1 X70.8 Y97.009 E21.08305
G1 X70.566 Y96.561 E21.10586
G1 X70.405 Y96.082 E21.12865
G1 X70.32 Y95.574 E21.15189
G1 X70.285 Y95.157 E21.17077
G1 X70.138 Y93.124 E21.26273
G1 X69.865 Y90.42 E21.38535
G1 X69.506 Y87.647 E21.5115
G1 X69.087 Y85.007 E21.6321
G1 X68.843 Y83.645 E21.69453
G1 X68.793 Y83.129 E21.71792
G1 X68.784 Y82.527 E21.74508
G1 X68.704 Y79.744 E21.87069
G1 X68.596 Y77.733 E21.96155
G1 X68.592 Y76.931 E21.99774
G1 X68.624 Y76.172 E22.03201
G1 X68.705 Y74.743 E22.09659
G1 X68.786 Y71.889 E22.2254
G1 X68.792 Y71.438 E22.24575
G1 X68.839 Y70.935 E22.26854
G1 X68.965 Y70.445 E22.29137
G1 X69.166 Y69.981 E22.31418
G1 X69.534 Y69.434 E22.34393
G1 X69.899 Y68.998 E22.36958
G1 X70.182 Y68.676 E22.38892
G1 F2400 E21.18892
;MESH:clip.stl(1)
G0 F3000 X73.177 Y73.632
;TYPE:WALL-INNER
G1 F2400 E22.38892
G1 F1500 X72.577 Y73.033 E22.42717
G1 X72.577 Y71.699 E22.48736
G1 X72.847 Y71.384 E22.50608
G1 X73.187 Y71.724 E22.52777
G1 X73.187 Y73.163 E22.59269
G1 X73.187 Y73.632 E22.60513
G1 X73.187 Y74.806 E22.6581
G1 X73.348 Y76.619 E22.74022
G1 X75.182 Y76.88 E22.8238
G1 X77.016 Y76.619 E22.90737
G1 X77.177 Y74.806 E22.98949
G1 X77.177 Y73.632 E23.04246
G1 X77.177 Y73.163 E23.06362
G1 X77.177 Y71.724 E23.12854
G1 X77.517 Y71.384 E23.15024
G1 X77.787 Y71.699 E23.16895
G1 X77.787 Y73.033 E23.22914
G1 X77.187 Y73.632 E23.25866
G1 X77.187 Y74.806 E23.25999
G1 X77.187 Y76.677 E23.28103
G1 X77.987 Y77.277 E23.32615
G1 X77.987 Y77.282 E23.32638
G1 X77.187 Y77.882 E23.37149
G1 X77.187 Y79.752 E23.45586
G1 X77.187 Y80.926 E23.50883
G1 X77.787 Y81.525 E23.54708
G1 X77.787 Y82.859 E23.60726
G1 X77.517 Y83.174 E23.62598
G1 X77.177 Y82.834 E23.64768
G1 X77.177 Y81.395 E23.7126
G1 X77.177 Y80.926 E23.72504
G1 X77.177 Y79.752 E23.72637
G1 X77.016 Y77.939 E23.74513
G1 X75.182 Y77.678 E23.8287
G1 X73.348 Y77.939 E23.91228
G1 X73.187 Y79.752 E23.9944
G1 X73.187 Y80.926 E24.04737
G1 X73.187 Y81.395 E24.06853
G1 X73.187 Y82.834 E24.13345
G1 X72.847 Y83.174 E24.15514
G1 X72.577 Y82.859 E24.17386
G1 X72.577 Y81.525 E24.23405
G1 X73.177 Y80.926 E24.26357
G1 X73.177 Y79.752 E24.2649
G1 X73.177 Y77.882 E24.28591
G1 X72.377 Y77.282 E24.33103
G1 X72.377 Y77.277 E24.33126
G1 X73.177 Y76.677 E24.37637
G1 X73.177 Y74.806 E24.39742
G1 X73.177 Y73.632 E24.39874
G0 F3000 X72.782 Y73.796
;TYPE:WALL-OUTER
G1 F1500 X72.182 Y73.197 E24.43699
G1 X72.182 Y71.553 E24.51117
G1 X72.674 Y70.979 E24.54528
G1 X73 Y70.979 E24.55998
G1 X73.582 Y71.561 E24.59712
G1 X73.582 Y74.788 E24.74271
G1 X73.714 Y76.272 E24.80993
G1 X75.182 Y76.481 E24.87683
G1 X76.65 Y76.272 E24.94372
G1 X76.782 Y74.788 E25.01094
G1 X76.782 Y71.561 E25.15653
G1 X77.364 Y70.979 E25.19367
G1 X77.69 Y70.979 E25.20838
G1 X78.182 Y71.553 E25.24248
G1 X78.182 Y73.197 E25.31666
G1 X77.582 Y73.796 E25.35491
G1 X77.582 Y76.479 E25.47596
G1 X78.382 Y77.079 E25.52107
G1 X78.382 Y77.479 E25.53912
G1 X77.582 Y78.079 E25.58424
G1 X77.582 Y80.762 E25.70528
G1 X78.182 Y81.361 E25.74353
G1 X78.182 Y83.005 E25.81771
G1 X77.69 Y83.579 E25.85182
G1 X77.364 Y83.579 E25.86652
G1 X76.782 Y82.997 E25.90366
G1 X76.782 Y79.77 E26.04925
G1 X76.65 Y78.286 E26.11647
G1 X75.182 Y78.077 E26.18337
G1 X73.714 Y78.286 E26.25026
G1 X73.582 Y79.77 E26.31748
G1 X73.582 Y82.997 E26.46307
G1 X73 Y83.579 E26.50021
G1 X72.674 Y83.579 E26.51492
G1 X72.182 Y83.005 E26.54902
G1 X72.182 Y81.361 E26.6232
G1 X72.782 Y80.762 E26.66145
G1 X72.782 Y78.079 E26.7825
G1 X71.982 Y77.479 E26.82761
G1 X71.982 Y77.079 E26.84566
G1 X72.782 Y76.479 E26.89078
G1 X72.782 Y73.796 E27.01182
G0 F3000 X72.641 Y73.655
G0 X72.952 Y73.345
G0 X72.756 Y72.756
;TYPE:SKIN
G1 F1500 X73.006 Y73.006 E27.02808
G0 F3000 X73.006 Y72.44
G1 F1500 X72.756 Y72.19 E27.04434
G0 F3000 X73.006 Y71.875
G1 F1500 X72.821 Y71.69 E27.05637
G1 F2400 E25.85637
G0 F3000 X73.374 Y77.017
G1 F2400 E27.05637
G1 F1500 X75.182 Y77.274 E27.14033
G1 X76.99 Y77.017 E27.2243
G1 X77.34 Y77.279 E27.2444
G1 X76.991 Y77.541 E27.26446
G1 X75.182 Y77.284 E27.34847
G1 X73.373 Y77.541 E27.43248
G1 X73.024 Y77.279 E27.45255
G1 X73.374 Y77.017 E27.47265
G1 F2400 E26.27265
G0 F3000 X76.677 Y77.243
G1 F2400 E27.47265
G1 F1500 X76.759 Y77.324 E27.47795
G1 F2400 E26.27795
G0 F3000 X72.935 Y81.42
G1 F2400 E27.47795
G1 F1500 X73.006 Y81.491 E27.48257
G0 F3000 X72.757 Y81.808
G1 F1500 X73.006 Y82.057 E27.49876
G0 F3000 X72.757 Y82.373
G1 F1500 X73.006 Y82.623 E27.51498
G1 F2400 E26.31498
G0 F3000 X77.607 Y82.698
G1 F2400 E27.51498
G1 F1500 X77.356 Y82.447 E27.5313
G0 F3000 X77.607 Y82.132
G1 F1500 X77.356 Y81.882 E27.54759
G1 F2400 E26.34759
G0 F3000 X77.545 Y73.02
G1 F2400 E27.54759
G1 F1500 X77.356 Y72.83 E27.55991
G0 F3000 X77.606 Y72.515
G1 F1500 X77.356 Y72.264 E27.5762
G0 F3000 X77.606 Y71.949
G1 F1500 X77.405 Y71.748 E27.58927
G1 F2400 E26.38927
;MESH:clip.stl
G0 F3000 X81.473 Y72.897
;TYPE:WALL-INNER
G1 F2400 E27.58927
G1 F1500 X80.873 Y72.298 E27.62752
G1 X80.873 Y70.964 E27.68771
G1 X81.143 Y70.649 E27.70643
G1 X81.483 Y70.989 E27.72812
G1 X81.483 Y72.428 E27.79304
G1 X81.483 Y72.897 E27.80548
G1 X81.483 Y74.071 E27.85845
G1 X81.644 Y75.884 E27.94057
G1 X83.478 Y76.145 E28.02415
G1 X85.312 Y75.884 E28.10772
G1 X85.473 Y74.071 E28.18984
G1 X85.473 Y72.897 E28.24281
G1 X85.473 Y72.428 E28.26397
G1 X85.473 Y70.989 E28.32889
G1 X85.813 Y70.649 E28.35059
G1 X86.083 Y70.964 E28.3693
G1 X86.083 Y72.298 E28.42949
G1 X85.483 Y72.897 E28.45901
G1 X85.483 Y74.071 E28.46034
G1 X85.483 Y75.942 E28.48138
G1 X86.283 Y76.542 E28.5265
G1 X86.283 Y76.547 E28.52673
G1 X85.483 Y77.147 E28.57184
G1 X85.483 Y79.017 E28.65621
G1 X85.483 Y80.191 E28.70918
G1 X86.083 Y80.79 E28.74743
G1 X86.083 Y82.124 E28.80761
G1 X85.813 Y82.439 E28.82633
G1 X85.473 Y82.099 E28.84803
G1 X85.473 Y80.66 E28.91295
G1 X85.473 Y80.191 E28.92539
G1 X85.473 Y79.017 E28.92672
G1 X85.312 Y77.204 E28.94548
G1 X83.478 Y76.943 E29.02905
G1 X81.644 Y77.204 E29.11263
G1 X81.483 Y79.017 E29.19475
G1 X81.483 Y80.191 E29.24772
G1 X81.483 Y80.66 E29.26888
G1 X81.483 Y82.099 E29.3338
G1 X81.143 Y82.439 E29.35549
G1 X80.873 Y82.124 E29.37421
G1 X80.873 Y80.79 E29.4344
G1 X81.473 Y80.191 E29.46392
G1 X81.473 Y79.017 E29.46525
G1 X81.473 Y77.147 E29.48626
G1 X80.673 Y76.547 E29.53138
