;FLAVOR:Marlin
;TIME:1032
;Filament used: 1.61903m
;Layer height: 0.3
;MINX:66.384
;MINY:62.756
;MINZ:0.3
;MAXX:114.246
;MAXY:111.034
;MAXZ:15.9
;Generated with Cura_SteamEngine 4.12.1
M82 ;absolute extrusion mode
G21 ;metric values
G90 ;absolute positioning
M82 ;set extruder to absolute mode
M107 ;start with the fan off

M104 S200 T0 ; start heating T0 to what is set in Cura
M140 S60 ; start heating the bed to what is set in Cura
M190 S60 ; start heating the bed to what is set in Cura
M109 S200 T0 ; start heating T0 to what is set in Cura

G28 X0 Y0 ;move X/Y to min endstops
G28 Z0 ;move Z to min endstops
G1 Z15.0 F2400 ;move the platform down 15mm
G92 E0 ;zero the extruded length
G1 F200 E3 ;extrude 3mm of feed stock
G92 E0 ;zero the extruded length again
G1 F2400
G0 Y20 F2400
M117 Printing...
G5
G92 E0
G92 E0
G1 F2400 E-1.2
;LAYER_COUNT:53
;LAYER:0
M107
G0 F3000 X67.798 Y71.096 Z0.3
;TYPE:SKIRT
G1 F2400 E0
G1 F1500 X68.314 Y70.634 E0.03125
G1 X68.611 Y70.384 E0.04876
G1 X69.07 Y70.055 E0.07424
G1 X69.672 Y69.752 E0.10465
G1 X70.369 Y69.473 E0.13852
G1 X71.561 Y69.013 E0.19617
G1 X74.063 Y67.964 E0.31857
G1 X76.564 Y66.832 E0.44242
G1 X78.988 Y65.651 E0.56408
G1 X81.389 Y64.395 E0.68633
G1 X83.169 Y63.408 E0.77816
G1 X83.383 Y63.286 E0.78927
G1 X83.893 Y63.041 E0.8148
G1 X84.432 Y62.87 E0.84031
G1 X85.233 Y62.761 E0.87678
G1 X85.996 Y62.759 E0.9112
G1 X86.902 Y62.797 E0.95212
G1 X89.632 Y62.874 E1.07533
G1 X92.369 Y62.874 E1.19882
G1 X95.305 Y62.788 E1.33134
G1 X95.925 Y62.761 E1.35934
G1 X96.445 Y62.756 E1.3828
G1 X96.691 Y62.76 E1.3939
G1 X97.254 Y62.809 E1.41939
G1 X98.027 Y63.01 E1.45543
G1 X98.494 Y63.182 E1.47788
G1 X101.068 Y64.09 E1.60103
G1 X103.633 Y64.914 E1.72258
G1 X106.25 Y65.674 E1.84552
G1 X108.869 Y66.355 E1.96761
G1 X110.577 Y66.749 E2.0467
G1 X111.082 Y66.873 E2.07016
G1 X111.62 Y67.047 E2.09567
G1 X112.128 Y67.294 E2.12115
G1 X112.597 Y67.611 E2.14669
G1 X113.082 Y68.056 E2.17639
G1 X113.45 Y68.485 E2.20189
G1 X113.755 Y68.961 E2.2274
G1 X113.989 Y69.475 E2.25288
G1 X114.149 Y70.018 E2.27842
G1 X114.239 Y70.734 E2.31097
G1 X114.241 Y71.496 E2.34535
G1 X114.202 Y72.432 E2.38762
G1 X114.126 Y75.132 E2.50948
G1 X114.126 Y77.869 E2.63297
G1 X114.212 Y80.8 E2.76526
G1 X114.235 Y81.305 E2.78807
G1 X114.239 Y81.433 E2.79385
G1 X114.246 Y82.011 E2.81993
G1 X114.243 Y84.182 E2.91787
G1 X114.24 Y84.997 E2.95464
G1 X114.202 Y85.932 E2.99686
G1 X114.126 Y88.632 E3.11873
G1 X114.126 Y91.369 E3.24221
G1 X114.212 Y94.305 E3.37473
G1 X114.237 Y94.908 E3.40196
G1 X114.244 Y95.444 E3.42614
G1 X114.24 Y95.693 E3.43738
G1 X114.191 Y96.256 E3.46288
G1 X114.064 Y96.807 E3.48839
G1 X113.859 Y97.334 E3.5139
G1 X113.583 Y97.827 E3.53939
G1 X113.069 Y98.457 E3.57607
G1 X112.956 Y98.57 E3.58328
G1 X112.529 Y98.941 E3.6088
G1 X112.054 Y99.248 E3.63432
G1 X111.699 Y99.421 E3.65214
G1 X111.127 Y99.665 E3.68019
G1 X109.641 Y100.275 E3.75267
G1 X107.169 Y101.37 E3.87465
G1 X104.723 Y102.539 E3.99696
G1 X102.306 Y103.778 E4.1195
G1 X99.918 Y105.088 E4.24238
G1 X97.587 Y106.455 E4.3643
G1 X95.293 Y107.889 E4.48636
G1 X93.598 Y109.007 E4.57797
G1 X92.476 Y109.762 E4.63898
G1 X91.986 Y110.044 E4.66449
G1 X91.461 Y110.254 E4.69
G1 X90.912 Y110.388 E4.71549
G1 X90.384 Y110.441 E4.73944
G1 X88.44 Y110.51 E4.8272
G1 X85.71 Y110.684 E4.95062
G1 X82.37 Y111.002 E5.10199
G1 X82.074 Y111.019 E5.11536
G1 X81.399 Y111.033 E5.14582
G1 X81.26 Y111.034 E5.1521
G1 X80.273 Y111.02 E5.19663
G1 X76.909 Y111.03 E5.3484
G1 X76.749 Y111.033 E5.35562
G1 X76.185 Y111.004 E5.3811
G1 X75.63 Y110.896 E5.40661
G1 X75.096 Y110.71 E5.43213
G1 X74.593 Y110.451 E5.45765
G1 X74.132 Y110.124 E5.48315
G1 X73.693 Y109.702 E5.51062
G1 X73.231 Y109.186 E5.54187
G1 X72.98 Y108.887 E5.55948
G1 X72.652 Y108.427 E5.58497
G1 X72.391 Y107.925 E5.6105
G1 X72.172 Y107.273 E5.64153
G1 X72.002 Y106.584 E5.67355
G1 X71.314 Y103.956 E5.79611
G1 X70.55 Y101.344 E5.91889
G1 X69.726 Y98.8 E6.03954
G1 X68.804 Y96.201 E6.16396
G1 X67.826 Y93.677 E6.28608
G1 X67.235 Y92.29 E6.35411
G1 X67.196 Y92.177 E6.3595
G1 X66.706 Y91.005 E6.41681
G1 X66.525 Y90.469 E6.44233
G1 X66.422 Y89.914 E6.4678
G1 X66.397 Y89.546 E6.48444
G1 X66.385 Y88.978 E6.51008
G1 X66.384 Y88.838 E6.51639
G1 X66.398 Y87.839 E6.56147
G1 X66.388 Y84.473 E6.71333
G1 X66.385 Y84.096 E6.73034
G1 X66.461 Y81.393 E6.85234
G1 X66.455 Y79.432 E6.94081
G1 X66.48 Y77.663 E7.02063
G1 X66.47 Y74.298 E7.17245
G1 X66.467 Y74.152 E7.17904
G1 X66.496 Y73.588 E7.20452
G1 X66.604 Y73.033 E7.23003
G1 X66.79 Y72.499 E7.25554
G1 X67.049 Y71.996 E7.28107
G1 X67.376 Y71.535 E7.30657
G1 X67.798 Y71.096 E7.33404
G0 F3000 X68.065 Y71.394
G1 F1500 X68.581 Y70.932 E7.36529
G1 X68.866 Y70.692 E7.3821
G1 X69.303 Y70.382 E7.40627
G1 X69.821 Y70.124 E7.43238
G1 X70.513 Y69.846 E7.46603
G1 X71.724 Y69.378 E7.5246
G1 X74.206 Y68.338 E7.64601
G1 X76.726 Y67.197 E7.77082
G1 X79.169 Y66.007 E7.89342
G1 X81.606 Y64.733 E8.01749
G1 X83.365 Y63.757 E8.10824
G1 X83.582 Y63.633 E8.11952
G1 X84.066 Y63.403 E8.1437
G1 X84.579 Y63.247 E8.16789
G1 X85.247 Y63.161 E8.19827
G1 X85.99 Y63.159 E8.2318
G1 X86.873 Y63.195 E8.27167
G1 X89.657 Y63.274 E8.39732
G1 X92.38 Y63.274 E8.52018
G1 X95.335 Y63.187 E8.65355
G1 X95.931 Y63.161 E8.68047
G1 X96.439 Y63.155 E8.70339
G1 X96.685 Y63.159 E8.71449
G1 X97.219 Y63.208 E8.73868
G1 X97.889 Y63.386 E8.76996
G1 X98.31 Y63.541 E8.7902
G1 X100.919 Y64.461 E8.91501
G1 X103.538 Y65.302 E9.03912
G1 X106.152 Y66.062 E9.16194
G1 X108.784 Y66.747 E9.28464
G1 X110.481 Y67.138 E9.36321
G1 X110.986 Y67.262 E9.38667
G1 X111.496 Y67.428 E9.41087
G1 X111.976 Y67.668 E9.43508
G1 X112.414 Y67.977 E9.45926
G1 X112.798 Y68.338 E9.48304
G1 X113.146 Y68.746 E9.50724
G1 X113.43 Y69.201 E9.53143
G1 X113.642 Y69.693 E9.5556
G1 X113.78 Y70.211 E9.57979
G1 X113.839 Y70.748 E9.60416
G1 X113.841 Y71.49 E9.63764
G1 X113.805 Y72.365 E9.67715
G1 X113.726 Y75.157 E9.80317
G1 X113.726 Y77.88 E9.92602
G1 X113.812 Y80.818 E10.05863
G1 X113.839 Y81.438 E10.08663
G1 X113.846 Y82.011 E10.11248
G1 X113.843 Y84.187 E10.21066
G1 X113.841 Y84.991 E10.24693
G1 X113.805 Y85.865 E10.2864
G1 X113.726 Y88.657 E10.41241
G1 X113.726 Y91.38 E10.53526
G1 X113.812 Y94.322 E10.66805
G1 X113.837 Y94.915 E10.69483
G1 X113.845 Y95.438 E10.71843
G1 X113.841 Y95.687 E10.72967
G1 X113.792 Y96.221 E10.75386
G1 X113.665 Y96.742 E10.77805
G1 X113.461 Y97.238 E10.80225
G1 X113.187 Y97.699 E10.82645
G1 X112.787 Y98.175 E10.8545
G1 X112.674 Y98.288 E10.86171
G1 X112.267 Y98.637 E10.8859
G1 X111.813 Y98.923 E10.91011
G1 X111.541 Y99.053 E10.92371
G1 X110.975 Y99.294 E10.95146
G1 X109.506 Y99.897 E11.0231
G1 X107 Y101.008 E11.14678
G1 X104.546 Y102.18 E11.26947
G1 X102.124 Y103.421 E11.39226
G1 X99.73 Y104.735 E11.51547
G1 X97.379 Y106.114 E11.63844
G1 X95.073 Y107.555 E11.76112
G1 X93.378 Y108.673 E11.85273
G1 X92.253 Y109.43 E11.9139
G1 X91.787 Y109.696 E11.93811
G1 X91.287 Y109.889 E11.96229
G1 X90.763 Y110.006 E11.98652
G1 X90.37 Y110.042 E12.00432
G1 X88.399 Y110.112 E12.0933
G1 X85.68 Y110.286 E12.21623
G1 X82.332 Y110.604 E12.36796
G1 X82.066 Y110.619 E12.37998
G1 X81.266 Y110.634 E12.41608
G1 X80.277 Y110.62 E12.4607
G1 X76.901 Y110.63 E12.61302
G1 X76.742 Y110.633 E12.62019
G1 X76.206 Y110.604 E12.64441
G1 X75.681 Y110.495 E12.6686
G1 X75.178 Y110.309 E12.6928
G1 X74.708 Y110.05 E12.71701
G1 X74.282 Y109.725 E12.74118
G1 X73.991 Y109.435 E12.75972
G1 X73.529 Y108.919 E12.79096
G1 X73.288 Y108.632 E12.80787
G1 X72.978 Y108.195 E12.83205
G1 X72.737 Y107.716 E12.85624
G1 X72.561 Y107.177 E12.88182
G1 X72.391 Y106.488 E12.91384
G1 X71.699 Y103.848 E13.03697
G1 X70.939 Y101.249 E13.15914
G1 X70.093 Y98.637 E13.28301
G1 X69.182 Y96.071 E13.40586
G1 X68.198 Y93.53 E13.5288
G1 X67.603 Y92.134 E13.59726
G1 X67.566 Y92.025 E13.60245
G1 X67.075 Y90.851 E13.65987
G1 X66.905 Y90.342 E13.68408
G1 X66.813 Y89.814 E13.70826
G1 X66.797 Y89.538 E13.72073
G1 X66.784 Y88.844 E13.75205
G1 X66.798 Y87.845 E13.79712
G1 X66.788 Y84.471 E13.94935
G1 X66.784 Y84.107 E13.96577
G1 X66.861 Y81.37 E14.08931
G1 X66.855 Y79.438 E14.17647
G1 X66.88 Y77.669 E14.25629
G1 X66.87 Y74.296 E14.40847
G1 X66.867 Y74.145 E14.41528
G1 X66.896 Y73.609 E14.4395
G1 X67.005 Y73.084 E14.46369
G1 X67.191 Y72.581 E14.48789
G1 X67.45 Y72.111 E14.5121
G1 X67.775 Y71.685 E14.53628
G1 X68.065 Y71.394 E14.55481
G0 F3000 X68.331 Y71.692
G1 F1500 X68.847 Y71.23 E14.58606
G1 X69.121 Y71 E14.6022
G1 X69.535 Y70.709 E14.62503
G1 X69.97 Y70.495 E14.6469
G1 X70.657 Y70.219 E14.6803
G1 X71.873 Y69.749 E14.73912
G1 X74.387 Y68.696 E14.86209
G1 X76.887 Y67.564 E14.98591
G1 X79.365 Y66.357 E15.11026
G1 X81.745 Y65.112 E15.23145
G1 X83.599 Y64.084 E15.32709
G1 X83.78 Y63.981 E15.33649
G1 X84.238 Y63.765 E15.35933
G1 X84.723 Y63.625 E15.38211
G1 X85.26 Y63.561 E15.40651
G1 X85.983 Y63.559 E15.43913
G1 X86.854 Y63.595 E15.47846
G1 X89.646 Y63.674 E15.60447
G1 X92.358 Y63.674 E15.72683
G1 X95.364 Y63.586 E15.86251
G1 X95.937 Y63.561 E15.88839
G1 X96.678 Y63.559 E15.92182
G1 X97.181 Y63.608 E15.94462
G1 X97.751 Y63.761 E15.97124
G1 X98.177 Y63.918 E15.99173
G1 X100.81 Y64.847 E16.1177
G1 X103.408 Y65.681 E16.2408
G1 X106.044 Y66.447 E16.36465
G1 X108.699 Y67.138 E16.48842
G1 X110.386 Y67.526 E16.56652
G1 X110.891 Y67.65 E16.58998
G1 X111.371 Y67.809 E16.6128
G1 X111.82 Y68.042 E16.63562
G1 X112.401 Y68.505 E16.66914
G1 X112.514 Y68.619 E16.67638
G1 X112.84 Y69.005 E16.69918
G1 X113.102 Y69.438 E16.72201
G1 X113.292 Y69.906 E16.7448
G1 X113.406 Y70.399 E16.76763
G1 X113.445 Y70.936 E16.79192
G1 X113.441 Y71.483 E16.8166
G1 X113.405 Y72.354 E16.85593
G1 X113.326 Y75.146 E16.98194
G1 X113.326 Y77.858 E17.1043
G1 X113.413 Y80.836 E17.23872
G1 X113.439 Y81.444 E17.26617
G1 X113.446 Y82.01 E17.29171
G1 X113.443 Y84.192 E17.39015
G1 X113.441 Y84.985 E17.42593
G1 X113.405 Y85.854 E17.46517
G1 X113.326 Y88.646 E17.59119
G1 X113.326 Y91.358 E17.71354
G1 X113.415 Y94.379 E17.8499
G1 X113.438 Y94.922 E17.87442
G1 X113.445 Y95.431 E17.89739
G1 X113.441 Y95.68 E17.90862
G1 X113.393 Y96.184 E17.93147
G1 X113.266 Y96.673 E17.95426
G1 X113.064 Y97.136 E17.97705
G1 X112.791 Y97.562 E17.99988
G1 X112.391 Y98.005 E18.02681
G1 X112.006 Y98.333 E18.04963
G1 X111.384 Y98.685 E18.08187
G1 X110.823 Y98.924 E18.10938
G1 X109.358 Y99.525 E18.18082
G1 X106.828 Y100.646 E18.30567
G1 X104.371 Y101.821 E18.42855
G1 X101.929 Y103.072 E18.55234
G1 X99.526 Y104.39 E18.67599
G1 X97.16 Y105.779 E18.79977
G1 X94.863 Y107.214 E18.92197
G1 X93.157 Y108.339 E19.01416
G1 X92.029 Y109.098 E19.0755
G1 X91.589 Y109.347 E19.09831
G1 X91.115 Y109.523 E19.12112
G1 X90.619 Y109.622 E19.14394
G1 X90.356 Y109.642 E19.15584
G1 X88.396 Y109.712 E19.24433
G1 X85.647 Y109.887 E19.36861
G1 X82.294 Y110.206 E19.52057
G1 X82.057 Y110.219 E19.53127
G1 X81.271 Y110.234 E19.56674
G1 X80.281 Y110.22 E19.61141
G1 X76.892 Y110.23 E19.76431
G1 X76.734 Y110.233 E19.77144
G1 X76.229 Y110.203 E19.79427
G1 X75.736 Y110.094 E19.81705
G1 X75.266 Y109.908 E19.83985
G1 X74.83 Y109.65 E19.86271
G1 X74.289 Y109.169 E19.89537
G1 X73.827 Y108.653 E19.92662
G1 X73.597 Y108.378 E19.94279
G1 X73.306 Y107.964 E19.96562
G1 X73.016 Y107.315 E19.99769
G1 X72.949 Y107.082 E20.00863
G1 X72.779 Y106.393 E20.04065
G1 X72.086 Y103.748 E20.16401
G1 X71.318 Y101.119 E20.28758
G1 X70.479 Y98.528 E20.41045
G1 X69.556 Y95.929 E20.53489
G1 X68.57 Y93.382 E20.65811
G1 X67.971 Y91.977 E20.72702
G1 X67.936 Y91.872 E20.73201
G1 X67.444 Y90.696 E20.78953
G1 X67.286 Y90.216 E20.81232
G1 X67.197 Y89.53 E20.84353
G1 X67.184 Y88.849 E20.87426
G1 X67.198 Y87.85 E20.91934
G1 X67.188 Y84.47 E21.07184
G1 X67.184 Y84.118 E21.08772
G1 X67.261 Y81.38 E21.2113
G1 X67.255 Y79.444 E21.29864
G1 X67.28 Y77.675 E21.37846
G1 X67.27 Y74.295 E21.53096
G1 X67.267 Y74.137 E21.53809
G1 X67.297 Y73.632 E21.56091
G1 X67.406 Y73.139 E21.58369
G1 X67.592 Y72.669 E21.6065
G1 X67.85 Y72.233 E21.62935
G1 X68.331 Y71.692 E21.66201
G1 F2400 E20.46201
;MESH:clip_v4.stl(3)
G0 F3000 X73.306 Y74.657
;TYPE:WALL-INNER
G1 F2400 E21.66201
G1 F1500 X76.355 Y74.657 E21.79957
G1 X76.955 Y73.857 E21.84469
G1 X77.555 Y74.657 E21.88981
G1 X80.604 Y74.657 E22.02737
G1 X81.203 Y74.057 E22.06562
G1 X82.533 Y74.057 E22.12562
G1 X82.854 Y74.332 E22.14469
G1 X82.483 Y74.757 E22.17015
G1 X80.604 Y74.757 E22.25492
G1 X77.64 Y74.757 E22.29227
G1 X77.348 Y76.657 E22.379
G1 X77.64 Y78.557 E22.46573
G1 X80.604 Y78.557 E22.59945
G1 X82.481 Y78.557 E22.68414
G1 X82.854 Y78.982 E22.70965
G1 X82.533 Y79.257 E22.72872
G1 X81.203 Y79.257 E22.78872
G1 X80.604 Y78.657 E22.82697
G1 X77.555 Y78.657 E22.86289
G1 X76.955 Y79.457 E22.908
G1 X76.355 Y78.657 E22.95312
G1 X73.306 Y78.657 E23.09068
G1 X72.707 Y79.257 E23.12893
G1 X71.377 Y79.257 E23.18894
G1 X71.056 Y78.982 E23.20801
G1 X71.429 Y78.557 E23.23352
G1 X73.306 Y78.557 E23.3182
G1 X76.27 Y78.557 E23.35555
G1 X76.562 Y76.657 E23.44228
G1 X76.27 Y74.757 E23.52901
G1 X73.306 Y74.757 E23.56636
G1 X71.427 Y74.757 E23.65113
G1 X71.056 Y74.332 E23.67658
G1 X71.377 Y74.057 E23.69565
G1 X72.707 Y74.057 E23.75566
G1 X73.306 Y74.657 E23.79391
G0 F3000 X73.472 Y74.257
;TYPE:WALL-OUTER
G1 F1500 X76.155 Y74.257 E23.91496
G1 X76.755 Y73.457 E23.96007
G1 X77.155 Y73.457 E23.97812
G1 X77.755 Y74.257 E24.02324
G1 X80.438 Y74.257 E24.14429
G1 X81.037 Y73.657 E24.18254
G1 X82.681 Y73.657 E24.25671
G1 X83.255 Y74.149 E24.29082
G1 X83.255 Y74.481 E24.3058
G1 X82.664 Y75.157 E24.34631
G1 X77.983 Y75.157 E24.5575
G1 X77.753 Y76.657 E24.62596
G1 X77.983 Y78.157 E24.69443
G1 X82.663 Y78.157 E24.90558
G1 X83.255 Y78.833 E24.94612
G1 X83.255 Y79.165 E24.9611
G1 X82.681 Y79.657 E24.9952
G1 X81.037 Y79.657 E25.06938
G1 X80.438 Y79.057 E25.10763
G1 X77.755 Y79.057 E25.22867
G1 X77.155 Y79.857 E25.27379
G1 X76.755 Y79.857 E25.29184
G1 X76.155 Y79.057 E25.33695
G1 X73.472 Y79.057 E25.458
G1 X72.873 Y79.657 E25.49625
G1 X71.229 Y79.657 E25.57043
G1 X70.655 Y79.165 E25.60453
G1 X70.655 Y78.833 E25.61951
G1 X71.247 Y78.157 E25.66005
G1 X75.927 Y78.157 E25.8712
G1 X76.157 Y76.657 E25.93967
G1 X75.927 Y75.157 E26.00813
G1 X71.246 Y75.157 E26.21932
G1 X70.655 Y74.481 E26.25983
G1 X70.655 Y74.149 E26.27481
G1 X71.229 Y73.657 E26.30892
G1 X72.873 Y73.657 E26.38309
G1 X73.472 Y74.257 E26.42134
G0 F3000 X73.672 Y74.257
G0 X73.672 Y74.697
G1 F2400 E25.22134
G0 F3000 X72.539 Y74.236
;TYPE:SKIN
G1 F2400 E26.42134
G1 F1500 X72.879 Y74.576 E26.44345
G0 F3000 X72.313 Y74.576
G1 F1500 X71.973 Y74.236 E26.46556
G0 F3000 X71.748 Y74.576
G1 F1500 X71.424 Y74.253 E26.4866
G1 F2400 E25.2866
G0 F3000 X76.682 Y74.87
G1 F2400 E26.4866
G1 F1500 X76.955 Y74.506 E26.50752
G1 X77.228 Y74.87 E26.52844
G1 X76.955 Y76.65 E26.61124
G1 X76.682 Y74.87 E26.69403
G1 F2400 E25.49403
G0 F3000 X76.955 Y76.664
G1 F2400 E26.69403
G1 F1500 X77.228 Y78.444 E26.77683
G1 X76.955 Y78.808 E26.79775
G1 X76.682 Y78.444 E26.81867
G1 X76.955 Y76.664 E26.90147
G1 F2400 E25.70147
G0 F3000 X76.997 Y78.128
G1 F2400 E26.90147
G1 F1500 X76.923 Y78.054 E26.90629
G1 F2400 E25.70629
G0 F3000 X76.982 Y75.284
G1 F2400 E26.90629
G1 F1500 X76.917 Y75.22 E26.91048
G1 F2400 E25.71048
G0 F3000 X81.151 Y74.362
G1 F2400 E26.91048
G1 F1500 X81.365 Y74.577 E26.92443
G0 F3000 X81.59 Y74.237
G1 F1500 X81.931 Y74.577 E26.94657
G0 F3000 X82.156 Y74.237
G1 F1500 X82.445 Y74.525 E26.96533
G1 F2400 E25.76533
G0 F3000 X82.131 Y78.737
G1 F2400 E26.96533
G1 F1500 X82.468 Y79.074 E26.98724
G0 F3000 X81.905 Y79.077
G1 F1500 X81.565 Y78.737 E27.00935
G0 F3000 X81.339 Y79.077
G1 F1500 X80.999 Y78.737 E27.03146
G1 F2400 E25.83146
G0 F3000 X72.742 Y78.965
G1 F2400 E27.03146
G1 F1500 X72.513 Y78.736 E27.04635
G0 F3000 X72.288 Y79.076
G1 F1500 X71.948 Y78.736 E27.06846
G0 F3000 X71.722 Y79.076
G1 F1500 X71.45 Y78.804 E27.08614
G1 F2400 E25.88614
;MESH:clip_v4.stl(2)
G0 F3000 X73.224 Y84.832
;TYPE:WALL-INNER
G1 F2400 E27.08614
G1 F1500 X76.273 Y84.832 E27.2237
G1 X76.873 Y84.032 E27.26882
G1 X77.473 Y84.832 E27.31394
G1 X80.522 Y84.832 E27.4515
G1 X81.121 Y84.232 E27.48975
G1 X82.451 Y84.232 E27.54975
G1 X82.772 Y84.507 E27.56882
G1 X82.401 Y84.932 E27.59428
G1 X80.522 Y84.932 E27.67905
G1 X77.558 Y84.932 E27.7164
G1 X77.266 Y86.832 E27.80313
