;FLAVOR:Marlin
;TIME:235
;Filament used: 0.323004m
;Layer height: 0.3
;MINX:70.292
;MINY:73.804
;MINZ:0.3
;MAXX:106.922
;MAXY:107.931
;MAXZ:6
;Generated with Cura_SteamEngine 4.12.1
M82 ;absolute extrusion mode
G21 ;metric values
G90 ;absolute positioning
M82 ;set extruder to absolute mode
M107 ;start with the fan off

M104 S200 T0 ; start heating T0 to what is set in Cura
M140 S60 ; start heating the bed to what is set in Cura
M190 S60 ; start heating the bed to what is set in Cura
M109 S200 T0 ; start heating T0 to what is set in Cura

G28 X0 Y0 ;move X/Y to min endstops
G28 Z0 ;move Z to min endstops
G1 Z15.0 F2400 ;move the platform down 15mm
G92 E0 ;zero the extruded length
G1 F200 E3 ;extrude 3mm of feed stock
G92 E0 ;zero the extruded length again
G1 F2400
G0 Y20 F2400
M117 Printing...
G5
G92 E0
G92 E0
G1 F2400 E-1.2
;LAYER_COUNT:20
;LAYER:0
M107
G0 F3000 X72.299 Y82.437 Z0.3
;TYPE:SKIRT
G1 F2400 E0
G1 F1500 X72.731 Y82.072 E0.02552
G1 X73.311 Y81.721 E0.0561
G1 X74.246 Y81.258 E0.10318
G1 X74.631 Y81.075 E0.12241
G1 X77.01 Y79.862 E0.24289
G1 X79.428 Y78.541 E0.3672
G1 X81.762 Y77.178 E0.48914
G1 X84.062 Y75.747 E0.61135
G1 X85.349 Y74.892 E0.68106
G1 X86.038 Y74.448 E0.71805
G1 X86.534 Y74.176 E0.74357
G1 X87.063 Y73.976 E0.76908
G1 X87.615 Y73.854 E0.79459
G1 X88.371 Y73.804 E0.82877
G1 X88.668 Y73.805 E0.84217
G1 X91.482 Y73.805 E0.96913
G1 X91.849 Y73.81 E0.98569
G1 X92.413 Y73.858 E1.01123
G1 X92.964 Y73.985 E1.03674
G1 X93.491 Y74.188 E1.06222
G1 X93.985 Y74.463 E1.08773
G1 X94.515 Y74.877 E1.11807
G1 X94.879 Y75.225 E1.14079
G1 X96.074 Y76.455 E1.21816
G1 X96.303 Y76.697 E1.23319
G1 X98.217 Y78.617 E1.3555
G1 X100.203 Y80.499 E1.47895
G1 X100.319 Y80.604 E1.48601
G1 X101.113 Y81.342 E1.53491
G1 X101.31 Y81.535 E1.54736
G1 X101.7 Y81.936 E1.57259
G1 X102.065 Y82.368 E1.59811
G1 X102.365 Y82.847 E1.62361
G1 X102.594 Y83.364 E1.64912
G1 X102.725 Y83.8 E1.66966
G1 X102.857 Y84.356 E1.69544
G1 X103.256 Y86.132 E1.77757
G1 X103.916 Y88.721 E1.89811
G1 X104.663 Y91.341 E2.02103
G1 X105.48 Y93.934 E2.14368
G1 X106.334 Y96.398 E2.26134
G1 X106.676 Y97.349 E2.30693
G1 X106.83 Y97.893 E2.33244
G1 X106.911 Y98.583 E2.36379
G1 X106.922 Y99.156 E2.38964
G1 X106.922 Y100.452 E2.44811
G1 X106.912 Y101.154 E2.47979
G1 X106.864 Y101.717 E2.50528
G1 X106.737 Y102.268 E2.53079
G1 X106.533 Y102.796 E2.55633
G1 X106.258 Y103.289 E2.5818
G1 X105.85 Y103.811 E2.61169
G1 X105.39 Y104.29 E2.64165
G1 X103.417 Y106.265 E2.7676
G1 X102.881 Y106.787 E2.80136
G1 X102.449 Y107.151 E2.82685
G1 X101.97 Y107.452 E2.85237
G1 X101.453 Y107.681 E2.87788
G1 X100.91 Y107.836 E2.90336
G1 X100.24 Y107.918 E2.93381
G1 X99.587 Y107.931 E2.96328
G1 X98.34 Y107.931 E3.01954
G1 X97.64 Y107.921 E3.05112
G1 X97.153 Y107.884 E3.07316
G1 X96.621 Y107.776 E3.09765
G1 X95.414 Y107.443 E3.15414
G1 X94.93 Y107.302 E3.17689
G1 X92.265 Y106.61 E3.30111
G1 X89.636 Y106.006 E3.42281
G1 X87.412 Y105.563 E3.52512
G1 X87.062 Y105.482 E3.54133
G1 X86.523 Y105.313 E3.56682
G1 X86.186 Y105.162 E3.58348
G1 X85.469 Y104.8 E3.61971
G1 X84.416 Y104.251 E3.67329
G1 X81.994 Y103.071 E3.79484
G1 X79.518 Y101.953 E3.91741
G1 X77.003 Y100.9 E4.04042
G1 X74.41 Y99.901 E4.16579
G1 X73.706 Y99.641 E4.19965
G1 X73.191 Y99.408 E4.22516
G1 X72.714 Y99.106 E4.25063
G1 X72.214 Y98.676 E4.28038
G1 X72.008 Y98.474 E4.2934
G1 X71.628 Y98.084 E4.31796
G1 X71.263 Y97.653 E4.34344
G1 X70.963 Y97.174 E4.36894
G1 X70.733 Y96.657 E4.39447
G1 X70.578 Y96.114 E4.41995
G1 X70.495 Y95.433 E4.4509
G1 X70.453 Y94.225 E4.50544
G1 X70.438 Y94.083 E4.51188
G1 X70.292 Y90.945 E4.65361
G1 X70.293 Y90.235 E4.68564
G1 X70.317 Y89.655 E4.71183
G1 X70.429 Y87.666 E4.80171
G1 X70.461 Y86.581 E4.85068
G1 X70.497 Y85.731 E4.88907
G1 X70.56 Y85.169 E4.91458
G1 X70.703 Y84.622 E4.94009
G1 X70.921 Y84.1 E4.96561
G1 X71.21 Y83.615 E4.99108
G1 X71.569 Y83.17 E5.01688
G1 X71.907 Y82.818 E5.0389
G1 X72.299 Y82.437 E5.06356
G0 F3000 X72.578 Y82.723
G1 F1500 X72.989 Y82.379 E5.08774
G1 X73.489 Y82.079 E5.11405
G1 X74.418 Y81.619 E5.16082
G1 X74.806 Y81.434 E5.18021
G1 X77.205 Y80.211 E5.3017
G1 X79.616 Y78.894 E5.42565
G1 X81.953 Y77.53 E5.54773
G1 X84.288 Y76.077 E5.67181
G1 X85.566 Y75.228 E5.74103
G1 X86.255 Y74.784 E5.77801
G1 X86.726 Y74.528 E5.8022
G1 X87.23 Y74.345 E5.82639
G1 X87.756 Y74.238 E5.85061
G1 X88.382 Y74.204 E5.87889
G1 X88.662 Y74.205 E5.89152
G1 X91.477 Y74.205 E6.01853
G1 X91.844 Y74.21 E6.03509
G1 X92.378 Y74.258 E6.05928
G1 X92.899 Y74.384 E6.08346
G1 X93.396 Y74.586 E6.10766
G1 X93.857 Y74.859 E6.13184
G1 X94.395 Y75.312 E6.16357
G1 X94.592 Y75.504 E6.17598
G1 X95.783 Y76.73 E6.25309
G1 X96.012 Y76.972 E6.26813
G1 X97.942 Y78.908 E6.39146
G1 X99.918 Y80.78 E6.51426
G1 X100.047 Y80.897 E6.52212
G1 X100.911 Y81.702 E6.5754
G1 X101.024 Y81.814 E6.58258
G1 X101.414 Y82.215 E6.60782
G1 X101.758 Y82.626 E6.632
G1 X102.037 Y83.084 E6.65619
G1 X102.245 Y83.578 E6.68037
G1 X102.335 Y83.892 E6.69511
G1 X102.466 Y84.444 E6.72071
G1 X102.856 Y86.179 E6.80094
G1 X103.536 Y88.848 E6.9252
G1 X104.282 Y91.466 E7.04802
G1 X105.093 Y94.037 E7.16965
G1 X105.956 Y96.528 E7.28859
G1 X106.3 Y97.484 E7.33443
G1 X106.444 Y98.001 E7.35864
G1 X106.511 Y98.595 E7.38561
G1 X106.522 Y99.161 E7.41115
G1 X106.522 Y100.446 E7.46913
G1 X106.512 Y101.148 E7.5008
G1 X106.464 Y101.682 E7.52499
G1 X106.338 Y102.204 E7.54922
G1 X106.135 Y102.7 E7.5734
G1 X105.861 Y103.161 E7.59759
G1 X105.447 Y103.658 E7.62678
G1 X105.077 Y104.038 E7.6507
G1 X103.138 Y105.978 E7.77445
G1 X102.602 Y106.5 E7.80821
G1 X102.191 Y106.845 E7.83242
G1 X101.733 Y107.124 E7.85661
G1 X101.239 Y107.333 E7.88081
G1 X100.719 Y107.466 E7.90503
G1 X100.065 Y107.524 E7.93465
G1 X99.582 Y107.531 E7.95645
G1 X98.346 Y107.531 E8.01221
G1 X97.646 Y107.521 E8.0438
G1 X97.206 Y107.487 E8.06371
G1 X96.727 Y107.39 E8.08576
G1 X95.525 Y107.059 E8.142
G1 X95.004 Y106.908 E8.16648
G1 X92.408 Y106.234 E8.28748
G1 X89.706 Y105.613 E8.41257
G1 X87.49 Y105.171 E8.51452
G1 X87.155 Y105.093 E8.53003
G1 X86.644 Y104.931 E8.55422
G1 X86.366 Y104.805 E8.56799
G1 X85.654 Y104.445 E8.60399
G1 X84.626 Y103.908 E8.65631
G1 X82.155 Y102.705 E8.78031
G1 X79.671 Y101.583 E8.90328
G1 X77.153 Y100.529 E9.02643
G1 X74.545 Y99.524 E9.15253
G1 X73.845 Y99.266 E9.18619
G1 X73.357 Y99.043 E9.2104
G1 X72.907 Y98.751 E9.2346
G1 X72.486 Y98.383 E9.25983
G1 X72.295 Y98.195 E9.27192
G1 X71.915 Y97.805 E9.29648
G1 X71.57 Y97.394 E9.32069
G1 X71.29 Y96.937 E9.34487
G1 X71.082 Y96.443 E9.36906
G1 X70.949 Y95.923 E9.39327
G1 X70.895 Y95.419 E9.41614
G1 X70.851 Y94.155 E9.4732
G1 X70.838 Y94.064 E9.47735
G1 X70.688 Y90.809 E9.62436
G1 X70.693 Y90.241 E9.64999
G1 X70.714 Y89.725 E9.67329
G1 X70.827 Y87.737 E9.76313
G1 X70.86 Y86.598 E9.81454
G1 X70.896 Y85.748 E9.85292
G1 X70.959 Y85.215 E9.87713
G1 X71.1 Y84.698 E9.90131
G1 X71.316 Y84.207 E9.92551
G1 X71.603 Y83.754 E9.94971
G1 X72.003 Y83.292 E9.97728
G1 X72.186 Y83.104 E9.98911
G1 X72.578 Y82.723 E10.01378
G0 F3000 X72.857 Y83.01
G1 F1500 X73.246 Y82.688 E10.03656
G1 X73.666 Y82.438 E10.05861
G1 X74.59 Y81.98 E10.10514
G1 X74.966 Y81.801 E10.12393
G1 X77.426 Y80.547 E10.2485
G1 X79.803 Y79.249 E10.37069
G1 X82.16 Y77.872 E10.49385
G1 X84.506 Y76.412 E10.61852
G1 X85.783 Y75.564 E10.68768
G1 X86.472 Y75.12 E10.72466
G1 X86.917 Y74.881 E10.74745
G1 X87.394 Y74.714 E10.77025
G1 X88.122 Y74.611 E10.80342
G1 X88.655 Y74.605 E10.82747
G1 X91.472 Y74.605 E10.95456
G1 X91.839 Y74.61 E10.97112
G1 X92.342 Y74.657 E10.99392
G1 X92.832 Y74.783 E11.01674
G1 X93.296 Y74.984 E11.03956
G1 X93.722 Y75.255 E11.06234
G1 X94.123 Y75.605 E11.08635
G1 X94.305 Y75.782 E11.0978
G1 X95.493 Y77.005 E11.17473
G1 X95.74 Y77.266 E11.19094
G1 X97.648 Y79.18 E11.31287
G1 X99.659 Y81.085 E11.43785
G1 X99.775 Y81.19 E11.44491
G1 X100.569 Y81.928 E11.49381
G1 X100.737 Y82.093 E11.50444
G1 X101.127 Y82.494 E11.52967
G1 X101.45 Y82.883 E11.55249
G1 X101.707 Y83.318 E11.57528
G1 X101.946 Y83.985 E11.60725
G1 X102.076 Y84.532 E11.63261
G1 X102.47 Y86.286 E11.71372
G1 X103.151 Y88.96 E11.83821
G1 X103.884 Y91.532 E11.95887
G1 X104.72 Y94.183 E12.08428
G1 X105.578 Y96.659 E12.20251
G1 X105.924 Y97.62 E12.24859
G1 X106.057 Y98.108 E12.27141
G1 X106.112 Y98.607 E12.29406
G1 X106.122 Y99.166 E12.31929
G1 X106.122 Y100.441 E12.37681
G1 X106.112 Y101.143 E12.40849
G1 X106.065 Y101.646 E12.43128
G1 X105.939 Y102.136 E12.4541
G1 X105.737 Y102.599 E12.47689
G1 X105.466 Y103.026 E12.49971
G1 X105.09 Y103.453 E12.52538
G1 X104.794 Y103.755 E12.54446
G1 X102.859 Y105.691 E12.66795
G1 X102.323 Y106.213 E12.70171
G1 X101.934 Y106.536 E12.72452
G1 X101.499 Y106.794 E12.74734
G1 X101.029 Y106.98 E12.77014
G1 X100.535 Y107.09 E12.79298
G1 X99.963 Y107.127 E12.81884
G1 X99.578 Y107.131 E12.83621
G1 X98.351 Y107.131 E12.89157
G1 X97.651 Y107.121 E12.92315
G1 X97.259 Y107.091 E12.94089
G1 X96.833 Y107.004 E12.96051
G1 X95.637 Y106.675 E13.01647
G1 X95.112 Y106.522 E13.04114
G1 X92.501 Y105.844 E13.16285
G1 X89.762 Y105.215 E13.28964
G1 X87.569 Y104.778 E13.39053
G1 X87.247 Y104.704 E13.40543
G1 X86.547 Y104.448 E13.43906
G1 X85.839 Y104.091 E13.47483
G1 X84.779 Y103.538 E13.52877
G1 X82.316 Y102.339 E13.65236
G1 X79.842 Y101.221 E13.77485
G1 X77.315 Y100.164 E13.89843
G1 X74.655 Y99.138 E14.02706
G1 X73.983 Y98.89 E14.05938
G1 X73.524 Y98.679 E14.08217
G1 X72.913 Y98.233 E14.1163
G1 X72.581 Y97.916 E14.13701
G1 X72.201 Y97.526 E14.16158
G1 X71.878 Y97.137 E14.18439
G1 X71.62 Y96.702 E14.20721
G1 X71.434 Y96.232 E14.23001
G1 X71.324 Y95.739 E14.2528
G1 X71.295 Y95.405 E14.26793
G1 X71.253 Y94.205 E14.3221
G1 X71.237 Y94.046 E14.32931
G1 X71.091 Y90.908 E14.47104
G1 X71.093 Y90.247 E14.50086
G1 X71.116 Y89.701 E14.52552
G1 X71.227 Y87.736 E14.61431
G1 X71.26 Y86.615 E14.66491
G1 X71.296 Y85.765 E14.70329
G1 X71.357 Y85.263 E14.72611
G1 X71.497 Y84.777 E14.74893
G1 X71.711 Y84.319 E14.77173
G1 X72.154 Y83.716 E14.80549
G1 X72.465 Y83.391 E14.82579
G1 X72.857 Y83.01 E14.85045
G1 F2400 E13.65045
;MESH:clip-mini_clip.stl(3)
G0 F3000 X75.815 Y90.391
;TYPE:WALL-INNER
G1 F2400 E14.85045
G1 F1500 X77.951 Y90.391 E14.94682
G1 X78.225 Y90.597 E14.96228
G1 X77.952 Y90.801 E14.97036
G1 X75.814 Y90.801 E15.04954
G1 X75.541 Y90.597 E15.06492
G1 X75.815 Y90.391 E15.0731
G1 F2400 E13.8731
G0 F3000 X75.678 Y87.017
G1 F2400 E15.0731
G1 F1500 X75.078 Y86.517 E15.10834
G1 X75.078 Y86.141 E15.1253
G1 X75.328 Y85.891 E15.14125
G1 X75.504 Y85.891 E15.14919
G1 X75.688 Y86.112 E15.16217
G1 X75.688 Y87.017 E15.203
G1 X75.688 Y89.991 E15.33717
G1 X78.078 Y89.991 E15.445
G1 X78.078 Y87.017 E15.57918
G1 X78.078 Y86.112 E15.62001
G1 X78.262 Y85.891 E15.63299
G1 X78.438 Y85.891 E15.64093
G1 X78.688 Y86.141 E15.65688
G1 X78.688 Y86.517 E15.67384
G1 X78.088 Y87.017 E15.70908
G1 X78.088 Y89.994 E15.71251
G1 X78.888 Y90.594 E15.75763
G1 X78.888 Y90.599 E15.75785
G1 X78.088 Y91.199 E15.80297
G1 X78.088 Y94.175 E15.93724
G1 X78.688 Y94.675 E15.97247
G1 X78.688 Y95.051 E15.98944
G1 X78.438 Y95.301 E16.00539
G1 X78.262 Y95.301 E16.01333
G1 X78.078 Y95.08 E16.0263
G1 X78.078 Y94.175 E16.06714
G1 X78.078 Y91.201 E16.07045
G1 X75.688 Y91.201 E16.17828
G1 X75.688 Y94.175 E16.31246
G1 X75.688 Y95.08 E16.35329
G1 X75.504 Y95.301 E16.36626
G1 X75.328 Y95.301 E16.37421
G1 X75.078 Y95.051 E16.39016
G1 X75.078 Y94.675 E16.40712
G1 X75.678 Y94.175 E16.44236
G1 X75.678 Y91.199 E16.44577
G1 X74.878 Y90.599 E16.49088
G1 X74.878 Y90.594 E16.49111
G1 X75.678 Y89.994 E16.53623
G1 X75.678 Y87.017 E16.53966
G0 F3000 X75.283 Y87.202
;TYPE:WALL-OUTER
G1 F1500 X74.683 Y86.702 E16.5749
G1 X74.683 Y85.978 E16.60756
G1 X75.165 Y85.496 E16.63831
G1 X75.689 Y85.496 E16.66195
G1 X76.083 Y85.969 E16.68973
G1 X76.083 Y89.596 E16.85337
G1 X77.683 Y89.596 E16.92555
G1 X77.683 Y85.969 E17.08919
G1 X78.077 Y85.496 E17.11697
G1 X78.601 Y85.496 E17.14061
G1 X79.083 Y85.978 E17.17136
G1 X79.083 Y86.702 E17.20403
G1 X78.483 Y87.202 E17.23926
G1 X78.483 Y89.796 E17.3563
G1 X79.283 Y90.396 E17.40141
G1 X79.283 Y90.796 E17.41946
G1 X78.483 Y91.396 E17.46458
G1 X78.483 Y93.99 E17.58161
G1 X79.083 Y94.49 E17.61685
G1 X79.083 Y95.214 E17.64951
G1 X78.601 Y95.696 E17.68026
G1 X78.077 Y95.696 E17.70391
G1 X77.683 Y95.223 E17.73168
G1 X77.683 Y91.596 E17.89532
G1 X76.083 Y91.596 E17.9675
G1 X76.083 Y95.223 E18.13114
G1 X75.689 Y95.696 E18.15892
G1 X75.165 Y95.696 E18.18256
G1 X74.683 Y95.214 E18.21331
G1 X74.683 Y94.49 E18.24598
G1 X75.283 Y93.99 E18.28121
G1 X75.283 Y91.396 E18.39825
G1 X74.483 Y90.796 E18.44336
G1 X74.483 Y90.396 E18.46141
G1 X75.283 Y89.796 E18.50653
G1 X75.283 Y87.202 E18.62356
G0 F3000 X75.13 Y87.074
G0 X75.411 Y86.737
G1 F2400 E17.42356
;MESH:clip-mini_clip.stl(1)
G0 F3000 X82.491 Y89.215
;TYPE:WALL-INNER
G1 F2400 E18.62356
G1 F1500 X84.627 Y89.215 E18.71993
G1 X84.901 Y89.421 E18.73539
G1 X84.628 Y89.625 E18.74347
G1 X82.49 Y89.625 E18.82265
G1 X82.217 Y89.421 E18.83803
G1 X82.491 Y89.215 E18.84621
G0 F3000 X82.364 Y88.815
G1 F1500 X84.754 Y88.815 E18.95404
G1 X84.754 Y85.841 E19.08822
G1 X84.754 Y84.936 E19.12905
G1 X84.938 Y84.715 E19.14202
G1 X85.114 Y84.715 E19.14996
G1 X85.364 Y84.965 E19.16591
G1 X85.364 Y85.341 E19.18288
G1 X84.764 Y85.841 E19.21811
G1 X84.764 Y88.818 E19.22155
G1 X85.564 Y89.418 E19.26666
G1 X85.564 Y89.423 E19.26689
G1 X84.764 Y90.023 E19.312
G1 X84.764 Y92.999 E19.44627
G1 X85.364 Y93.499 E19.48151
G1 X85.364 Y93.875 E19.49847
G1 X85.114 Y94.125 E19.51442
G1 X84.938 Y94.125 E19.52236
G1 X84.754 Y93.904 E19.53534
G1 X84.754 Y92.999 E19.57617
G1 X84.754 Y90.025 E19.57949
G1 X82.364 Y90.025 E19.68732
G1 X82.364 Y92.999 E19.82149
G1 X82.364 Y93.904 E19.86232
G1 X82.18 Y94.125 E19.8753
G1 X82.004 Y94.125 E19.88324
G1 X81.754 Y93.875 E19.89919
G1 X81.754 Y93.499 E19.91615
G1 X82.354 Y92.999 E19.95139
G1 X82.354 Y90.023 E19.9548
G1 X81.554 Y89.423 E19.99992
G1 X81.554 Y89.418 E20.00014
G1 X82.354 Y88.818 E20.04526
G1 X82.354 Y85.841 E20.17957
G1 X81.754 Y85.341 E20.21481
G1 X81.754 Y84.965 E20.23177
G1 X82.004 Y84.715 E20.24772
G1 X82.18 Y84.715 E20.25567
G1 X82.364 Y84.936 E20.26864
G1 X82.364 Y85.841 E20.30947
G1 X82.364 Y88.815 E20.31277
G0 F3000 X82.759 Y88.42
;TYPE:WALL-OUTER
G1 F1500 X84.359 Y88.42 E20.38495
G1 X84.359 Y84.793 E20.54859
G1 X84.753 Y84.32 E20.57637
G1 X85.277 Y84.32 E20.60001
G1 X85.759 Y84.802 E20.63076
G1 X85.759 Y85.526 E20.66343
G1 X85.159 Y86.026 E20.69866
G1 X85.159 Y88.62 E20.8157
G1 X85.959 Y89.22 E20.86081
G1 X85.959 Y89.62 E20.87886
G1 X85.159 Y90.22 E20.92398
G1 X85.159 Y92.814 E21.04101
G1 X85.759 Y93.314 E21.07625
G1 X85.759 Y94.038 E21.10891
G1 X85.277 Y94.52 E21.13966
G1 X84.753 Y94.52 E21.1633
G1 X84.359 Y94.047 E21.19108
G1 X84.359 Y90.42 E21.35472
G1 X82.759 Y90.42 E21.4269
G1 X82.759 Y94.047 E21.59054
G1 X82.365 Y94.52 E21.61832
G1 X81.841 Y94.52 E21.64196
G1 X81.359 Y94.038 E21.67271
G1 X81.359 Y93.314 E21.70538
G1 X81.959 Y92.814 E21.74061
G1 X81.959 Y90.22 E21.85765
G1 X81.159 Y89.62 E21.90276
G1 X81.159 Y89.22 E21.92081
G1 X81.959 Y88.62 E21.96593
G1 X81.959 Y86.026 E22.08296
G1 X81.359 Y85.526 E22.1182
G1 X81.359 Y84.802 E22.15086
G1 X81.841 Y84.32 E22.18161
G1 X82.365 Y84.32 E22.20526
G1 X82.759 Y84.793 E22.23303
G1 X82.759 Y88.42 E22.39667
G0 F3000 X82.959 Y88.42
G0 X82.959 Y88.86
G1 F2400 E21.19667
;MESH:clip-mini_clip.stl
G0 F3000 X88.931 Y83.305
;TYPE:WALL-INNER
G1 F2400 E22.39667
G1 F1500 X88.658 Y83.101 E22.41204
G1 X88.932 Y82.895 E22.42022
G1 X91.068 Y82.895 E22.51659
G1 X91.342 Y83.101 E22.53206
G1 X91.069 Y83.305 E22.54014
G1 X88.931 Y83.305 E22.61932
G1 F2400 E21.41932
G0 F3000 X88.795 Y86.679
G1 F2400 E22.61932
G1 F1500 X88.795 Y83.703 E22.75359
G1 X87.995 Y83.103 E22.7987
G1 X87.995 Y83.098 E22.79893
G1 X88.795 Y82.498 E22.84404
G1 X88.795 Y79.521 E22.97836
G1 X88.195 Y79.021 E23.01359
G1 X88.195 Y78.645 E23.03056
G1 X88.445 Y78.395 E23.04651
G1 X88.621 Y78.395 E23.05445
G1 X88.805 Y78.616 E23.06742
G1 X88.805 Y79.521 E23.10825
G1 X88.805 Y82.495 E23.11155
G1 X91.195 Y82.495 E23.21938
G1 X91.195 Y79.521 E23.35356
G1 X91.195 Y78.616 E23.39439
G1 X91.379 Y78.395 E23.40736
G1 X91.555 Y78.395 E23.4153
G1 X91.805 Y78.645 E23.43125
G1 X91.805 Y79.021 E23.44822
