;FLAVOR:Marlin
;TIME:9939
;Filament used: 16.5728m
;Layer height: 0.3
;MINX:26
;MINY:26
;MINZ:0.3
;MAXX:154
;MAXY:154
;MAXZ:9.9
;Generated with Cura_SteamEngine 4.12.1
M82 ;absolute extrusion mode
G21 ;metric values
G90 ;absolute positioning
M82 ;set extruder to absolute mode
M107 ;start with the fan off

M104 S200 T0 ; start heating T0 to what is set in Cura
M140 S60 ; start heating the bed to what is set in Cura
M190 S60 ; start heating the bed to what is set in Cura
M109 S200 T0 ; start heating T0 to what is set in Cura

G28 X0 Y0 ;move X/Y to min endstops
G28 Z0 ;move Z to min endstops
G1 Z15.0 F2400 ;move the platform down 15mm
G92 E0 ;zero the extruded length
G1 F200 E3 ;extrude 3mm of feed stock
G92 E0 ;zero the extruded length again
G1 F2400
G0 Y20 F2400
M117 Printing...
G5
G92 E0
G92 E0
G1 F2400 E-1.2
;LAYER_COUNT:33
;LAYER:0
M107
G0 F3000 X27.004 Y27.369 Z0.3
;TYPE:SKIRT
G1 F2400 E0
G1 F1500 X27.406 Y26.972 E0.02549
G1 X27.86 Y26.635 E0.051
G1 X28.357 Y26.366 E0.0765
G1 X28.887 Y26.169 E0.10201
G1 X29.44 Y26.05 E0.12753
G1 X30.218 Y26.002 E0.16269
G1 X30.33 Y26 E0.16775
G1 X149.35 Y26 E5.53754
G1 X150.048 Y26.01 E5.56903
G1 X150.612 Y26.058 E5.59457
G1 X151.162 Y26.185 E5.62004
G1 X151.69 Y26.389 E5.64558
G1 X152.184 Y26.664 E5.67109
G1 X152.633 Y27.007 E5.69658
G1 X153.03 Y27.409 E5.72207
G1 X153.367 Y27.864 E5.74761
G1 X153.635 Y28.361 E5.77309
G1 X153.831 Y28.891 E5.79858
G1 X153.951 Y29.444 E5.82411
G1 X153.998 Y30.218 E5.8591
G1 X154 Y30.33 E5.86415
G1 X154 Y149.314 E11.23232
G1 X153.991 Y150.041 E11.26512
G1 X153.944 Y150.604 E11.29061
G1 X153.818 Y151.155 E11.31611
G1 X153.616 Y151.683 E11.34162
G1 X153.341 Y152.177 E11.36712
G1 X152.999 Y152.627 E11.39262
G1 X152.597 Y153.025 E11.41815
G1 X152.144 Y153.362 E11.44362
G1 X151.647 Y153.632 E11.46914
G1 X151.117 Y153.829 E11.49465
G1 X150.565 Y153.95 E11.52014
G1 X149.782 Y153.998 E11.55554
G1 X149.67 Y154 E11.56059
G1 X30.655 Y154 E16.93016
G1 X29.957 Y153.991 E16.96165
G1 X29.394 Y153.943 E16.98714
G1 X28.843 Y153.817 E17.01264
G1 X28.315 Y153.615 E17.03815
G1 X27.821 Y153.34 E17.06366
G1 X27.371 Y152.998 E17.08916
G1 X26.973 Y152.596 E17.11468
G1 X26.637 Y152.142 E17.14016
G1 X26.367 Y151.645 E17.16568
G1 X26.17 Y151.115 E17.19119
G1 X26.05 Y150.563 E17.21668
G1 X26.001 Y149.766 E17.2527
G1 X26 Y30.62 E22.62818
G1 X26.009 Y29.955 E22.65818
G1 X26.057 Y29.392 E22.68368
G1 X26.183 Y28.841 E22.70918
G1 X26.386 Y28.313 E22.7347
G1 X26.662 Y27.819 E22.76023
G1 X27.004 Y27.369 E22.78573
G0 F3000 X27.397 Y27.531
G1 F1500 X27.794 Y27.171 E22.80991
G1 X28.241 Y26.873 E22.83415
G1 X28.726 Y26.645 E22.85833
G1 X29.24 Y26.492 E22.88252
G1 X29.908 Y26.41 E22.91289
G1 X30.33 Y26.4 E22.93193
G1 X149.345 Y26.4 E28.3015
G1 X150.043 Y26.41 E28.33299
G1 X150.577 Y26.458 E28.35718
G1 X151.098 Y26.584 E28.38136
G1 X151.595 Y26.787 E28.40558
G1 X152.056 Y27.061 E28.42978
G1 X152.471 Y27.4 E28.45396
G1 X152.831 Y27.798 E28.47817
G1 X153.128 Y28.244 E28.50234
G1 X153.356 Y28.73 E28.52656
G1 X153.508 Y29.244 E28.55075
G1 X153.59 Y29.909 E28.58098
G1 X153.6 Y30.33 E28.59997
G1 X153.6 Y149.309 E33.96792
G1 X153.591 Y150.036 E34.00072
G1 X153.544 Y150.57 E34.0249
G1 X153.419 Y151.091 E34.04908
G1 X153.217 Y151.588 E34.07328
G1 X152.944 Y152.05 E34.09749
G1 X152.606 Y152.466 E34.12167
G1 X152.209 Y152.827 E34.14588
G1 X151.763 Y153.125 E34.17008
G1 X151.278 Y153.353 E34.19426
G1 X150.764 Y153.507 E34.21847
G1 X150.092 Y153.59 E34.24902
G1 X149.67 Y153.6 E34.26806
G1 X30.661 Y153.6 E39.63736
G1 X29.963 Y153.591 E39.66885
G1 X29.428 Y153.544 E39.69308
G1 X28.907 Y153.418 E39.71727
G1 X28.41 Y153.216 E39.74147
G1 X27.949 Y152.943 E39.76564
G1 X27.533 Y152.604 E39.78985
G1 X27.172 Y152.208 E39.81403
G1 X26.874 Y151.762 E39.83823
G1 X26.646 Y151.276 E39.86245
G1 X26.493 Y150.762 E39.88665
G1 X26.41 Y150.088 E39.91728
G1 X26.4 Y149.658 E39.93669
G1 X26.4 Y30.625 E45.30707
G1 X26.409 Y29.96 E45.33707
G1 X26.457 Y29.426 E45.36126
G1 X26.583 Y28.905 E45.38545
G1 X26.785 Y28.408 E45.40965
G1 X27.058 Y27.947 E45.43382
G1 X27.397 Y27.531 E45.45803
G0 F3000 X27.454 Y28.082
G1 F1500 X27.789 Y27.704 E45.48082
G1 X28.18 Y27.383 E45.50364
G1 X28.617 Y27.128 E45.52647
G1 X29.088 Y26.944 E45.54929
G1 X29.582 Y26.838 E45.57208
G1 X30.24 Y26.801 E45.60181
G1 X149.339 Y26.8 E50.97517
G1 X150.037 Y26.81 E51.00666
G1 X150.54 Y26.857 E51.02946
G1 X151.03 Y26.983 E51.05228
G1 X151.494 Y27.185 E51.07512
G1 X151.92 Y27.457 E51.09792
G1 X152.298 Y27.792 E51.12071
G1 X152.618 Y28.183 E51.1435
G1 X152.873 Y28.62 E51.16633
G1 X153.056 Y29.091 E51.18913
G1 X153.163 Y29.585 E51.21193
G1 X153.199 Y30.24 E51.24153
G1 X153.2 Y149.304 E56.6133
G1 X153.191 Y150.031 E56.6461
G1 X153.145 Y150.534 E56.66889
G1 X153.02 Y151.024 E56.69171
G1 X152.819 Y151.488 E56.71452
G1 X152.548 Y151.915 E56.73734
G1 X152.213 Y152.294 E56.76016
G1 X151.823 Y152.615 E56.78295
G1 X151.387 Y152.871 E56.80576
G1 X150.916 Y153.054 E56.82856
G1 X150.422 Y153.162 E56.85137
G1 X149.76 Y153.199 E56.88129
G1 X30.666 Y153.2 E62.25442
G1 X29.968 Y153.191 E62.28591
G1 X29.464 Y153.144 E62.30875
G1 X28.974 Y153.019 E62.33156
G1 X28.51 Y152.818 E62.35438
G1 X28.084 Y152.547 E62.37716
G1 X27.705 Y152.212 E62.39998
G1 X27.384 Y151.821 E62.4228
G1 X27.129 Y151.385 E62.44559
G1 X26.945 Y150.914 E62.4684
G1 X26.838 Y150.42 E62.49121
G1 X26.801 Y149.744 E62.52175
G1 X26.8 Y30.631 E67.89574
G1 X26.809 Y29.966 E67.92574
G1 X26.856 Y29.462 E67.94858
G1 X26.982 Y28.973 E67.97136
G1 X27.183 Y28.509 E67.99418
G1 X27.454 Y28.082 E68.017
G1 F2400 E66.817
;MESH:clip_grid_2cm_r2.stl
G0 F3000 X35.6 Y36.851
;TYPE:WALL-INNER
G1 F2400 E68.017
G1 F1500 X35.6 Y43.149 E68.30114
G1 X36.851 Y44.4 E68.38096
G1 X43.149 Y44.4 E68.66511
G1 X44.4 Y43.149 E68.74492
G1 X44.4 Y36.851 E69.02907
G1 X43.149 Y35.6 E69.10889
G1 X36.851 Y35.6 E69.39303
G1 X35.6 Y36.851 E69.47285
G0 F3000 X36 Y37.017
;TYPE:WALL-OUTER
G1 F1500 X36 Y42.983 E69.74202
G1 X37.017 Y44 E69.80691
G1 X42.983 Y44 E70.07608
G1 X44 Y42.983 E70.14097
G1 X44 Y37.017 E70.41013
G1 X42.983 Y36 E70.47502
G1 X37.017 Y36 E70.74419
G1 X36 Y37.017 E70.80908
G0 F3000 X36 Y37.217
G0 X35.56 Y37.217
G1 F2400 E69.60908
G0 F3000 X44.9 Y46.751
;TYPE:WALL-INNER
G1 F2400 E70.80908
G1 F1500 X44.9 Y48.749 E70.89922
G1 X45.9 Y49.748 E70.96299
G1 X45.9 Y50.252 E70.98573
G1 X44.9 Y51.251 E71.0495
G1 X44.9 Y53.249 E71.13965
G1 X46.751 Y55.1 E71.25775
G1 X48.749 Y55.1 E71.34789
G1 X49.748 Y54.1 E71.41167
G1 X50.252 Y54.1 E71.4344
G1 X51.251 Y55.1 E71.49818
G1 X53.249 Y55.1 E71.58832
G1 X55.1 Y53.249 E71.70642
G1 X55.1 Y51.251 E71.79657
G1 X54.1 Y50.252 E71.86034
G1 X54.1 Y49.748 E71.88308
G1 X55.1 Y48.749 E71.94685
G1 X55.1 Y46.751 E72.03699
G1 X53.249 Y44.9 E72.1551
G1 X51.251 Y44.9 E72.24524
G1 X50.252 Y45.9 E72.30901
G1 X49.748 Y45.9 E72.33175
G1 X48.749 Y44.9 E72.39552
G1 X46.751 Y44.9 E72.48567
G1 X44.9 Y46.751 E72.60377
G0 F3000 X45.3 Y46.917
;TYPE:WALL-OUTER
G1 F1500 X45.3 Y48.583 E72.67893
G1 X46.3 Y49.582 E72.74271
G1 X46.3 Y50.418 E72.78042
G1 X45.3 Y51.417 E72.8442
G1 X45.3 Y53.083 E72.91936
G1 X46.917 Y54.7 E73.02253
G1 X48.583 Y54.7 E73.0977
G1 X49.582 Y53.7 E73.16147
G1 X50.418 Y53.7 E73.19919
G1 X51.417 Y54.7 E73.26296
G1 X53.083 Y54.7 E73.33813
G1 X54.7 Y53.083 E73.4413
G1 X54.7 Y51.417 E73.51646
G1 X53.7 Y50.418 E73.58023
G1 X53.7 Y49.582 E73.61795
G1 X54.7 Y48.583 E73.68172
G1 X54.7 Y46.917 E73.75689
G1 X53.083 Y45.3 E73.86006
G1 X51.417 Y45.3 E73.93523
G1 X50.418 Y46.3 E73.999
G1 X49.582 Y46.3 E74.03672
G1 X48.583 Y45.3 E74.10049
G1 X46.917 Y45.3 E74.17565
G1 X45.3 Y46.917 E74.27883
G0 F3000 X45.3 Y47.117
G0 X44.86 Y47.117
G1 F2400 E73.07883
G0 F3000 X36.851 Y55.6
;TYPE:WALL-INNER
G1 F2400 E74.27883
G1 F1500 X35.6 Y56.851 E74.35865
G1 X35.6 Y63.149 E74.64279
G1 X36.851 Y64.4 E74.72261
G1 X43.149 Y64.4 E75.00675
G1 X44.4 Y63.149 E75.08657
G1 X44.4 Y56.851 E75.37072
G1 X43.149 Y55.6 E75.45054
G1 X36.851 Y55.6 E75.73468
G0 F3000 X37.017 Y56
;TYPE:WALL-OUTER
G1 F1500 X36 Y57.017 E75.79957
G1 X36 Y62.983 E76.06874
G1 X37.017 Y64 E76.13363
G1 X42.983 Y64 E76.4028
G1 X44 Y62.983 E76.46768
G1 X44 Y57.017 E76.73685
G1 X42.983 Y56 E76.80174
G1 X37.017 Y56 E77.07091
G0 F3000 X36.876 Y56.141
G0 X36.565 Y55.83
G1 F2400 E75.87091
G0 F3000 X46.751 Y64.9
;TYPE:WALL-INNER
G1 F2400 E77.07091
G1 F1500 X44.9 Y66.751 E77.18901
G1 X44.9 Y68.749 E77.27915
G1 X45.9 Y69.748 E77.34292
G1 X45.9 Y70.252 E77.36566
G1 X44.9 Y71.251 E77.42944
G1 X44.9 Y73.249 E77.51958
G1 X46.751 Y75.1 E77.63768
G1 X48.749 Y75.1 E77.72783
G1 X49.748 Y74.1 E77.7916
G1 X50.252 Y74.1 E77.81434
G1 X51.251 Y75.1 E77.87811
G1 X53.249 Y75.1 E77.96825
G1 X55.1 Y73.249 E78.08636
G1 X55.1 Y71.251 E78.1765
G1 X54.1 Y70.252 E78.24027
G1 X54.1 Y69.748 E78.26301
G1 X55.1 Y68.749 E78.32678
G1 X55.1 Y66.751 E78.41693
G1 X53.249 Y64.9 E78.53503
G1 X51.251 Y64.9 E78.62517
G1 X50.252 Y65.9 E78.68894
G1 X49.748 Y65.9 E78.71168
G1 X48.749 Y64.9 E78.77546
G1 X46.751 Y64.9 E78.8656
G0 F3000 X46.917 Y65.3
;TYPE:WALL-OUTER
G1 F1500 X45.3 Y66.917 E78.96877
G1 X45.3 Y68.583 E79.04394
G1 X46.3 Y69.582 E79.10771
G1 X46.3 Y70.418 E79.14543
G1 X45.3 Y71.417 E79.2092
G1 X45.3 Y73.083 E79.28436
G1 X46.917 Y74.7 E79.38754
G1 X48.583 Y74.7 E79.4627
G1 X49.582 Y73.7 E79.52647
G1 X50.418 Y73.7 E79.56419
G1 X51.417 Y74.7 E79.62796
G1 X53.083 Y74.7 E79.70313
G1 X54.7 Y73.083 E79.8063
G1 X54.7 Y71.417 E79.88146
G1 X53.7 Y70.418 E79.94524
G1 X53.7 Y69.582 E79.98295
G1 X54.7 Y68.583 E80.04673
G1 X54.7 Y66.917 E80.12189
G1 X53.083 Y65.3 E80.22506
G1 X51.417 Y65.3 E80.30023
G1 X50.418 Y66.3 E80.364
G1 X49.582 Y66.3 E80.40172
G1 X48.583 Y65.3 E80.46549
G1 X46.917 Y65.3 E80.54066
G0 F3000 X46.776 Y65.441
G0 X46.465 Y65.13
G1 F2400 E79.34066
G0 F3000 X55.6 Y56.851
;TYPE:WALL-INNER
G1 F2400 E80.54066
G1 F1500 X55.6 Y63.149 E80.8248
G1 X56.851 Y64.4 E80.90462
G1 X63.149 Y64.4 E81.18877
G1 X64.4 Y63.149 E81.26858
G1 X64.4 Y56.851 E81.55273
G1 X63.149 Y55.6 E81.63255
G1 X56.851 Y55.6 E81.91669
G1 X55.6 Y56.851 E81.99651
G0 F3000 X56 Y57.017
;TYPE:WALL-OUTER
G1 F1500 X56 Y62.983 E82.26568
G1 X57.017 Y64 E82.33057
G1 X62.983 Y64 E82.59974
G1 X64 Y62.983 E82.66463
G1 X64 Y57.017 E82.93379
G1 X62.983 Y56 E82.99868
G1 X57.017 Y56 E83.26785
G1 X56 Y57.017 E83.33274
G0 F3000 X56 Y57.217
G0 X55.56 Y57.217
G1 F2400 E82.13274
G0 F3000 X64.9 Y66.751
;TYPE:WALL-INNER
G1 F2400 E83.33274
G1 F1500 X64.9 Y68.749 E83.42288
G1 X65.9 Y69.748 E83.48665
G1 X65.9 Y70.252 E83.50939
G1 X64.9 Y71.251 E83.57316
G1 X64.9 Y73.249 E83.66331
G1 X66.751 Y75.1 E83.78141
G1 X68.749 Y75.1 E83.87155
G1 X69.748 Y74.1 E83.93533
G1 X70.252 Y74.1 E83.95806
G1 X71.251 Y75.1 E84.02184
G1 X73.249 Y75.1 E84.11198
G1 X75.1 Y73.249 E84.23008
G1 X75.1 Y71.251 E84.32023
G1 X74.1 Y70.252 E84.384
G1 X74.1 Y69.748 E84.40674
G1 X75.1 Y68.749 E84.47051
G1 X75.1 Y66.751 E84.56065
G1 X73.249 Y64.9 E84.67876
G1 X71.251 Y64.9 E84.7689
G1 X70.252 Y65.9 E84.83267
G1 X69.748 Y65.9 E84.85541
G1 X68.749 Y64.9 E84.91918
G1 X66.751 Y64.9 E85.00933
G1 X64.9 Y66.751 E85.12743
G0 F3000 X65.3 Y66.917
;TYPE:WALL-OUTER
G1 F1500 X65.3 Y68.583 E85.20259
G1 X66.3 Y69.582 E85.26637
G1 X66.3 Y70.418 E85.30408
G1 X65.3 Y71.417 E85.36786
G1 X65.3 Y73.083 E85.44302
G1 X66.917 Y74.7 E85.54619
G1 X68.583 Y74.7 E85.62136
G1 X69.582 Y73.7 E85.68513
G1 X70.418 Y73.7 E85.72285
G1 X71.417 Y74.7 E85.78662
G1 X73.083 Y74.7 E85.86179
G1 X74.7 Y73.083 E85.96496
G1 X74.7 Y71.417 E86.04012
G1 X73.7 Y70.418 E86.10389
G1 X73.7 Y69.582 E86.14161
G1 X74.7 Y68.583 E86.20538
G1 X74.7 Y66.917 E86.28055
G1 X73.083 Y65.3 E86.38372
G1 X71.417 Y65.3 E86.45889
G1 X70.418 Y66.3 E86.52266
G1 X69.582 Y66.3 E86.56038
G1 X68.583 Y65.3 E86.62415
G1 X66.917 Y65.3 E86.69931
G1 X65.3 Y66.917 E86.80249
G0 F3000 X65.3 Y67.117
G0 X64.86 Y67.117
G1 F2400 E85.60249
G0 F3000 X56.851 Y75.6
;TYPE:WALL-INNER
G1 F2400 E86.80249
G1 F1500 X55.6 Y76.851 E86.88231
G1 X55.6 Y83.149 E87.16645
G1 X56.851 Y84.4 E87.24627
G1 X63.149 Y84.4 E87.53041
G1 X64.4 Y83.149 E87.61023
G1 X64.4 Y76.851 E87.89438
G1 X63.149 Y75.6 E87.9742
G1 X56.851 Y75.6 E88.25834
G0 F3000 X57.017 Y76
;TYPE:WALL-OUTER
G1 F1500 X56 Y77.017 E88.32323
G1 X56 Y82.983 E88.5924
G1 X57.017 Y84 E88.65729
G1 X62.983 Y84 E88.92646
G1 X64 Y82.983 E88.99134
G1 X64 Y77.017 E89.26051
G1 X62.983 Y76 E89.3254
G1 X57.017 Y76 E89.59457
G0 F3000 X56.876 Y76.141
G0 X56.565 Y75.83
G1 F2400 E88.39457
G0 F3000 X66.751 Y84.9
;TYPE:WALL-INNER
G1 F2400 E89.59457
G1 F1500 X64.9 Y86.751 E89.71267
G1 X64.9 Y88.749 E89.80281
G1 X65.9 Y89.748 E89.86659
G1 X65.9 Y90.252 E89.88932
G1 X64.9 Y91.251 E89.9531
G1 X64.9 Y93.249 E90.04324
G1 X66.751 Y95.1 E90.16134
G1 X68.749 Y95.1 E90.25149
G1 X69.748 Y94.1 E90.31526
G1 X70.252 Y94.1 E90.338
G1 X71.251 Y95.1 E90.40177
G1 X73.249 Y95.1 E90.49191
G1 X75.1 Y93.249 E90.61002
G1 X75.1 Y91.251 E90.70016
G1 X74.1 Y90.252 E90.76393
G1 X74.1 Y89.748 E90.78667
G1 X75.1 Y88.749 E90.85044
G1 X75.1 Y86.751 E90.94059
G1 X73.249 Y84.9 E91.05869
G1 X71.251 Y84.9 E91.14883
G1 X70.252 Y85.9 E91.2126
G1 X69.748 Y85.9 E91.23534
G1 X68.749 Y84.9 E91.29912
G1 X66.751 Y84.9 E91.38926
G0 F3000 X66.917 Y85.3
;TYPE:WALL-OUTER
G1 F1500 X65.3 Y86.917 E91.49243
G1 X65.3 Y88.583 E91.5676
G1 X66.3 Y89.582 E91.63137
G1 X66.3 Y90.418 E91.66909
G1 X65.3 Y91.417 E91.73286
G1 X65.3 Y93.083 E91.80802
G1 X66.917 Y94.7 E91.9112
G1 X68.583 Y94.7 E91.98636
G1 X69.582 Y93.7 E92.05013
G1 X70.418 Y93.7 E92.08785
G1 X71.417 Y94.7 E92.15162
G1 X73.083 Y94.7 E92.22679
G1 X74.7 Y93.083 E92.32996
G1 X74.7 Y91.417 E92.40512
G1 X73.7 Y90.418 E92.4689
G1 X73.7 Y89.582 E92.50661
G1 X74.7 Y88.583 E92.57039
G1 X74.7 Y86.917 E92.64555
G1 X73.083 Y85.3 E92.74872
G1 X71.417 Y85.3 E92.82389
G1 X70.418 Y86.3 E92.88766
G1 X69.582 Y86.3 E92.92538
G1 X68.583 Y85.3 E92.98915
G1 X66.917 Y85.3 E93.06432
G0 F3000 X66.776 Y85.441
G0 X66.465 Y85.13
G1 F2400 E91.86432
G0 F3000 X75.6 Y76.851
;TYPE:WALL-INNER
G1 F2400 E93.06432
G1 F1500 X75.6 Y83.149 E93.34846
G1 X76.851 Y84.4 E93.42828
G1 X83.149 Y84.4 E93.71243
G1 X84.4 Y83.149 E93.79225
G1 X84.4 Y76.851 E94.07639
G1 X83.149 Y75.6 E94.15621
G1 X76.851 Y75.6 E94.44035
G1 X75.6 Y76.851 E94.52017
G0 F3000 X76 Y77.017
;TYPE:WALL-OUTER
G1 F1500 X76 Y82.983 E94.78934
G1 X77.017 Y84 E94.85423
G1 X82.983 Y84 E95.1234
G1 X84 Y82.983 E95.18829
G1 X84 Y77.017 E95.45745
G1 X82.983 Y76 E95.52234
G1 X77.017 Y76 E95.79151
G1 X76 Y77.017 E95.8564
G0 F3000 X76 Y77.217
G0 X75.56 Y77.217
G1 F2400 E94.6564
G0 F3000 X84.9 Y86.751
;TYPE:WALL-INNER
G1 F2400 E95.8564
G1 F1500 X84.9 Y88.749 E95.94654
G1 X85.9 Y89.748 E96.01031
G1 X85.9 Y90.252 E96.03305
G1 X84.9 Y91.251 E96.09682
G1 X84.9 Y93.249 E96.18697
G1 X86.751 Y95.1 E96.30507
G1 X88.749 Y95.1 E96.39521
G1 X89.748 Y94.1 E96.45899
G1 X90.252 Y94.1 E96.48172
G1 X91.251 Y95.1 E96.5455
G1 X93.249 Y95.1 E96.63564
G1 X95.1 Y93.249 E96.75374
G1 X95.1 Y91.251 E96.84389
G1 X94.1 Y90.252 E96.90766
G1 X94.1 Y89.748 E96.9304
G1 X95.1 Y88.749 E96.99417
G1 X95.1 Y86.751 E97.08431
G1 X93.249 Y84.9 E97.20242
G1 X91.251 Y84.9 E97.29256
G1 X90.252 Y85.9 E97.35633
G1 X89.748 Y85.9 E97.37907
G1 X88.749 Y84.9 E97.44284
G1 X86.751 Y84.9 E97.53299
G1 X84.9 Y86.751 E97.65109
G0 F3000 X85.3 Y86.917
;TYPE:WALL-OUTER
G1 F1500 X85.3 Y88.583 E97.72625
G1 X86.3 Y89.582 E97.79003
G1 X86.3 Y90.418 E97.82774
G1 X85.3 Y91.417 E97.89152
G1 X85.3 Y93.083 E97.96668
G1 X86.917 Y94.7 E98.06985
G1 X88.583 Y94.7 E98.14502
G1 X89.582 Y93.7 E98.20879
G1 X90.418 Y93.7 E98.24651
G1 X91.417 Y94.7 E98.31028
G1 X93.083 Y94.7 E98.38545
G1 X94.7 Y93.083 E98.48862
G1 X94.7 Y91.417 E98.56378
G1 X93.7 Y90.418 E98.62755
G1 X93.7 Y89.582 E98.66527
G1 X94.7 Y88.583 E98.72905
G1 X94.7 Y86.917 E98.80421
G1 X93.083 Y85.3 E98.90738
G1 X91.417 Y85.3 E98.98255
G1 X90.418 Y86.3 E99.04632
G1 X89.582 Y86.3 E99.08404
G1 X88.583 Y85.3 E99.14781
G1 X86.917 Y85.3 E99.22297
G1 X85.3 Y86.917 E99.32615
G0 F3000 X85.3 Y87.117
G0 X84.86 Y87.117
G1 F2400 E98.12615
G0 F3000 X76.851 Y95.6
;TYPE:WALL-INNER
G1 F2400 E99.32615
G1 F1500 X75.6 Y96.851 E99.40597
G1 X75.6 Y103.149 E99.69011
G1 X76.851 Y104.4 E99.76993
G1 X83.149 Y104.4 E100.05408
G1 X84.4 Y103.149 E100.13389
G1 X84.4 Y96.851 E100.41804
