;FLAVOR:Marlin
;TIME:7406
;Filament used: 12.392m
;Layer height: 0.3
;MINX:26
;MINY:26
;MINZ:0.3
;MAXX:154
;MAXY:154
;MAXZ:9.9
;Generated with Cura_SteamEngine 4.12.1
M82 ;absolute extrusion mode
G21 ;metric values
G90 ;absolute positioning
M82 ;set extruder to absolute mode
M107 ;start with the fan off

M104 S200 T0 ; start heating T0 to what is set in Cura
M140 S60 ; start heating the bed to what is set in Cura
M190 S60 ; start heating the bed to what is set in Cura
M109 S200 T0 ; start heating T0 to what is set in Cura

G28 X0 Y0 ;move X/Y to min endstops
G28 Z0 ;move Z to min endstops
G1 Z15.0 F2400 ;move the platform down 15mm
G92 E0 ;zero the extruded length
G1 F200 E3 ;extrude 3mm of feed stock
G92 E0 ;zero the extruded length again
G1 F2400
G0 Y20 F2400
M117 Printing...
G5
G92 E0
G92 E0
G1 F2400 E-1.2
;LAYER_COUNT:33
;LAYER:0
M107
G0 F3000 X27.004 Y27.369 Z0.3
;TYPE:SKIRT
G1 F2400 E0
G1 F1500 X27.406 Y26.972 E0.02549
G1 X27.86 Y26.635 E0.051
G1 X28.357 Y26.366 E0.0765
G1 X28.887 Y26.169 E0.10201
G1 X29.44 Y26.05 E0.12753
G1 X30.218 Y26.002 E0.16269
G1 X30.33 Y26 E0.16775
G1 X149.35 Y26 E5.53754
G1 X150.048 Y26.01 E5.56903
G1 X150.612 Y26.058 E5.59457
G1 X151.162 Y26.185 E5.62004
G1 X151.69 Y26.389 E5.64558
G1 X152.184 Y26.664 E5.67109
G1 X152.633 Y27.007 E5.69658
G1 X153.03 Y27.409 E5.72207
G1 X153.367 Y27.864 E5.74761
G1 X153.635 Y28.361 E5.77309
G1 X153.831 Y28.891 E5.79858
G1 X153.951 Y29.444 E5.82411
G1 X153.998 Y30.218 E5.8591
G1 X154 Y30.33 E5.86415
G1 X154 Y149.314 E11.23232
G1 X153.991 Y150.041 E11.26512
G1 X153.944 Y150.604 E11.29061
G1 X153.818 Y151.155 E11.31611
G1 X153.616 Y151.683 E11.34162
G1 X153.341 Y152.177 E11.36712
G1 X152.999 Y152.627 E11.39262
G1 X152.597 Y153.025 E11.41815
G1 X152.144 Y153.362 E11.44362
G1 X151.647 Y153.632 E11.46914
G1 X151.117 Y153.829 E11.49465
G1 X150.565 Y153.95 E11.52014
G1 X149.782 Y153.998 E11.55554
G1 X149.67 Y154 E11.56059
G1 X30.655 Y154 E16.93016
G1 X29.957 Y153.991 E16.96165
G1 X29.394 Y153.943 E16.98714
G1 X28.843 Y153.817 E17.01264
G1 X28.315 Y153.615 E17.03815
G1 X27.821 Y153.34 E17.06366
G1 X27.371 Y152.998 E17.08916
G1 X26.973 Y152.596 E17.11468
G1 X26.637 Y152.142 E17.14016
G1 X26.367 Y151.645 E17.16568
G1 X26.17 Y151.115 E17.19119
G1 X26.05 Y150.563 E17.21668
G1 X26.001 Y149.766 E17.2527
G1 X26 Y30.62 E22.62818
G1 X26.009 Y29.955 E22.65818
G1 X26.057 Y29.392 E22.68368
G1 X26.183 Y28.841 E22.70918
G1 X26.386 Y28.313 E22.7347
G1 X26.662 Y27.819 E22.76023
G1 X27.004 Y27.369 E22.78573
G0 F3000 X27.397 Y27.531
G1 F1500 X27.794 Y27.171 E22.80991
G1 X28.241 Y26.873 E22.83415
G1 X28.726 Y26.645 E22.85833
G1 X29.24 Y26.492 E22.88252
G1 X29.908 Y26.41 E22.91289
G1 X30.33 Y26.4 E22.93193
G1 X149.345 Y26.4 E28.3015
G1 X150.043 Y26.41 E28.33299
G1 X150.577 Y26.458 E28.35718
G1 X151.098 Y26.584 E28.38136
G1 X151.595 Y26.787 E28.40558
G1 X152.056 Y27.061 E28.42978
G1 X152.471 Y27.4 E28.45396
G1 X152.831 Y27.798 E28.47817
G1 X153.128 Y28.244 E28.50234
G1 X153.356 Y28.73 E28.52656
G1 X153.508 Y29.244 E28.55075
G1 X153.59 Y29.909 E28.58098
G1 X153.6 Y30.33 E28.59997
G1 X153.6 Y149.309 E33.96792
G1 X153.591 Y150.036 E34.00072
G1 X153.544 Y150.57 E34.0249
G1 X153.419 Y151.091 E34.04908
G1 X153.217 Y151.588 E34.07328
G1 X152.944 Y152.05 E34.09749
G1 X152.606 Y152.466 E34.12167
G1 X152.209 Y152.827 E34.14588
G1 X151.763 Y153.125 E34.17008
G1 X151.278 Y153.353 E34.19426
G1 X150.764 Y153.507 E34.21847
G1 X150.092 Y153.59 E34.24902
G1 X149.67 Y153.6 E34.26806
G1 X30.661 Y153.6 E39.63736
G1 X29.963 Y153.591 E39.66885
G1 X29.428 Y153.544 E39.69308
G1 X28.907 Y153.418 E39.71727
G1 X28.41 Y153.216 E39.74147
G1 X27.949 Y152.943 E39.76564
G1 X27.533 Y152.604 E39.78985
G1 X27.172 Y152.208 E39.81403
G1 X26.874 Y151.762 E39.83823
G1 X26.646 Y151.276 E39.86245
G1 X26.493 Y150.762 E39.88665
G1 X26.41 Y150.088 E39.91728
G1 X26.4 Y149.658 E39.93669
G1 X26.4 Y30.625 E45.30707
G1 X26.409 Y29.96 E45.33707
G1 X26.457 Y29.426 E45.36126
G1 X26.583 Y28.905 E45.38545
G1 X26.785 Y28.408 E45.40965
G1 X27.058 Y27.947 E45.43382
G1 X27.397 Y27.531 E45.45803
G0 F3000 X27.454 Y28.082
G1 F1500 X27.789 Y27.704 E45.48082
G1 X28.18 Y27.383 E45.50364
G1 X28.617 Y27.128 E45.52647
G1 X29.088 Y26.944 E45.54929
G1 X29.582 Y26.838 E45.57208
G1 X30.24 Y26.801 E45.60181
G1 X149.339 Y26.8 E50.97517
G1 X150.037 Y26.81 E51.00666
G1 X150.54 Y26.857 E51.02946
G1 X151.03 Y26.983 E51.05228
G1 X151.494 Y27.185 E51.07512
G1 X151.92 Y27.457 E51.09792
G1 X152.298 Y27.792 E51.12071
G1 X152.618 Y28.183 E51.1435
G1 X152.873 Y28.62 E51.16633
G1 X153.056 Y29.091 E51.18913
G1 X153.163 Y29.585 E51.21193
G1 X153.199 Y30.24 E51.24153
G1 X153.2 Y149.304 E56.6133
G1 X153.191 Y150.031 E56.6461
G1 X153.145 Y150.534 E56.66889
G1 X153.02 Y151.024 E56.69171
G1 X152.819 Y151.488 E56.71452
G1 X152.548 Y151.915 E56.73734
G1 X152.213 Y152.294 E56.76016
G1 X151.823 Y152.615 E56.78295
G1 X151.387 Y152.871 E56.80576
G1 X150.916 Y153.054 E56.82856
G1 X150.422 Y153.162 E56.85137
G1 X149.76 Y153.199 E56.88129
G1 X30.666 Y153.2 E62.25442
G1 X29.968 Y153.191 E62.28591
G1 X29.464 Y153.144 E62.30875
G1 X28.974 Y153.019 E62.33156
G1 X28.51 Y152.818 E62.35438
G1 X28.084 Y152.547 E62.37716
G1 X27.705 Y152.212 E62.39998
G1 X27.384 Y151.821 E62.4228
G1 X27.129 Y151.385 E62.44559
G1 X26.945 Y150.914 E62.4684
G1 X26.838 Y150.42 E62.49121
G1 X26.801 Y149.744 E62.52175
G1 X26.8 Y30.631 E67.89574
G1 X26.809 Y29.966 E67.92574
G1 X26.856 Y29.462 E67.94858
G1 X26.982 Y28.973 E67.97136
G1 X27.183 Y28.509 E67.99418
G1 X27.454 Y28.082 E68.017
G1 F2400 E66.817
;MESH:clip_grid_2cm_type_d.stl
G0 F3000 X63.499 Y64.05
;TYPE:WALL-INNER
G1 F2400 E68.017
G1 F1500 X64.05 Y63.499 E68.05215
G1 X64.39 Y63.159 E68.07385
G1 X64.39 Y63.64 E68.08553
G1 X64.39 Y64.39 E68.11937
G1 X63.64 Y64.39 E68.15321
G1 X63.159 Y64.39 E68.17491
G1 X63.499 Y64.05 E68.18657
G1 F2400 E66.98657
G0 F3000 X63.159 Y115.61
G1 F2400 E68.18657
G1 F1500 X63.64 Y115.61 E68.20827
G1 X64.39 Y115.61 E68.24211
G1 X64.39 Y116.36 E68.27594
G1 X64.39 Y116.841 E68.29764
G1 X64.05 Y116.501 E68.3093
G1 X63.499 Y115.95 E68.34446
G1 X63.159 Y115.61 E68.35612
G1 F2400 E67.15612
G0 F3000 X115.61 Y115.61
G1 F2400 E68.35612
G1 F1500 X116.36 Y115.61 E68.38996
G1 X116.841 Y115.61 E68.41166
G1 X116.501 Y115.95 E68.42332
G1 X115.95 Y116.501 E68.45848
G1 X115.61 Y116.841 E68.48017
G1 X115.61 Y116.36 E68.49186
G1 X115.61 Y115.61 E68.52569
G1 F2400 E67.32569
G0 F3000 X115.61 Y63.159
G1 F2400 E68.52569
G1 F1500 X115.95 Y63.499 E68.54739
G1 X116.501 Y64.05 E68.58254
G1 X116.841 Y64.39 E68.60424
G1 X116.36 Y64.39 E68.61592
G1 X115.61 Y64.39 E68.64976
G1 X115.61 Y63.64 E68.6836
G1 X115.61 Y63.159 E68.69528
G1 F2400 E67.49528
G0 F3000 X115.61 Y56.841
G1 F2400 E68.69528
G1 F1500 X115.61 Y56.36 E68.71698
G1 X115.609 Y44.39 E69.25703
G1 X103.64 Y44.39 E69.79703
G1 X103.159 Y44.39 E69.81873
G1 X103.499 Y44.05 E69.83039
G1 X104.4 Y43.149 E69.88788
G1 X104.4 Y36.851 E70.17203
G1 X103.149 Y35.6 E70.25185
G1 X96.851 Y35.6 E70.53599
G1 X95.6 Y36.851 E70.61581
G1 X95.6 Y43.149 E70.89996
G1 X96.501 Y44.05 E70.95744
G1 X96.841 Y44.39 E70.97914
G1 X96.36 Y44.39 E70.99082
G1 X83.639 Y44.391 E71.56475
G1 X83.158 Y44.391 E71.58645
G1 X83.498 Y44.051 E71.59811
G1 X84.4 Y43.149 E71.65567
G1 X84.4 Y36.851 E71.93981
G1 X83.149 Y35.6 E72.01963
G1 X76.851 Y35.6 E72.30378
G1 X75.6 Y36.851 E72.38359
G1 X75.6 Y43.149 E72.66774
G1 X76.502 Y44.051 E72.72529
G1 X76.842 Y44.391 E72.74699
G1 X76.361 Y44.391 E72.75867
G1 X64.39 Y44.391 E73.29876
G1 X64.39 Y56.36 E73.83876
G1 X64.39 Y56.841 E73.86047
G1 X64.05 Y56.501 E73.87213
G1 X63.149 Y55.6 E73.92961
G1 X56.851 Y55.6 E74.21376
G1 X55.6 Y56.851 E74.29358
G1 X55.6 Y63.149 E74.57772
G1 X56.501 Y64.05 E74.63521
G1 X56.841 Y64.39 E74.65691
G1 X56.36 Y64.39 E74.66859
G1 X44.39 Y64.391 E75.20864
G1 X44.39 Y76.36 E75.74864
G1 X44.39 Y76.841 E75.77034
G1 X44.05 Y76.501 E75.782
G1 X43.149 Y75.6 E75.83949
G1 X36.851 Y75.6 E76.12363
G1 X35.6 Y76.851 E76.20345
G1 X35.6 Y83.149 E76.4876
G1 X36.851 Y84.4 E76.56742
G1 X43.149 Y84.4 E76.85156
G1 X44.05 Y83.499 E76.90905
G1 X44.39 Y83.159 E76.93074
G1 X44.39 Y83.64 E76.94243
G1 X44.391 Y96.361 E77.51636
G1 X44.391 Y96.842 E77.53806
G1 X44.051 Y96.502 E77.54972
G1 X43.149 Y95.6 E77.60727
G1 X36.851 Y95.6 E77.89142
G1 X35.6 Y96.851 E77.97124
G1 X35.6 Y103.149 E78.25538
G1 X36.851 Y104.4 E78.3352
G1 X43.149 Y104.4 E78.61935
G1 X44.051 Y103.498 E78.6769
G1 X44.391 Y103.158 E78.69859
G1 X44.391 Y103.639 E78.71028
G1 X44.391 Y115.61 E79.25037
G1 X56.36 Y115.61 E79.79037
G1 X56.841 Y115.61 E79.81207
G1 X56.501 Y115.95 E79.82373
G1 X55.6 Y116.851 E79.88122
G1 X55.6 Y123.149 E80.16537
G1 X56.851 Y124.4 E80.24519
G1 X63.149 Y124.4 E80.52933
G1 X64.05 Y123.499 E80.58682
G1 X64.39 Y123.159 E80.60851
G1 X64.39 Y123.64 E80.6202
G1 X64.391 Y135.61 E81.16024
G1 X76.36 Y135.61 E81.70025
G1 X76.841 Y135.61 E81.72195
G1 X76.501 Y135.95 E81.73361
G1 X75.6 Y136.851 E81.7911
G1 X75.6 Y143.149 E82.07524
G1 X76.851 Y144.4 E82.15506
G1 X83.149 Y144.4 E82.43921
G1 X84.4 Y143.149 E82.51903
G1 X84.4 Y136.851 E82.80317
G1 X83.499 Y135.95 E82.86066
G1 X83.159 Y135.61 E82.88235
G1 X83.64 Y135.61 E82.89404
G1 X96.361 Y135.609 E83.46797
G1 X96.842 Y135.609 E83.48967
G1 X96.502 Y135.949 E83.50133
G1 X95.6 Y136.851 E83.55888
G1 X95.6 Y143.149 E83.84303
G1 X96.851 Y144.4 E83.92284
G1 X103.149 Y144.4 E84.20699
G1 X104.4 Y143.149 E84.28681
G1 X104.4 Y136.851 E84.57095
G1 X103.498 Y135.949 E84.62851
G1 X103.158 Y135.609 E84.6502
G1 X103.639 Y135.609 E84.66188
G1 X115.61 Y135.609 E85.20198
G1 X115.61 Y123.64 E85.74198
G1 X115.61 Y123.159 E85.76368
G1 X115.95 Y123.499 E85.77534
G1 X116.851 Y124.4 E85.83283
G1 X123.149 Y124.4 E86.11697
G1 X124.4 Y123.149 E86.19679
G1 X124.4 Y116.851 E86.48094
G1 X123.499 Y115.95 E86.53843
G1 X123.159 Y115.61 E86.56012
G1 X123.64 Y115.61 E86.5718
G1 X135.61 Y115.609 E87.11185
G1 X135.61 Y103.64 E87.65185
G1 X135.61 Y103.159 E87.67355
G1 X135.95 Y103.499 E87.68522
G1 X136.851 Y104.4 E87.7427
G1 X143.149 Y104.4 E88.02685
G1 X144.4 Y103.149 E88.10667
G1 X144.4 Y96.851 E88.39081
G1 X143.149 Y95.6 E88.47063
G1 X136.851 Y95.6 E88.75478
G1 X135.95 Y96.501 E88.81227
G1 X135.61 Y96.841 E88.83396
G1 X135.61 Y96.36 E88.84564
G1 X135.609 Y83.639 E89.41957
G1 X135.609 Y83.158 E89.44128
G1 X135.949 Y83.498 E89.45294
G1 X136.851 Y84.4 E89.51049
G1 X143.149 Y84.4 E89.79463
G1 X144.4 Y83.149 E89.87445
G1 X144.4 Y76.851 E90.1586
G1 X143.149 Y75.6 E90.23842
G1 X136.851 Y75.6 E90.52256
G1 X135.949 Y76.502 E90.58011
G1 X135.609 Y76.842 E90.60181
G1 X135.609 Y76.361 E90.61349
G1 X135.609 Y64.39 E91.15358
G1 X123.64 Y64.39 E91.69359
G1 X123.159 Y64.39 E91.71529
G1 X123.499 Y64.05 E91.72695
G1 X124.4 Y63.149 E91.78444
G1 X124.4 Y56.851 E92.06858
G1 X123.149 Y55.6 E92.1484
G1 X116.851 Y55.6 E92.43255
G1 X115.95 Y56.501 E92.49003
G1 X115.61 Y56.841 E92.50169
G1 F2400 E91.30169
G0 F3000 X116 Y62.983
;TYPE:WALL-OUTER
G1 F2400 E92.50169
G1 F1500 X117.017 Y64 E92.56658
G1 X122.983 Y64 E92.83575
G1 X124 Y62.983 E92.90064
G1 X124 Y57.017 E93.1698
G1 X122.983 Y56 E93.23469
G1 X117.017 Y56 E93.50386
G1 X116 Y57.017 E93.56875
G1 X116 Y62.983 E93.83792
G0 F3000 X116.141 Y63.124
G0 X115.83 Y63.435
G1 F2400 E92.63792
G0 F3000 X115.21 Y64.79
G1 F2400 E93.83792
G1 F1500 X115.209 Y44.79 E94.74025
G1 X64.79 Y44.791 E97.01499
G1 X64.79 Y64.79 E97.91728
G1 X44.79 Y64.791 E98.81961
G1 X44.791 Y115.21 E101.09435
G1 X64.79 Y115.21 E101.99664
G1 X64.791 Y135.21 E102.89898
G1 X115.21 Y135.209 E105.17371
G1 X115.21 Y115.21 E106.076
G1 X135.21 Y115.209 E106.97834
G1 X135.209 Y64.79 E109.25308
G1 X115.21 Y64.79 E110.15537
G0 F3000 X115.21 Y64.59
G0 X115.65 Y64.35
G1 F2400 E108.95537
G0 F3000 X124.9 Y53.249
;TYPE:WALL-INNER
G1 F2400 E110.15537
G1 F1500 X126.751 Y55.1 E110.27347
G1 X128.749 Y55.1 E110.36361
G1 X129.748 Y54.1 E110.42738
G1 X130.252 Y54.1 E110.45012
G1 X131.251 Y55.1 E110.5139
G1 X133.249 Y55.1 E110.60404
G1 X135.1 Y53.249 E110.72214
G1 X135.1 Y51.251 E110.81228
G1 X134.1 Y50.252 E110.87606
G1 X134.1 Y49.748 E110.8988
G1 X135.1 Y48.749 E110.96257
G1 X135.1 Y46.751 E111.05271
G1 X133.249 Y44.9 E111.17081
G1 X131.251 Y44.9 E111.26096
G1 X130.252 Y45.9 E111.32473
G1 X129.748 Y45.9 E111.34747
G1 X128.749 Y44.9 E111.41124
G1 X126.751 Y44.9 E111.50139
G1 X124.9 Y46.751 E111.61949
G1 X124.9 Y48.749 E111.70963
G1 X125.9 Y49.748 E111.7734
G1 X125.9 Y50.252 E111.79614
G1 X124.9 Y51.251 E111.85992
G1 X124.9 Y53.249 E111.95006
G0 F3000 X125.3 Y53.083
;TYPE:WALL-OUTER
G1 F1500 X126.917 Y54.7 E112.05323
G1 X128.583 Y54.7 E112.1284
G1 X129.582 Y53.7 E112.19217
G1 X130.418 Y53.7 E112.22989
G1 X131.417 Y54.7 E112.29366
G1 X133.083 Y54.7 E112.36882
G1 X134.7 Y53.083 E112.47199
G1 X134.7 Y51.417 E112.54716
G1 X133.7 Y50.418 E112.61093
G1 X133.7 Y49.582 E112.64865
G1 X134.7 Y48.583 E112.71242
G1 X134.7 Y46.917 E112.78759
G1 X133.083 Y45.3 E112.89076
G1 X131.417 Y45.3 E112.96592
G1 X130.418 Y46.3 E113.0297
G1 X129.582 Y46.3 E113.06741
G1 X128.583 Y45.3 E113.13119
G1 X126.917 Y45.3 E113.20635
G1 X125.3 Y46.917 E113.30952
G1 X125.3 Y48.583 E113.38469
G1 X126.3 Y49.582 E113.44846
G1 X126.3 Y50.418 E113.48618
G1 X125.3 Y51.417 E113.54995
G1 X125.3 Y53.083 E113.62512
G0 F3000 X125.441 Y53.224
G0 X125.13 Y53.535
G1 F2400 E112.42512
G0 F3000 X116.851 Y44.4
;TYPE:WALL-INNER
G1 F2400 E113.62512
G1 F1500 X123.149 Y44.4 E113.90926
G1 X124.4 Y43.149 E113.98908
G1 X124.4 Y36.851 E114.27322
G1 X123.149 Y35.6 E114.35304
G1 X116.851 Y35.6 E114.63719
G1 X115.6 Y36.851 E114.71701
G1 X115.6 Y43.149 E115.00115
G1 X116.851 Y44.4 E115.08097
G0 F3000 X117.017 Y44
;TYPE:WALL-OUTER
G1 F1500 X122.983 Y44 E115.35014
G1 X124 Y42.983 E115.41503
G1 X124 Y37.017 E115.6842
G1 X122.983 Y36 E115.74908
G1 X117.017 Y36 E116.01825
G1 X116 Y37.017 E116.08314
G1 X116 Y42.983 E116.35231
G1 X117.017 Y44 E116.4172
G0 F3000 X117.217 Y44
G0 X117.217 Y44.44
G1 F2400 E115.2172
G0 F3000 X104 Y42.983
G1 F2400 E116.4172
G1 F1500 X104 Y37.017 E116.68636
G1 X102.983 Y36 E116.75125
G1 X97.017 Y36 E117.02042
G1 X96 Y37.017 E117.08531
G1 X96 Y42.983 E117.35447
G1 X97.017 Y44 E117.41936
G1 X102.983 Y44 E117.68853
G1 X104 Y42.983 E117.75342
G0 F3000 X104 Y42.783
G0 X104.44 Y42.783
G1 F2400 E116.55342
G0 F3000 X84 Y42.983
G1 F2400 E117.75342
G1 F1500 X84 Y37.017 E118.02258
G1 X82.983 Y36 E118.08747
G1 X77.017 Y36 E118.35664
G1 X76 Y37.017 E118.42153
G1 X76 Y42.983 E118.6907
G1 X77.017 Y44 E118.75559
G1 X82.983 Y44 E119.02475
G1 X84 Y42.983 E119.08964
G0 F3000 X84 Y42.783
G0 X84.44 Y42.783
G1 F2400 E117.88964
G0 F3000 X64.4 Y43.149
;TYPE:WALL-INNER
G1 F2400 E119.08964
G1 F1500 X64.4 Y36.851 E119.37379
G1 X63.149 Y35.6 E119.45361
G1 X56.851 Y35.6 E119.73775
G1 X55.6 Y36.851 E119.81757
G1 X55.6 Y43.149 E120.10172
G1 X56.851 Y44.4 E120.18154
G1 X63.149 Y44.4 E120.46568
G1 X64.4 Y43.149 E120.5455
G0 F3000 X64 Y42.983
;TYPE:WALL-OUTER
G1 F1500 X64 Y37.017 E120.81467
G1 X62.983 Y36 E120.87956
G1 X57.017 Y36 E121.14872
G1 X56 Y37.017 E121.21361
G1 X56 Y42.983 E121.48278
G1 X57.017 Y44 E121.54767
G1 X62.983 Y44 E121.81683
G1 X64 Y42.983 E121.88172
G0 F3000 X64 Y42.783
G0 X64.44 Y42.783
G1 F2400 E120.68172
G0 F3000 X55.1 Y53.249
;TYPE:WALL-INNER
G1 F2400 E121.88172
G1 F1500 X55.1 Y51.251 E121.97187
G1 X54.1 Y50.252 E122.03564
G1 X54.1 Y49.748 E122.05838
G1 X55.1 Y48.749 E122.12215
G1 X55.1 Y46.751 E122.21229
G1 X53.249 Y44.9 E122.3304
G1 X51.251 Y44.9 E122.42054
G1 X50.252 Y45.9 E122.48431
G1 X49.748 Y45.9 E122.50705
G1 X48.749 Y44.9 E122.57082
G1 X46.751 Y44.9 E122.66097
G1 X44.9 Y46.751 E122.77907
G1 X44.9 Y48.749 E122.86921
G1 X45.9 Y49.748 E122.93298
G1 X45.9 Y50.252 E122.95572
G1 X44.9 Y51.251 E123.0195
G1 X44.9 Y53.249 E123.10964
G1 X46.751 Y55.1 E123.22774
G1 X48.749 Y55.1 E123.31788
G1 X49.748 Y54.1 E123.38166
G1 X50.252 Y54.1 E123.4044
G1 X51.251 Y55.1 E123.46817
G1 X53.249 Y55.1 E123.55831
G1 X55.1 Y53.249 E123.67641
G0 F3000 X54.7 Y53.083
;TYPE:WALL-OUTER
G1 F1500 X54.7 Y51.417 E123.75158
G1 X53.7 Y50.418 E123.81535
G1 X53.7 Y49.582 E123.85307
G1 X54.7 Y48.583 E123.91684
G1 X54.7 Y46.917 E123.99201
G1 X53.083 Y45.3 E124.09518
G1 X51.417 Y45.3 E124.17034
G1 X50.418 Y46.3 E124.23412
