;FLAVOR:Marlin
;TIME:804
;Filament used: 1.24047m
;Layer height: 0.3
;MINX:66.46
;MINY:70.164
;MINZ:0.3
;MAXX:110.5
;MAXY:111.04
;MAXZ:9.9
;Generated with Cura_SteamEngine 4.12.1
M82 ;absolute extrusion mode
G21 ;metric values
G90 ;absolute positioning
M82 ;set extruder to absolute mode
M107 ;start with the fan off

M104 S200 T0 ; start heating T0 to what is set in Cura
M140 S60 ; start heating the bed to what is set in Cura
M190 S60 ; start heating the bed to what is set in Cura
M109 S200 T0 ; start heating T0 to what is set in Cura

G28 X0 Y0 ;move X/Y to min endstops
G28 Z0 ;move Z to min endstops
G1 Z15.0 F2400 ;move the platform down 15mm
G92 E0 ;zero the extruded length
G1 F200 E3 ;extrude 3mm of feed stock
G92 E0 ;zero the extruded length again
G1 F2400
G0 Y20 F2400
M117 Printing...
G5
G92 E0
G92 E0
G1 F2400 E-1.2
;LAYER_COUNT:33
;LAYER:0
M107
G0 F3000 X67.797 Y71.993 Z0.3
;TYPE:SKIRT
G1 F2400 E0
G1 F1500 X68.321 Y71.524 E0.03173
G1 X68.606 Y71.285 E0.04851
G1 X69.066 Y70.956 E0.07402
G1 X69.568 Y70.695 E0.09955
G1 X70.101 Y70.507 E0.12505
G1 X70.655 Y70.397 E0.15053
G1 X71.098 Y70.365 E0.17057
G1 X71.695 Y70.356 E0.19751
G1 X74.41 Y70.279 E0.32005
G1 X76.476 Y70.168 E0.4134
G1 X77.315 Y70.164 E0.45125
G1 X78.108 Y70.197 E0.48706
G1 X79.561 Y70.279 E0.55272
G1 X82.35 Y70.359 E0.6786
G1 X82.821 Y70.366 E0.69985
G1 X83.373 Y70.413 E0.72485
G1 X83.659 Y70.458 E0.73791
G1 X85.885 Y70.84 E0.83981
G1 X88.593 Y71.225 E0.96321
G1 X91.247 Y71.526 E1.08372
G1 X93.989 Y71.759 E1.20787
G1 X96.697 Y71.913 E1.33025
G1 X100.806 Y72 E1.51567
G1 X105.85 Y72 E1.74324
G1 X106.548 Y72.01 E1.77474
G1 X107.112 Y72.058 E1.80027
G1 X107.662 Y72.185 E1.82574
G1 X108.19 Y72.389 E1.85128
G1 X108.684 Y72.664 E1.87679
G1 X109.133 Y73.007 E1.90228
G1 X109.53 Y73.409 E1.92777
G1 X109.867 Y73.864 E1.95332
G1 X110.135 Y74.361 E1.97879
G1 X110.331 Y74.891 E2.00429
G1 X110.451 Y75.444 E2.02982
G1 X110.498 Y76.205 E2.06421
G1 X110.5 Y76.321 E2.06945
G1 X110.5 Y85.354 E2.47699
G1 X110.489 Y86.072 E2.50939
G1 X110.457 Y86.519 E2.5296
G1 X110.311 Y87.651 E2.5811
G1 X110.229 Y88.229 E2.60744
G1 X109.921 Y90.949 E2.73094
G1 X109.692 Y93.652 E2.85333
G1 X109.538 Y96.39 E2.97705
G1 X109.463 Y99.06 E3.09756
G1 X109.438 Y100.841 E3.17792
G1 X109.438 Y103.565 E3.30082
G1 X109.45 Y104.641 E3.34937
G1 X109.445 Y104.991 E3.36516
G1 X109.397 Y105.554 E3.39065
G1 X109.27 Y106.105 E3.41617
G1 X109.066 Y106.633 E3.4417
G1 X108.791 Y107.126 E3.46717
G1 X108.448 Y107.576 E3.4927
G1 X108.114 Y107.914 E3.51414
G1 X107.597 Y108.377 E3.54545
G1 X107.335 Y108.6 E3.56097
G1 X106.878 Y108.933 E3.58648
G1 X106.379 Y109.199 E3.612
G1 X105.847 Y109.391 E3.63751
G1 X105.294 Y109.507 E3.66301
G1 X104.815 Y109.543 E3.68468
G1 X104.215 Y109.552 E3.71175
G1 X101.501 Y109.629 E3.83425
G1 X99.42 Y109.742 E3.92827
G1 X99.081 Y109.754 E3.94358
G1 X96.385 Y109.889 E4.06536
G1 X93.636 Y110.107 E4.18978
G1 X91.815 Y110.294 E4.27237
G1 X90.707 Y110.419 E4.32268
G1 X90.4 Y110.442 E4.33657
G1 X88.406 Y110.512 E4.42658
G1 X85.709 Y110.684 E4.54851
G1 X82.37 Y111.002 E4.69984
G1 X82.077 Y111.019 E4.71308
G1 X81.38 Y111.034 E4.74453
G1 X80.756 Y111.028 E4.77269
G1 X78.036 Y111.028 E4.8954
G1 X76.967 Y111.04 E4.94364
G1 X76.617 Y111.035 E4.95943
G1 X76.054 Y110.987 E4.98492
G1 X75.503 Y110.86 E5.01043
G1 X74.975 Y110.656 E5.03597
G1 X74.482 Y110.381 E5.06144
G1 X74.032 Y110.038 E5.08697
G1 X73.694 Y109.704 E5.10841
G1 X73.231 Y109.187 E5.13972
G1 X72.987 Y108.897 E5.15682
G1 X72.657 Y108.437 E5.18236
G1 X72.396 Y107.936 E5.20785
G1 X72.208 Y107.403 E5.23334
G1 X72.097 Y106.854 E5.25861
G1 X71.954 Y105.746 E5.30902
G1 X71.879 Y105.094 E5.33863
G1 X71.493 Y102.41 E5.46097
G1 X71.036 Y99.772 E5.58176
G1 X70.491 Y97.075 E5.7059
G1 X69.817 Y94.258 E5.83658
G1 X69.616 Y93.389 E5.87682
G1 X69.592 Y93.278 E5.88194
G1 X69.413 Y92.391 E5.92277
G1 X69.187 Y91.184 E5.97817
G1 X68.606 Y88.512 E6.10154
G1 X67.971 Y85.941 E6.22102
G1 X67.23 Y83.269 E6.34612
G1 X66.739 Y81.666 E6.42176
G1 X66.639 Y81.324 E6.43784
G1 X66.519 Y80.771 E6.46337
G1 X66.479 Y80.287 E6.48528
G1 X66.466 Y79.68 E6.51267
G1 X66.472 Y79.056 E6.54082
G1 X66.472 Y76.335 E6.66359
G1 X66.46 Y75.249 E6.71259
G1 X66.465 Y74.914 E6.7277
G1 X66.514 Y74.351 E6.7532
G1 X66.641 Y73.8 E6.77871
G1 X66.845 Y73.273 E6.80421
G1 X67.121 Y72.779 E6.82974
G1 X67.464 Y72.33 E6.85523
G1 X67.797 Y71.993 E6.8766
G0 F3000 X68.064 Y72.292
G1 F1500 X68.588 Y71.823 E6.90833
G1 X68.861 Y71.593 E6.92444
G1 X69.299 Y71.282 E6.94867
G1 X69.777 Y71.04 E6.97284
G1 X70.287 Y70.872 E6.99707
G1 X70.815 Y70.781 E7.02124
G1 X71.104 Y70.765 E7.0343
G1 X71.671 Y70.756 E7.05989
G1 X74.443 Y70.677 E7.185
G1 X76.405 Y70.571 E7.27365
G1 X76.914 Y70.558 E7.29662
G1 X77.409 Y70.567 E7.31896
G1 X78.085 Y70.597 E7.34949
G1 X79.491 Y70.677 E7.41302
G1 X82.333 Y70.757 E7.54129
G1 X83.311 Y70.808 E7.58548
G1 X83.591 Y70.852 E7.59827
G1 X85.827 Y71.235 E7.70062
G1 X88.528 Y71.619 E7.8237
G1 X91.24 Y71.927 E7.94685
G1 X93.966 Y72.159 E8.07028
G1 X96.668 Y72.312 E8.19238
G1 X100.797 Y72.4 E8.37871
G1 X105.845 Y72.4 E8.60646
G1 X106.543 Y72.41 E8.63795
G1 X107.077 Y72.458 E8.66214
G1 X107.598 Y72.584 E8.68632
G1 X108.095 Y72.787 E8.71055
G1 X108.556 Y73.061 E8.73474
G1 X108.971 Y73.4 E8.75892
G1 X109.331 Y73.798 E8.78313
G1 X109.628 Y74.244 E8.80731
G1 X109.856 Y74.73 E8.83153
G1 X110.008 Y75.244 E8.85571
G1 X110.089 Y75.906 E8.8858
G1 X110.1 Y76.321 E8.90453
G1 X110.1 Y85.348 E9.3118
G1 X110.089 Y86.066 E9.34419
G1 X110.06 Y86.469 E9.36242
G1 X109.915 Y87.595 E9.41364
G1 X109.829 Y88.199 E9.44117
G1 X109.523 Y90.906 E9.56408
G1 X109.292 Y93.631 E9.68746
G1 X109.14 Y96.319 E9.80893
G1 X109.062 Y99.105 E9.93467
G1 X109.038 Y100.836 E10.01278
G1 X109.038 Y103.569 E10.13608
G1 X109.05 Y104.635 E10.18418
G1 X109.045 Y104.985 E10.19997
G1 X108.997 Y105.52 E10.22421
G1 X108.871 Y106.041 E10.24839
G1 X108.668 Y106.537 E10.27257
G1 X108.394 Y106.998 E10.29676
G1 X108.055 Y107.414 E10.32098
G1 X107.847 Y107.616 E10.33406
G1 X107.33 Y108.079 E10.36537
G1 X107.077 Y108.294 E10.38035
G1 X106.642 Y108.609 E10.40458
G1 X106.166 Y108.855 E10.42875
G1 X105.658 Y109.028 E10.45297
G1 X105.131 Y109.123 E10.47713
G1 X104.809 Y109.143 E10.49168
G1 X104.239 Y109.152 E10.5174
G1 X101.47 Y109.231 E10.64238
G1 X99.406 Y109.342 E10.73563
G1 X99.063 Y109.354 E10.75112
G1 X96.37 Y109.489 E10.87277
G1 X93.604 Y109.708 E10.99795
G1 X91.741 Y109.899 E11.08245
G1 X90.663 Y110.021 E11.13139
G1 X90.386 Y110.042 E11.14393
G1 X88.4 Y110.112 E11.23358
G1 X85.679 Y110.286 E11.3566
G1 X82.332 Y110.604 E11.50828
G1 X82.068 Y110.619 E11.52021
G1 X81.371 Y110.634 E11.55167
G1 X80.762 Y110.628 E11.57914
G1 X78.031 Y110.628 E11.70236
G1 X76.973 Y110.64 E11.75009
G1 X76.623 Y110.635 E11.76589
G1 X76.088 Y110.587 E11.79012
G1 X75.567 Y110.461 E11.81431
G1 X75.071 Y110.258 E11.83848
G1 X74.61 Y109.984 E11.86268
G1 X74.194 Y109.645 E11.88689
G1 X73.992 Y109.437 E11.89997
G1 X73.529 Y108.92 E11.93128
G1 X73.295 Y108.641 E11.94771
G1 X72.984 Y108.204 E11.97191
G1 X72.741 Y107.726 E11.9961
G1 X72.572 Y107.217 E12.0203
G1 X72.494 Y106.803 E12.03931
G1 X72.352 Y105.7 E12.08948
G1 X72.279 Y105.062 E12.11846
G1 X71.888 Y102.351 E12.24203
G1 X71.424 Y99.668 E12.36488
G1 X70.887 Y97.014 E12.48704
G1 X70.207 Y94.168 E12.61906
G1 X69.984 Y93.199 E12.66392
G1 X69.807 Y92.317 E12.70451
G1 X69.585 Y91.131 E12.75894
G1 X68.999 Y88.437 E12.88333
G1 X68.353 Y85.82 E13.00495
G1 X67.622 Y83.184 E13.12836
G1 X67.123 Y81.553 E13.20531
G1 X67.023 Y81.211 E13.22139
G1 X66.911 Y80.687 E13.24557
G1 X66.879 Y80.278 E13.26407
G1 X66.866 Y79.671 E13.29147
G1 X66.872 Y79.062 E13.31894
G1 X66.872 Y76.33 E13.4422
G1 X66.86 Y75.255 E13.49071
G1 X66.865 Y74.92 E13.50582
G1 X66.913 Y74.386 E13.53001
G1 X67.04 Y73.865 E13.55421
G1 X67.243 Y73.369 E13.57839
G1 X67.517 Y72.908 E13.60258
G1 X67.857 Y72.493 E13.62679
G1 X68.064 Y72.292 E13.6398
G0 F3000 X68.331 Y72.59
G1 F1500 X68.855 Y72.121 E13.67153
G1 X69.117 Y71.901 E13.68697
G1 X69.53 Y71.61 E13.70976
G1 X69.984 Y71.388 E13.73256
G1 X70.468 Y71.24 E13.75539
G1 X71.11 Y71.165 E13.78456
G1 X71.688 Y71.156 E13.81064
G1 X74.475 Y71.076 E13.93643
G1 X76.501 Y70.968 E14.02797
G1 X77.303 Y70.964 E14.06415
G1 X78.062 Y70.996 E14.09842
G1 X79.491 Y71.077 E14.163
G1 X82.316 Y71.157 E14.2905
G1 X83.25 Y71.203 E14.33269
G1 X83.524 Y71.246 E14.34521
G1 X85.78 Y71.633 E14.44848
G1 X88.459 Y72.014 E14.57056
G1 X91.232 Y72.328 E14.69647
G1 X93.91 Y72.556 E14.81773
G1 X96.664 Y72.712 E14.94218
G1 X100.789 Y72.8 E15.12833
G1 X105.839 Y72.8 E15.35617
G1 X106.537 Y72.81 E15.38766
G1 X107.04 Y72.857 E15.41046
G1 X107.53 Y72.983 E15.43328
G1 X107.994 Y73.185 E15.45611
G1 X108.42 Y73.457 E15.47892
G1 X108.798 Y73.792 E15.5017
G1 X109.118 Y74.183 E15.5245
G1 X109.373 Y74.62 E15.54733
G1 X109.556 Y75.091 E15.57013
G1 X109.663 Y75.585 E15.59293
G1 X109.699 Y76.228 E15.62198
G1 X109.7 Y85.342 E16.03318
G1 X109.689 Y86.06 E16.06558
G1 X109.663 Y86.418 E16.08177
G1 X109.519 Y87.539 E16.13276
G1 X109.434 Y88.134 E16.15988
G1 X109.125 Y90.864 E16.28383
G1 X108.893 Y93.608 E16.40808
G1 X108.74 Y96.322 E16.53072
G1 X108.662 Y99.094 E16.65583
G1 X108.638 Y100.83 E16.73416
G1 X108.638 Y103.614 E16.85977
G1 X108.65 Y104.63 E16.90561
G1 X108.645 Y104.98 E16.9214
G1 X108.598 Y105.483 E16.94419
G1 X108.472 Y105.973 E16.96702
G1 X108.27 Y106.436 E16.98981
G1 X107.998 Y106.863 E17.01265
G1 X107.58 Y107.318 E17.04053
G1 X106.992 Y107.843 E17.07609
G1 X106.819 Y107.989 E17.0863
G1 X106.408 Y108.283 E17.1091
G1 X105.956 Y108.509 E17.1319
G1 X105.474 Y108.661 E17.1547
G1 X104.803 Y108.743 E17.1852
G1 X104.222 Y108.752 E17.21142
G1 X101.435 Y108.832 E17.33721
G1 X99.392 Y108.942 E17.42952
G1 X99.079 Y108.953 E17.44365
G1 X96.317 Y109.092 E17.56842
G1 X93.575 Y109.309 E17.69251
G1 X91.726 Y109.499 E17.77637
G1 X90.618 Y109.624 E17.82668
G1 X90.372 Y109.642 E17.83781
G1 X88.396 Y109.712 E17.92702
G1 X85.646 Y109.887 E18.05134
G1 X82.294 Y110.206 E18.20325
G1 X82.06 Y110.219 E18.21383
G1 X81.247 Y110.235 E18.25051
G1 X80.767 Y110.228 E18.27217
G1 X78.026 Y110.228 E18.39584
G1 X76.978 Y110.24 E18.44312
G1 X76.628 Y110.235 E18.45891
G1 X76.125 Y110.188 E18.48171
G1 X75.635 Y110.062 E18.50453
G1 X75.172 Y109.86 E18.52732
G1 X74.745 Y109.588 E18.55016
G1 X74.29 Y109.17 E18.57804
G1 X73.827 Y108.653 E18.60935
G1 X73.602 Y108.385 E18.62514
G1 X73.311 Y107.972 E18.64793
G1 X73.088 Y107.518 E18.67075
G1 X72.94 Y107.035 E18.69355
G1 X72.89 Y106.751 E18.70656
G1 X72.749 Y105.654 E18.75646
G1 X72.673 Y104.996 E18.78634
G1 X72.285 Y102.297 E18.90936
G1 X71.817 Y99.592 E19.03322
G1 X71.277 Y96.925 E19.15598
G1 X70.596 Y94.078 E19.28805
G1 X70.376 Y93.12 E19.3324
G1 X70.2 Y92.244 E19.37271
G1 X69.974 Y91.037 E19.42812
G1 X69.392 Y88.361 E19.55167
G1 X68.74 Y85.722 E19.67431
G1 X67.99 Y83.015 E19.80105
G1 X67.507 Y81.441 E19.87533
G1 X67.407 Y81.099 E19.8914
G1 X67.303 Y80.604 E19.91422
G1 X67.279 Y80.27 E19.92933
G1 X67.265 Y79.547 E19.96196
G1 X67.272 Y79.067 E19.98362
G1 X67.272 Y76.286 E20.10908
G1 X67.26 Y75.261 E20.15533
G1 X67.265 Y74.926 E20.17045
G1 X67.313 Y74.423 E20.19325
G1 X67.439 Y73.933 E20.21607
G1 X67.641 Y73.47 E20.23886
G1 X67.913 Y73.044 E20.26167
G1 X68.331 Y72.59 E20.28951
G1 F2400 E19.08951
;MESH:clip_v4.stl(3)
G0 F3000 X80.604 Y79.554
;TYPE:WALL-INNER
G1 F2400 E20.28951
G1 F1500 X81.085 Y79.554 E20.31121
G1 X82.507 Y79.554 E20.37537
G1 X82.842 Y79.889 E20.39674
G1 X82.533 Y80.154 E20.41511
G1 X81.203 Y80.154 E20.47511
G1 X80.604 Y79.554 E20.49942
G1 F2400 E19.29942
G0 F3000 X80.604 Y75.554
G1 F2400 E20.49942
G1 F1500 X81.203 Y74.954 E20.53767
G1 X82.533 Y74.954 E20.59767
G1 X82.842 Y75.219 E20.61604
G1 X82.507 Y75.554 E20.63741
G1 X81.085 Y75.554 E20.70157
G1 X80.604 Y75.554 E20.70934
G1 F2400 E19.50934
G0 F3000 X74.482 Y75.554
G1 F2400 E20.70934
G1 F1500 X76.355 Y75.554 E20.79385
G1 X76.955 Y74.754 E20.83896
G1 X77.555 Y75.554 E20.88408
G1 X79.428 Y75.554 E20.96858
G1 X77.611 Y75.716 E20.98542
G1 X77.349 Y77.554 E21.06918
G1 X77.611 Y79.392 E21.15295
G1 X79.428 Y79.554 E21.23525
G1 X77.555 Y79.554 E21.25336
G1 X76.955 Y80.354 E21.29847
G1 X76.355 Y79.554 E21.34359
G1 X74.482 Y79.554 E21.42809
G1 X73.306 Y79.554
G1 X72.707 Y80.154 E21.46634
G1 X71.377 Y80.154 E21.52635
G1 X71.068 Y79.889 E21.54472
G1 X71.403 Y79.554 E21.56609
G1 X72.825 Y79.554 E21.63025
G1 X73.306 Y79.554 E21.65195
G1 X74.482 Y79.554
G1 X76.301 Y79.392 E21.73434
G1 X76.561 Y77.554 E21.81809
G1 X76.301 Y75.716 E21.90184
G1 X74.482 Y75.554 E21.91863
G1 F2400 E20.71863
G0 F3000 X73.306 Y75.554
G1 F2400 E21.91863
G1 F1500 X72.825 Y75.554 E21.94033
G1 X71.403 Y75.554 E22.00449
G1 X71.068 Y75.219 E22.02586
G1 X71.377 Y74.954 E22.04423
G1 X72.707 Y74.954 E22.10423
G1 X73.306 Y75.554 E22.12854
G0 F3000 X73.472 Y75.154
;TYPE:WALL-OUTER
G1 F1500 X76.155 Y75.154 E22.24959
G1 X76.755 Y74.354 E22.2947
G1 X77.155 Y74.354 E22.31275
G1 X77.755 Y75.154 E22.35787
G1 X80.438 Y75.154 E22.47891
G1 X81.037 Y74.554 E22.51717
G1 X82.681 Y74.554 E22.59134
G1 X83.255 Y75.046 E22.62545
G1 X83.255 Y75.372 E22.64015
G1 X82.673 Y75.954 E22.67729
G1 X79.446 Y75.954 E22.82288
G1 X77.962 Y76.086 E22.8901
G1 X77.753 Y77.554 E22.957
G1 X77.962 Y79.022 E23.0239
G1 X79.446 Y79.154 E23.09111
G1 X82.673 Y79.154 E23.2367
G1 X83.255 Y79.736 E23.27384
G1 X83.255 Y80.062 E23.28855
G1 X82.681 Y80.554 E23.32266
G1 X81.037 Y80.554 E23.39683
G1 X80.438 Y79.954 E23.43508
G1 X77.755 Y79.954 E23.55613
G1 X77.155 Y80.754 E23.60124
G1 X76.755 Y80.754 E23.61929
G1 X76.155 Y79.954 E23.66441
G1 X73.472 Y79.954 E23.78545
G1 X72.873 Y80.554 E23.82371
G1 X71.229 Y80.554 E23.89788
G1 X70.655 Y80.062 E23.93199
G1 X70.655 Y79.736 E23.94669
G1 X71.237 Y79.154 E23.98383
G1 X74.464 Y79.154 E24.12942
G1 X75.949 Y79.022 E24.19668
G1 X76.157 Y77.554 E24.26357
G1 X75.949 Y76.086 E24.33047
G1 X74.464 Y75.954 E24.39773
G1 X71.237 Y75.954 E24.54332
G1 X70.655 Y75.372 E24.58046
G1 X70.655 Y75.046 E24.59516
G1 X71.229 Y74.554 E24.62927
G1 X72.873 Y74.554 E24.70344
G1 X73.472 Y75.154 E24.7417
G0 F3000 X73.672 Y75.154
G1 F2400 E23.5417
G0 F3000 X72.544 Y75.373
;TYPE:SKIN
G1 F2400 E24.7417
G1 F1500 X72.305 Y75.133 E24.75727
G0 F3000 X71.979 Y75.373
G1 F1500 X71.739 Y75.133 E24.77287
G1 F2400 E23.57287
G0 F3000 X76.699 Y75.745
G1 F2400 E24.77287
G1 F1500 X76.955 Y75.404 E24.79248
G1 X77.213 Y75.747 E24.81221
G1 X76.955 Y77.554 E24.89614
G1 X77.213 Y79.361 E24.98007
G1 X76.955 Y79.704 E24.9998
G1 X76.699 Y79.363 E25.01941
G1 X76.955 Y77.554 E25.10341
G1 X76.699 Y75.745 E25.18741
G0 F3000 X76.903 Y75.772
G1 F1500 X77.011 Y75.88 E25.19444
G1 F2400 E23.99444
G0 F3000 X76.907 Y79.17
G1 F2400 E25.19444
G1 F1500 X77.02 Y79.283 E25.20179
G1 F2400 E24.00179
G0 F3000 X81.356 Y75.134
G1 F2400 E25.20179
G1 F1500 X81.596 Y75.374 E25.21739
G0 F3000 X81.922 Y75.134
G1 F1500 X82.162 Y75.374 E25.233
G1 F2400 E24.033
G0 F3000 X82.236 Y79.973
G1 F2400 E25.233
G1 F1500 X81.996 Y79.734 E25.24857
G0 F3000 X81.67 Y79.973
G1 F1500 X81.431 Y79.734 E25.26411
G1 F2400 E24.06411
G0 F3000 X72.619 Y79.973
G1 F2400 E25.26411
G1 F1500 X72.379 Y79.733 E25.27972
G0 F3000 X72.053 Y79.973
G1 F1500 X71.813 Y79.733 E25.29532
G0 F3000 X71.487 Y79.973
G1 F1500 X71.362 Y79.847 E25.30348
G1 F2400 E24.10348
;MESH:clip_hole_v4.stl(2)
G0 F3000 X74.1 Y83.073
;TYPE:WALL-INNER
G1 F2400 E25.30348
G1 F1500 X82.9 Y83.073 E25.70051
G1 X82.9 Y91.873 E26.09754
G1 X74.1 Y91.873 E26.49456
G1 X74.1 Y83.073 E26.89159
G0 F3000 X73.7 Y82.673
;TYPE:WALL-OUTER
G1 F1500 X83.3 Y82.673 E27.32471
G1 X83.3 Y92.273 E27.75783
G1 X73.7 Y92.273 E28.19095
G1 X73.7 Y82.673 E28.62407
G0 F3000 X73.9 Y82.673
G0 X74.14 Y83.113
G0 X74.49 Y83.463
;TYPE:SKIN
G1 F1500 X82.51 Y83.463 E28.99282
G1 X82.51 Y91.483 E29.36157
G1 X74.49 Y91.483 E29.73032
G1 X74.49 Y83.463 E30.09907
G1 F2400 E28.89907
G0 F3000 X82.33 Y84.027
G1 F2400 E30.09907
G1 F1500 X81.945 Y83.642 E30.12411
G0 F3000 X81.379 Y83.642
G1 F1500 X82.33 Y84.593 E30.18594
G0 F3000 X82.33 Y85.158
G1 F1500 X80.813 Y83.642 E30.28455
G0 F3000 X80.248 Y83.642
G1 F1500 X82.33 Y85.724 E30.41993
G0 F3000 X82.33 Y86.29
G1 F1500 X79.682 Y83.642 E30.59212
