;FLAVOR:Marlin
;TIME:9583
;Filament used: 16.4665m
;Layer height: 0.3
;MINX:26
;MINY:26
;MINZ:0.3
;MAXX:154
;MAXY:154
;MAXZ:9.9
;Generated with Cura_SteamEngine 4.12.1
M82 ;absolute extrusion mode
G21 ;metric values
G90 ;absolute positioning
M82 ;set extruder to absolute mode
M107 ;start with the fan off

M104 S200 T0 ; start heating T0 to what is set in Cura
M140 S60 ; start heating the bed to what is set in Cura
M190 S60 ; start heating the bed to what is set in Cura
M109 S200 T0 ; start heating T0 to what is set in Cura

G28 X0 Y0 ;move X/Y to min endstops
G28 Z0 ;move Z to min endstops
G1 Z15.0 F2400 ;move the platform down 15mm
G92 E0 ;zero the extruded length
G1 F200 E3 ;extrude 3mm of feed stock
G92 E0 ;zero the extruded length again
G1 F2400
G0 Y20 F2400
M117 Printing...
G5
G92 E0
G92 E0
G1 F2400 E-1.2
;LAYER_COUNT:33
;LAYER:0
M107
G0 F3000 X27.004 Y27.369 Z0.3
;TYPE:SKIRT
G1 F2400 E0
G1 F1500 X27.406 Y26.972 E0.02549
G1 X27.86 Y26.635 E0.051
G1 X28.357 Y26.366 E0.0765
G1 X28.887 Y26.169 E0.10201
G1 X29.44 Y26.05 E0.12753
G1 X30.218 Y26.002 E0.16269
G1 X30.33 Y26 E0.16775
G1 X149.35 Y26 E5.53754
G1 X150.048 Y26.01 E5.56903
G1 X150.612 Y26.058 E5.59457
G1 X151.162 Y26.185 E5.62004
G1 X151.69 Y26.389 E5.64558
G1 X152.184 Y26.664 E5.67109
G1 X152.633 Y27.007 E5.69658
G1 X153.03 Y27.409 E5.72207
G1 X153.367 Y27.864 E5.74761
G1 X153.635 Y28.361 E5.77309
G1 X153.831 Y28.891 E5.79858
G1 X153.951 Y29.444 E5.82411
G1 X153.998 Y30.218 E5.8591
G1 X154 Y30.33 E5.86415
G1 X154 Y149.314 E11.23232
G1 X153.991 Y150.041 E11.26512
G1 X153.944 Y150.604 E11.29061
G1 X153.818 Y151.155 E11.31611
G1 X153.616 Y151.683 E11.34162
G1 X153.341 Y152.177 E11.36712
G1 X152.999 Y152.627 E11.39262
G1 X152.597 Y153.025 E11.41815
G1 X152.144 Y153.362 E11.44362
G1 X151.647 Y153.632 E11.46914
G1 X151.117 Y153.829 E11.49465
G1 X150.565 Y153.95 E11.52014
G1 X149.782 Y153.998 E11.55554
G1 X149.67 Y154 E11.56059
G1 X30.655 Y154 E16.93016
G1 X29.957 Y153.991 E16.96165
G1 X29.394 Y153.943 E16.98714
G1 X28.843 Y153.817 E17.01264
G1 X28.315 Y153.615 E17.03815
G1 X27.821 Y153.34 E17.06366
G1 X27.371 Y152.998 E17.08916
G1 X26.973 Y152.596 E17.11468
G1 X26.637 Y152.142 E17.14016
G1 X26.367 Y151.645 E17.16568
G1 X26.17 Y151.115 E17.19119
G1 X26.05 Y150.563 E17.21668
G1 X26.001 Y149.766 E17.2527
G1 X26 Y30.62 E22.62818
G1 X26.009 Y29.955 E22.65818
G1 X26.057 Y29.392 E22.68368
G1 X26.183 Y28.841 E22.70918
G1 X26.386 Y28.313 E22.7347
G1 X26.662 Y27.819 E22.76023
G1 X27.004 Y27.369 E22.78573
G0 F3000 X27.397 Y27.531
G1 F1500 X27.794 Y27.171 E22.80991
G1 X28.241 Y26.873 E22.83415
G1 X28.726 Y26.645 E22.85833
G1 X29.24 Y26.492 E22.88252
G1 X29.908 Y26.41 E22.91289
G1 X30.33 Y26.4 E22.93193
G1 X149.345 Y26.4 E28.3015
G1 X150.043 Y26.41 E28.33299
G1 X150.577 Y26.458 E28.35718
G1 X151.098 Y26.584 E28.38136
G1 X151.595 Y26.787 E28.40558
G1 X152.056 Y27.061 E28.42978
G1 X152.471 Y27.4 E28.45396
G1 X152.831 Y27.798 E28.47817
G1 X153.128 Y28.244 E28.50234
G1 X153.356 Y28.73 E28.52656
G1 X153.508 Y29.244 E28.55075
G1 X153.59 Y29.909 E28.58098
G1 X153.6 Y30.33 E28.59997
G1 X153.6 Y149.309 E33.96792
G1 X153.591 Y150.036 E34.00072
G1 X153.544 Y150.57 E34.0249
G1 X153.419 Y151.091 E34.04908
G1 X153.217 Y151.588 E34.07328
G1 X152.944 Y152.05 E34.09749
G1 X152.606 Y152.466 E34.12167
G1 X152.209 Y152.827 E34.14588
G1 X151.763 Y153.125 E34.17008
G1 X151.278 Y153.353 E34.19426
G1 X150.764 Y153.507 E34.21847
G1 X150.092 Y153.59 E34.24902
G1 X149.67 Y153.6 E34.26806
G1 X30.661 Y153.6 E39.63736
G1 X29.963 Y153.591 E39.66885
G1 X29.428 Y153.544 E39.69308
G1 X28.907 Y153.418 E39.71727
G1 X28.41 Y153.216 E39.74147
G1 X27.949 Y152.943 E39.76564
G1 X27.533 Y152.604 E39.78985
G1 X27.172 Y152.208 E39.81403
G1 X26.874 Y151.762 E39.83823
G1 X26.646 Y151.276 E39.86245
G1 X26.493 Y150.762 E39.88665
G1 X26.41 Y150.088 E39.91728
G1 X26.4 Y149.658 E39.93669
G1 X26.4 Y30.625 E45.30707
G1 X26.409 Y29.96 E45.33707
G1 X26.457 Y29.426 E45.36126
G1 X26.583 Y28.905 E45.38545
G1 X26.785 Y28.408 E45.40965
G1 X27.058 Y27.947 E45.43382
G1 X27.397 Y27.531 E45.45803
G0 F3000 X27.454 Y28.082
G1 F1500 X27.789 Y27.704 E45.48082
G1 X28.18 Y27.383 E45.50364
G1 X28.617 Y27.128 E45.52647
G1 X29.088 Y26.944 E45.54929
G1 X29.582 Y26.838 E45.57208
G1 X30.24 Y26.801 E45.60181
G1 X149.339 Y26.8 E50.97517
G1 X150.037 Y26.81 E51.00666
G1 X150.54 Y26.857 E51.02946
G1 X151.03 Y26.983 E51.05228
G1 X151.494 Y27.185 E51.07512
G1 X151.92 Y27.457 E51.09792
G1 X152.298 Y27.792 E51.12071
G1 X152.618 Y28.183 E51.1435
G1 X152.873 Y28.62 E51.16633
G1 X153.056 Y29.091 E51.18913
G1 X153.163 Y29.585 E51.21193
G1 X153.199 Y30.24 E51.24153
G1 X153.2 Y149.304 E56.6133
G1 X153.191 Y150.031 E56.6461
G1 X153.145 Y150.534 E56.66889
G1 X153.02 Y151.024 E56.69171
G1 X152.819 Y151.488 E56.71452
G1 X152.548 Y151.915 E56.73734
G1 X152.213 Y152.294 E56.76016
G1 X151.823 Y152.615 E56.78295
G1 X151.387 Y152.871 E56.80576
G1 X150.916 Y153.054 E56.82856
G1 X150.422 Y153.162 E56.85137
G1 X149.76 Y153.199 E56.88129
G1 X30.666 Y153.2 E62.25442
G1 X29.968 Y153.191 E62.28591
G1 X29.464 Y153.144 E62.30875
G1 X28.974 Y153.019 E62.33156
G1 X28.51 Y152.818 E62.35438
G1 X28.084 Y152.547 E62.37716
G1 X27.705 Y152.212 E62.39998
G1 X27.384 Y151.821 E62.4228
G1 X27.129 Y151.385 E62.44559
G1 X26.945 Y150.914 E62.4684
G1 X26.838 Y150.42 E62.49121
G1 X26.801 Y149.744 E62.52175
G1 X26.8 Y30.631 E67.89574
G1 X26.809 Y29.966 E67.92574
G1 X26.856 Y29.462 E67.94858
G1 X26.982 Y28.973 E67.97136
G1 X27.183 Y28.509 E67.99418
G1 X27.454 Y28.082 E68.017
G1 F2400 E66.817
;MESH:clip_grid_2cm_type_c.stl
G0 F3000 X36.01 Y35.2
;TYPE:WALL-INNER
G1 F2400 E68.017
G1 F1500 X36.01 Y44.8 E68.45012
G1 X43.99 Y44.8 E68.81015
G1 X43.99 Y44.25 E68.83496
G1 X43.99 Y35.2 E69.24327
G1 X36.01 Y35.2 E69.6033
G0 F3000 X36.41 Y35.6
G1 F1500 X36.41 Y44.4 E70.00033
G1 X43.59 Y44.4 E70.32426
G1 X43.59 Y35.6 E70.72129
G1 X36.41 Y35.6 E71.04523
G0 F3000 X36.81 Y36
;TYPE:WALL-OUTER
G1 F1500 X36.81 Y44 E71.40616
G1 X43.19 Y44 E71.69401
G1 X43.19 Y36 E72.05494
G1 X36.81 Y36 E72.34279
G0 F3000 X36.81 Y36.2
G0 X36.37 Y36.2
G1 F2400 E71.14279
G0 F3000 X44.25 Y44.8
;TYPE:WALL-INNER
G1 F2400 E72.34279
G1 F1500 X44.25 Y55.2 E72.812
G1 X44.25 Y64.8 E73.24512
G1 X44.25 Y75.2 E73.71433
G1 X44.25 Y75.75 E73.73915
G1 X56.01 Y75.75 E74.26972
G1 X56.01 Y84.8 E74.67803
G1 X63.99 Y84.8 E75.03806
G1 X63.99 Y75.75 E75.44636
G1 X76.01 Y75.75 E75.98867
G1 X76.01 Y84.8 E76.39697
G1 X83.99 Y84.8 E76.757
G1 X83.99 Y75.75 E77.16531
G1 X96.01 Y75.75 E77.70761
G1 X96.01 Y84.8 E78.11592
G1 X103.99 Y84.8 E78.47595
G1 X103.99 Y75.75 E78.88426
G1 X116.01 Y75.75 E79.42656
G1 X116.01 Y84.8 E79.83487
G1 X123.99 Y84.8 E80.1949
G1 X123.99 Y75.75 E80.6032
G1 X135.75 Y75.75 E81.13378
G1 X135.75 Y75.2 E81.15859
G1 X135.75 Y64.8 E81.6278
G1 X135.75 Y55.2 E82.06092
G1 X135.75 Y44.8 E82.53014
G1 X135.75 Y44.25 E82.55495
G1 X123.99 Y44.25 E83.08552
G1 X123.99 Y35.2 E83.49383
G1 X116.01 Y35.2 E83.85386
G1 X116.01 Y44.25 E84.26217
G1 X103.99 Y44.25 E84.80447
G1 X103.99 Y35.2 E85.21278
G1 X96.01 Y35.2 E85.57281
G1 X96.01 Y44.25 E85.98111
G1 X83.99 Y44.25 E86.52342
G1 X83.99 Y35.2 E86.93172
G1 X76.01 Y35.2 E87.29176
G1 X76.01 Y44.25 E87.70006
G1 X63.99 Y44.25 E88.24236
G1 X63.99 Y35.2 E88.65067
G1 X56.01 Y35.2 E89.0107
G1 X56.01 Y44.25 E89.41901
G1 X44.25 Y44.25 E89.94958
G1 X44.25 Y44.8 E89.96575
G0 F3000 X44.65 Y44.65
G1 F1500 X44.65 Y75.35 E91.35083
G1 X56.41 Y75.35 E91.88141
G1 X63.59 Y75.35 E92.20534
G1 X76.41 Y75.35 E92.78374
G1 X83.59 Y75.35 E93.10768
G1 X96.41 Y75.35 E93.68607
G1 X103.59 Y75.35 E94.01001
G1 X116.41 Y75.35 E94.58841
G1 X123.59 Y75.35 E94.91235
G1 X135.35 Y75.35 E95.44292
G1 X135.35 Y44.65 E96.828
G1 X123.59 Y44.65 E97.35857
G1 X116.41 Y44.65 E97.68251
G1 X103.59 Y44.65 E98.26091
G1 X96.41 Y44.65 E98.58485
G1 X83.59 Y44.65 E99.16324
G1 X76.41 Y44.65 E99.48718
G1 X63.59 Y44.65 E100.06558
G1 X56.41 Y44.65 E100.38951
G1 X44.65 Y44.65 E100.92009
G0 F3000 X45.05 Y45.05
;TYPE:WALL-OUTER
G1 F1500 X45.05 Y74.95 E102.26908
G1 X134.95 Y74.95 E106.32507
G1 X134.95 Y45.05 E107.67406
G1 X45.05 Y45.05 E111.73005
G0 F3000 X45.05 Y45.25
G0 X44.61 Y45.25
G1 F2400 E110.53005
G0 F3000 X36.01 Y55.2
;TYPE:WALL-INNER
G1 F2400 E111.73005
G1 F1500 X36.01 Y64.8 E112.16317
G1 X43.99 Y64.8 E112.5232
G1 X43.99 Y55.2 E112.80544
G1 X36.01 Y55.2 E113.16547
G0 F3000 X36.41 Y55.6
G1 F1500 X36.41 Y64.4 E113.56249
G1 X43.59 Y64.4 E113.88643
G1 X43.59 Y55.6 E114.28346
G1 X36.41 Y55.6 E114.6074
G0 F3000 X36.81 Y56
;TYPE:WALL-OUTER
G1 F1500 X36.81 Y64 E114.96833
G1 X43.19 Y64 E115.25618
G1 X43.19 Y56 E115.61711
G1 X36.81 Y56 E115.90495
G0 F3000 X36.81 Y56.2
G0 X36.37 Y56.2
G1 F2400 E114.70495
G0 F3000 X36.01 Y75.2
;TYPE:WALL-INNER
G1 F2400 E115.90495
G1 F1500 X36.01 Y84.8 E116.33807
G1 X43.99 Y84.8 E116.69811
G1 X43.99 Y75.75 E117.10641
G1 X43.99 Y75.2 E117.12258
G1 X36.01 Y75.2 E117.48261
G0 F3000 X36.41 Y75.6
G1 F1500 X36.41 Y84.4 E117.87964
G1 X43.59 Y84.4 E118.20358
G1 X43.59 Y75.6 E118.6006
G1 X36.41 Y75.6 E118.92454
G0 F3000 X36.81 Y76
;TYPE:WALL-OUTER
G1 F1500 X36.81 Y84 E119.28548
G1 X43.19 Y84 E119.57332
G1 X43.19 Y76 E119.93425
G1 X36.81 Y76 E120.2221
G0 F3000 X36.81 Y76.2
G0 X36.37 Y76.2
G1 F2400 E119.0221
G0 F3000 X44.5 Y84.5
;TYPE:WALL-INNER
G1 F2400 E120.2221
G1 F1500 X44.5 Y95.5 E120.71838
G1 X55.5 Y95.5 E121.21467
G1 X55.5 Y84.5 E121.71095
G1 X44.5 Y84.5 E122.20723
G0 F3000 X44.9 Y84.9
G1 F1500 X44.9 Y95.1 E122.66742
G1 X55.1 Y95.1 E123.12762
G1 X55.1 Y84.9 E123.58781
G1 X44.9 Y84.9 E124.048
G0 F3000 X45.3 Y85.3
;TYPE:WALL-OUTER
G1 F1500 X45.3 Y94.7 E124.47209
G1 X54.7 Y94.7 E124.89619
G1 X54.7 Y85.3 E125.32029
G1 X45.3 Y85.3 E125.74438
G0 F3000 X45.3 Y85.5
G0 X44.86 Y85.5
G1 F2400 E124.54438
G0 F3000 X36.01 Y95.2
;TYPE:WALL-INNER
G1 F2400 E125.74438
G1 F1500 X36.01 Y104.8 E126.1775
G1 X43.99 Y104.8 E126.53754
G1 X43.99 Y104.25 E126.56235
G1 X43.99 Y95.2 E126.97066
G1 X36.01 Y95.2 E127.33069
G0 F3000 X36.41 Y95.6
G1 F1500 X36.41 Y104.4 E127.72771
G1 X43.59 Y104.4 E128.05165
G1 X43.59 Y95.6 E128.44868
G1 X36.41 Y95.6 E128.77262
G0 F3000 X36.81 Y96
;TYPE:WALL-OUTER
G1 F1500 X36.81 Y104 E129.13355
G1 X43.19 Y104 E129.4214
G1 X43.19 Y96 E129.78233
G1 X36.81 Y96 E130.07017
G0 F3000 X36.81 Y96.2
G0 X36.37 Y96.2
G1 F2400 E128.87017
G0 F3000 X44.25 Y104.8
;TYPE:WALL-INNER
G1 F2400 E130.07017
G1 F1500 X44.25 Y115.2 E130.53939
G1 X44.25 Y124.8 E130.97251
G1 X44.25 Y135.2 E131.44172
G1 X44.25 Y135.75 E131.46654
G1 X56.01 Y135.75 E131.99711
G1 X56.01 Y144.8 E132.40541
G1 X63.99 Y144.8 E132.76545
G1 X63.99 Y135.75 E133.17375
G1 X76.01 Y135.75 E133.71606
G1 X76.01 Y144.8 E134.12436
G1 X83.99 Y144.8 E134.48439
G1 X83.99 Y135.75 E134.8927
G1 X96.01 Y135.75 E135.435
G1 X96.01 Y144.8 E135.84331
G1 X103.99 Y144.8 E136.20334
G1 X103.99 Y135.75 E136.61165
G1 X116.01 Y135.75 E137.15395
G1 X116.01 Y144.8 E137.56225
G1 X123.99 Y144.8 E137.92229
G1 X123.99 Y135.75 E138.33059
G1 X135.75 Y135.75 E138.86116
G1 X135.75 Y135.2 E138.88598
G1 X135.75 Y124.8 E139.35519
G1 X135.75 Y115.2 E139.78831
G1 X135.75 Y104.8 E140.25753
G1 X135.75 Y104.25 E140.28234
G1 X123.99 Y104.25 E140.81291
G1 X123.99 Y95.2 E141.22122
G1 X116.01 Y95.2 E141.58125
G1 X116.01 Y104.25 E141.98956
G1 X103.99 Y104.25 E142.53186
G1 X103.99 Y95.2 E142.94017
G1 X96.01 Y95.2 E143.3002
G1 X96.01 Y104.25 E143.7085
G1 X83.99 Y104.25 E144.25081
G1 X83.99 Y95.2 E144.65911
G1 X76.01 Y95.2 E145.01914
G1 X76.01 Y104.25 E145.42745
G1 X63.99 Y104.25 E145.96975
G1 X63.99 Y95.2 E146.37806
G1 X56.01 Y95.2 E146.73809
G1 X56.01 Y104.25 E147.1464
G1 X44.25 Y104.25 E147.67697
G1 X44.25 Y104.8 E147.69314
G0 F3000 X44.65 Y104.65
G1 F1500 X44.65 Y135.35 E149.07822
G1 X56.41 Y135.35 E149.60879
G1 X63.59 Y135.35 E149.93273
G1 X76.41 Y135.35 E150.51113
G1 X83.59 Y135.35 E150.83507
G1 X96.41 Y135.35 E151.41346
G1 X103.59 Y135.35 E151.7374
G1 X116.41 Y135.35 E152.3158
G1 X123.59 Y135.35 E152.63973
G1 X135.35 Y135.35 E153.17031
G1 X135.35 Y104.65 E154.55539
G1 X123.59 Y104.65 E155.08596
G1 X116.41 Y104.65 E155.4099
G1 X103.59 Y104.65 E155.9883
G1 X96.41 Y104.65 E156.31223
G1 X83.59 Y104.65 E156.89063
G1 X76.41 Y104.65 E157.21457
G1 X63.59 Y104.65 E157.79297
G1 X56.41 Y104.65 E158.1169
G1 X44.65 Y104.65 E158.64748
G0 F3000 X45.05 Y105.05
;TYPE:WALL-OUTER
G1 F1500 X45.05 Y134.95 E159.99647
G1 X134.95 Y134.95 E164.05246
G1 X134.95 Y105.05 E165.40145
G1 X45.05 Y105.05 E169.45744
G0 F3000 X45.05 Y105.25
G0 X44.61 Y105.25
G1 F2400 E168.25744
G0 F3000 X36.01 Y115.2
;TYPE:WALL-INNER
G1 F2400 E169.45744
G1 F1500 X36.01 Y124.8 E169.89056
G1 X43.99 Y124.8 E170.25059
G1 X43.99 Y115.2 E170.53282
G1 X36.01 Y115.2 E170.89286
G0 F3000 X36.41 Y115.6
G1 F1500 X36.41 Y124.4 E171.28988
G1 X43.59 Y124.4 E171.61382
G1 X43.59 Y115.6 E172.01085
G1 X36.41 Y115.6 E172.33479
G0 F3000 X36.81 Y116
;TYPE:WALL-OUTER
G1 F1500 X36.81 Y124 E172.69572
G1 X43.19 Y124 E172.98356
G1 X43.19 Y116 E173.3445
G1 X36.81 Y116 E173.63234
G0 F3000 X36.81 Y116.2
G0 X36.37 Y116.2
G1 F2400 E172.43234
G0 F3000 X36.01 Y135.2
;TYPE:WALL-INNER
G1 F2400 E173.63234
G1 F1500 X36.01 Y144.8 E174.06546
G1 X43.99 Y144.8 E174.42549
G1 X43.99 Y135.75 E174.8338
G1 X43.99 Y135.2 E174.84997
G1 X36.01 Y135.2 E175.21
G0 F3000 X36.41 Y135.6
G1 F1500 X36.41 Y144.4 E175.60703
G1 X43.59 Y144.4 E175.93097
G1 X43.59 Y135.6 E176.32799
G1 X36.41 Y135.6 E176.65193
G0 F3000 X36.81 Y136
;TYPE:WALL-OUTER
G1 F1500 X36.81 Y144 E177.01286
G1 X43.19 Y144 E177.30071
G1 X43.19 Y136 E177.66164
G1 X36.81 Y136 E177.94949
G0 F3000 X36.81 Y136.2
G0 X36.37 Y136.2
G1 F2400 E176.74949
G0 F3000 X56.41 Y135.6
;TYPE:WALL-INNER
G1 F2400 E177.94949
G1 F1500 X56.41 Y144.4 E178.34651
G1 X63.59 Y144.4 E178.67045
G1 X63.59 Y135.6 E179.06748
G1 X56.41 Y135.6 E179.27045
G0 F3000 X56.81 Y136
;TYPE:WALL-OUTER
G1 F1500 X56.81 Y144 E179.63138
G1 X63.19 Y144 E179.91923
G1 X63.19 Y136 E180.28016
G1 X56.81 Y136 E180.568
G0 F3000 X56.81 Y136.2
G0 X56.37 Y136.2
G1 F2400 E179.368
G0 F3000 X76.41 Y135.6
;TYPE:WALL-INNER
G1 F2400 E180.568
G1 F1500 X76.41 Y144.4 E180.96503
G1 X83.59 Y144.4 E181.28897
G1 X83.59 Y135.6 E181.686
G1 X76.41 Y135.6 E181.88897
G0 F3000 X76.81 Y136
;TYPE:WALL-OUTER
G1 F1500 X76.81 Y144 E182.2499
G1 X83.19 Y144 E182.53774
G1 X83.19 Y136 E182.89868
G1 X76.81 Y136 E183.18652
G0 F3000 X76.81 Y136.2
G0 X76.37 Y136.2
G1 F2400 E181.98652
G0 F3000 X96.41 Y135.6
;TYPE:WALL-INNER
G1 F2400 E183.18652
G1 F1500 X96.41 Y144.4 E183.58355
G1 X103.59 Y144.4 E183.90749
G1 X103.59 Y135.6 E184.30451
G1 X96.41 Y135.6 E184.50748
G0 F3000 X96.81 Y136
;TYPE:WALL-OUTER
G1 F1500 X96.81 Y144 E184.86842
G1 X103.19 Y144 E185.15626
G1 X103.19 Y136 E185.51719
G1 X96.81 Y136 E185.80504
G0 F3000 X96.81 Y136.2
G0 X96.37 Y136.2
G1 F2400 E184.60504
G0 F3000 X116.41 Y135.6
;TYPE:WALL-INNER
G1 F2400 E185.80504
G1 F1500 X116.41 Y144.4 E186.20207
G1 X123.59 Y144.4 E186.526
G1 X123.59 Y135.6 E186.92303
G1 X116.41 Y135.6 E187.126
G0 F3000 X116.81 Y136
;TYPE:WALL-OUTER
G1 F1500 X116.81 Y144 E187.48693
G1 X123.19 Y144 E187.77478
G1 X123.19 Y136 E188.13571
G1 X116.81 Y136 E188.42356
G0 F3000 X116.81 Y136.2
G0 X116.37 Y136.2
G1 F2400 E187.22356
G0 F3000 X136.01 Y135.75
;TYPE:WALL-INNER
G1 F2400 E188.42356
G1 F1500 X136.01 Y144.8 E188.83186
G1 X143.99 Y144.8 E189.19189
G1 X143.99 Y135.2 E189.62501
G1 X136.01 Y135.2 E189.98505
G1 X136.01 Y135.75 E190.00122
G0 F3000 X136.41 Y135.6
G1 F1500 X136.41 Y144.4 E190.39824
G1 X143.59 Y144.4 E190.72218
G1 X143.59 Y135.6 E191.11921
G1 X136.41 Y135.6 E191.44315
G0 F3000 X136.81 Y136
;TYPE:WALL-OUTER
G1 F1500 X136.81 Y144 E191.80408
G1 X143.19 Y144 E192.09192
G1 X143.19 Y136 E192.45286
G1 X136.81 Y136 E192.7407
G0 F3000 X136.81 Y136.2
G0 X136.37 Y136.2
G1 F2400 E191.5407
G0 F3000 X136.01 Y115.2
;TYPE:WALL-INNER
G1 F2400 E192.7407
G1 F1500 X136.01 Y124.8 E193.02294
G1 X143.99 Y124.8 E193.38297
G1 X143.99 Y115.2 E193.81609
G1 X136.01 Y115.2 E194.17612
G0 F3000 X136.41 Y115.6
G1 F1500 X136.41 Y124.4 E194.57315
G1 X143.59 Y124.4 E194.89708
G1 X143.59 Y115.6 E195.29411
G1 X136.41 Y115.6 E195.61805
G0 F3000 X136.81 Y116
;TYPE:WALL-OUTER
G1 F1500 X136.81 Y124 E195.97898
G1 X143.19 Y124 E196.26683
G1 X143.19 Y116 E196.62776
