;FLAVOR:Marlin
;TIME:6874
;Filament used: 12.3227m
;Layer height: 0.3
;MINX:26
;MINY:26
;MINZ:0.3
;MAXX:154
;MAXY:154
;MAXZ:9.9
;Generated with Cura_SteamEngine 4.12.1
M82 ;absolute extrusion mode
G21 ;metric values
G90 ;absolute positioning
M82 ;set extruder to absolute mode
M107 ;start with the fan off

M104 S200 T0 ; start heating T0 to what is set in Cura
M140 S60 ; start heating the bed to what is set in Cura
M190 S60 ; start heating the bed to what is set in Cura
M109 S200 T0 ; start heating T0 to what is set in Cura

G28 X0 Y0 ;move X/Y to min endstops
G28 Z0 ;move Z to min endstops
G1 Z15.0 F2400 ;move the platform down 15mm
G92 E0 ;zero the extruded length
G1 F200 E3 ;extrude 3mm of feed stock
G92 E0 ;zero the extruded length again
G1 F2400
G0 Y20 F2400
M117 Printing...
G5
G92 E0
G92 E0
G1 F2400 E-1.2
;LAYER_COUNT:33
;LAYER:0
M107
G0 F3000 X27.004 Y27.369 Z0.3
;TYPE:SKIRT
G1 F2400 E0
G1 F1500 X27.406 Y26.972 E0.02549
G1 X27.86 Y26.635 E0.051
G1 X28.357 Y26.366 E0.0765
G1 X28.887 Y26.169 E0.10201
G1 X29.44 Y26.05 E0.12753
G1 X30.218 Y26.002 E0.16269
G1 X30.33 Y26 E0.16775
G1 X149.35 Y26 E5.53754
G1 X150.048 Y26.01 E5.56903
G1 X150.612 Y26.058 E5.59457
G1 X151.162 Y26.185 E5.62004
G1 X151.69 Y26.389 E5.64558
G1 X152.184 Y26.664 E5.67109
G1 X152.633 Y27.007 E5.69658
G1 X153.03 Y27.409 E5.72207
G1 X153.367 Y27.864 E5.74761
G1 X153.635 Y28.361 E5.77309
G1 X153.831 Y28.891 E5.79858
G1 X153.951 Y29.444 E5.82411
G1 X153.998 Y30.218 E5.8591
G1 X154 Y30.33 E5.86415
G1 X154 Y149.314 E11.23232
G1 X153.991 Y150.041 E11.26512
G1 X153.944 Y150.604 E11.29061
G1 X153.818 Y151.155 E11.31611
G1 X153.616 Y151.683 E11.34162
G1 X153.341 Y152.177 E11.36712
G1 X152.999 Y152.627 E11.39262
G1 X152.597 Y153.025 E11.41815
G1 X152.144 Y153.362 E11.44362
G1 X151.647 Y153.632 E11.46914
G1 X151.117 Y153.829 E11.49465
G1 X150.565 Y153.95 E11.52014
G1 X149.782 Y153.998 E11.55554
G1 X149.67 Y154 E11.56059
G1 X30.655 Y154 E16.93016
G1 X29.957 Y153.991 E16.96165
G1 X29.394 Y153.943 E16.98714
G1 X28.843 Y153.817 E17.01264
G1 X28.315 Y153.615 E17.03815
G1 X27.821 Y153.34 E17.06366
G1 X27.371 Y152.998 E17.08916
G1 X26.973 Y152.596 E17.11468
G1 X26.637 Y152.142 E17.14016
G1 X26.367 Y151.645 E17.16568
G1 X26.17 Y151.115 E17.19119
G1 X26.05 Y150.563 E17.21668
G1 X26.001 Y149.766 E17.2527
G1 X26 Y30.62 E22.62818
G1 X26.009 Y29.955 E22.65818
G1 X26.057 Y29.392 E22.68368
G1 X26.183 Y28.841 E22.70918
G1 X26.386 Y28.313 E22.7347
G1 X26.662 Y27.819 E22.76023
G1 X27.004 Y27.369 E22.78573
G0 F3000 X27.397 Y27.531
G1 F1500 X27.794 Y27.171 E22.80991
G1 X28.241 Y26.873 E22.83415
G1 X28.726 Y26.645 E22.85833
G1 X29.24 Y26.492 E22.88252
G1 X29.908 Y26.41 E22.91289
G1 X30.33 Y26.4 E22.93193
G1 X149.345 Y26.4 E28.3015
G1 X150.043 Y26.41 E28.33299
G1 X150.577 Y26.458 E28.35718
G1 X151.098 Y26.584 E28.38136
G1 X151.595 Y26.787 E28.40558
G1 X152.056 Y27.061 E28.42978
G1 X152.471 Y27.4 E28.45396
G1 X152.831 Y27.798 E28.47817
G1 X153.128 Y28.244 E28.50234
G1 X153.356 Y28.73 E28.52656
G1 X153.508 Y29.244 E28.55075
G1 X153.59 Y29.909 E28.58098
G1 X153.6 Y30.33 E28.59997
G1 X153.6 Y149.309 E33.96792
G1 X153.591 Y150.036 E34.00072
G1 X153.544 Y150.57 E34.0249
G1 X153.419 Y151.091 E34.04908
G1 X153.217 Y151.588 E34.07328
G1 X152.944 Y152.05 E34.09749
G1 X152.606 Y152.466 E34.12167
G1 X152.209 Y152.827 E34.14588
G1 X151.763 Y153.125 E34.17008
G1 X151.278 Y153.353 E34.19426
G1 X150.764 Y153.507 E34.21847
G1 X150.092 Y153.59 E34.24902
G1 X149.67 Y153.6 E34.26806
G1 X30.661 Y153.6 E39.63736
G1 X29.963 Y153.591 E39.66885
G1 X29.428 Y153.544 E39.69308
G1 X28.907 Y153.418 E39.71727
G1 X28.41 Y153.216 E39.74147
G1 X27.949 Y152.943 E39.76564
G1 X27.533 Y152.604 E39.78985
G1 X27.172 Y152.208 E39.81403
G1 X26.874 Y151.762 E39.83823
G1 X26.646 Y151.276 E39.86245
G1 X26.493 Y150.762 E39.88665
G1 X26.41 Y150.088 E39.91728
G1 X26.4 Y149.658 E39.93669
G1 X26.4 Y30.625 E45.30707
G1 X26.409 Y29.96 E45.33707
G1 X26.457 Y29.426 E45.36126
G1 X26.583 Y28.905 E45.38545
G1 X26.785 Y28.408 E45.40965
G1 X27.058 Y27.947 E45.43382
G1 X27.397 Y27.531 E45.45803
G0 F3000 X27.454 Y28.082
G1 F1500 X27.789 Y27.704 E45.48082
G1 X28.18 Y27.383 E45.50364
G1 X28.617 Y27.128 E45.52647
G1 X29.088 Y26.944 E45.54929
G1 X29.582 Y26.838 E45.57208
G1 X30.24 Y26.801 E45.60181
G1 X149.339 Y26.8 E50.97517
G1 X150.037 Y26.81 E51.00666
G1 X150.54 Y26.857 E51.02946
G1 X151.03 Y26.983 E51.05228
G1 X151.494 Y27.185 E51.07512
G1 X151.92 Y27.457 E51.09792
G1 X152.298 Y27.792 E51.12071
G1 X152.618 Y28.183 E51.1435
G1 X152.873 Y28.62 E51.16633
G1 X153.056 Y29.091 E51.18913
G1 X153.163 Y29.585 E51.21193
G1 X153.199 Y30.24 E51.24153
G1 X153.2 Y149.304 E56.6133
G1 X153.191 Y150.031 E56.6461
G1 X153.145 Y150.534 E56.66889
G1 X153.02 Y151.024 E56.69171
G1 X152.819 Y151.488 E56.71452
G1 X152.548 Y151.915 E56.73734
G1 X152.213 Y152.294 E56.76016
G1 X151.823 Y152.615 E56.78295
G1 X151.387 Y152.871 E56.80576
G1 X150.916 Y153.054 E56.82856
G1 X150.422 Y153.162 E56.85137
G1 X149.76 Y153.199 E56.88129
G1 X30.666 Y153.2 E62.25442
G1 X29.968 Y153.191 E62.28591
G1 X29.464 Y153.144 E62.30875
G1 X28.974 Y153.019 E62.33156
G1 X28.51 Y152.818 E62.35438
G1 X28.084 Y152.547 E62.37716
G1 X27.705 Y152.212 E62.39998
G1 X27.384 Y151.821 E62.4228
G1 X27.129 Y151.385 E62.44559
G1 X26.945 Y150.914 E62.4684
G1 X26.838 Y150.42 E62.49121
G1 X26.801 Y149.744 E62.52175
G1 X26.8 Y30.631 E67.89574
G1 X26.809 Y29.966 E67.92574
G1 X26.856 Y29.462 E67.94858
G1 X26.982 Y28.973 E67.97136
G1 X27.183 Y28.509 E67.99418
G1 X27.454 Y28.082 E68.017
G1 F2400 E66.817
;MESH:clip_grid_2cm_type_d2.stl
G0 F3000 X35.2 Y36.01
;TYPE:WALL-INNER
G1 F2400 E68.017
G1 F1500 X35.2 Y43.99 E68.37703
G1 X44.8 Y43.99 E68.81015
G1 X44.8 Y36.01 E69.17018
G1 X35.2 Y36.01 E69.6033
G0 F3000 X35.6 Y36.41
G1 F1500 X35.6 Y43.59 E69.92724
G1 X44.4 Y43.59 E70.32426
G1 X44.4 Y36.41 E70.6482
G1 X35.6 Y36.41 E71.04523
G0 F3000 X36 Y36.81
;TYPE:WALL-OUTER
G1 F1500 X36 Y43.19 E71.33307
G1 X44 Y43.19 E71.69401
G1 X44 Y36.81 E71.98185
G1 X36 Y36.81 E72.34279
G0 F3000 X36 Y37.01
G0 X35.56 Y37.01
G1 F2400 E71.14279
G0 F3000 X44.5 Y44.5
;TYPE:WALL-INNER
G1 F2400 E72.34279
G1 F1500 X44.5 Y55.5 E72.83907
G1 X55.5 Y55.5 E73.33535
G1 X55.5 Y44.5 E73.83164
G1 X44.5 Y44.5 E74.32792
G0 F3000 X44.9 Y44.9
G1 F1500 X44.9 Y55.1 E74.78811
G1 X55.1 Y55.1 E75.2483
G1 X55.1 Y44.9 E75.70849
G1 X44.9 Y44.9 E76.16868
G0 F3000 X45.3 Y45.3
;TYPE:WALL-OUTER
G1 F1500 X45.3 Y54.7 E76.59278
G1 X54.7 Y54.7 E77.01688
G1 X54.7 Y45.3 E77.44097
G1 X45.3 Y45.3 E77.86507
G0 F3000 X45.3 Y45.5
G0 X44.86 Y45.5
G1 F2400 E76.66507
G0 F3000 X55.2 Y36.01
;TYPE:WALL-INNER
G1 F2400 E77.86507
G1 F1500 X55.2 Y43.99 E78.2251
G1 X64.8 Y43.99 E78.65822
G1 X64.8 Y36.01 E79.01825
G1 X55.2 Y36.01 E79.45137
G0 F3000 X55.6 Y36.41
G1 F1500 X55.6 Y43.59 E79.77531
G1 X64.4 Y43.59 E80.17234
G1 X64.4 Y36.41 E80.49628
G1 X55.6 Y36.41 E80.8933
G0 F3000 X56 Y36.81
;TYPE:WALL-OUTER
G1 F1500 X56 Y43.19 E81.18115
G1 X64 Y43.19 E81.54208
G1 X64 Y36.81 E81.82993
G1 X56 Y36.81 E82.19086
G0 F3000 X56 Y37.01
G0 X55.56 Y37.01
G1 F2400 E80.99086
G0 F3000 X55.2 Y56.01
;TYPE:WALL-INNER
G1 F2400 E82.19086
G1 F1500 X55.2 Y63.99 E82.55089
G1 X64.45 Y63.99 E82.96822
G1 X64.45 Y64.4 E82.98672
G1 X44.25 Y64.4 E83.89808
G1 X44.25 Y76.01 E84.42188
G1 X35.2 Y76.01 E84.83019
G1 X35.2 Y83.99 E85.19022
G1 X44.25 Y83.99 E85.59853
G1 X44.25 Y96.01 E86.14083
G1 X35.2 Y96.01 E86.54913
G1 X35.2 Y103.99 E86.90917
G1 X44.25 Y103.99 E87.31747
G1 X44.25 Y115.6 E87.84128
G1 X64.45 Y115.6 E88.75263
G1 X64.45 Y116.01 E88.77113
G1 X55.2 Y116.01 E89.18846
G1 X55.2 Y123.99 E89.54849
G1 X64.45 Y123.99 E89.96582
G1 X64.45 Y135.75 E90.4964
G1 X75.2 Y135.75 E90.9814
G1 X84.8 Y135.75 E91.41452
G1 X95.2 Y135.75 E91.88373
G1 X104.8 Y135.75 E92.31685
G1 X115.55 Y135.75 E92.80186
G1 X115.55 Y123.99 E93.33243
G1 X124.8 Y123.99 E93.74976
G1 X124.8 Y116.01 E94.10979
G1 X115.55 Y116.01 E94.52712
G1 X115.55 Y115.6 E94.54562
G1 X135.75 Y115.6 E95.45698
G1 X135.75 Y103.99 E95.98078
G1 X144.8 Y103.99 E96.38909
G1 X144.8 Y96.01 E96.74912
G1 X135.75 Y96.01 E97.15743
G1 X135.75 Y83.99 E97.69973
G1 X144.8 Y83.99 E98.10803
G1 X144.8 Y76.01 E98.46807
G1 X135.75 Y76.01 E98.87637
G1 X135.75 Y64.4 E99.40018
G1 X115.55 Y64.4 E100.31153
G1 X115.55 Y63.99 E100.33003
G1 X124.8 Y63.99 E100.74736
G1 X124.8 Y56.01 E101.10739
G1 X115.55 Y56.01 E101.52472
G1 X115.55 Y44.25 E102.0553
G1 X104.8 Y44.25 E102.5403
G1 X95.2 Y44.25 E102.97342
G1 X84.8 Y44.25 E103.44263
G1 X75.2 Y44.25 E103.87575
G1 X64.45 Y44.25 E104.36076
G1 X64.45 Y56.01 E104.89133
G1 X55.2 Y56.01 E105.30866
G0 F3000 X55.6 Y56.41
G1 F1500 X55.6 Y63.59 E105.6326
G1 X64.4 Y63.59 E106.02963
G1 X64.4 Y56.41 E106.35356
G1 X55.6 Y56.41 E106.75059
G0 F3000 X56 Y56.81
;TYPE:WALL-OUTER
G1 F1500 X56 Y63.19 E107.03844
G1 X64 Y63.19 E107.39937
G1 X64 Y56.81 E107.68721
G1 X56 Y56.81 E108.04815
G0 F3000 X56 Y57.01
G0 X55.56 Y57.01
G1 F2400 E106.84815
G0 F3000 X44.65 Y64.8
;TYPE:WALL-INNER
G1 F2400 E108.04815
G1 F1500 X44.65 Y76.41 E108.57195
G1 X44.65 Y83.59 E108.89589
G1 X44.65 Y96.41 E109.47429
G1 X44.65 Y103.59 E109.79823
G1 X44.65 Y115.2 E110.32203
G1 X64.85 Y115.2 E111.23339
G1 X64.85 Y135.35 E112.14249
G1 X115.15 Y135.35 E114.41186
G1 X115.15 Y115.2 E115.32096
G1 X135.35 Y115.2 E116.23232
G1 X135.35 Y103.59 E116.75612
G1 X135.35 Y96.41 E117.08006
G1 X135.35 Y83.59 E117.65846
G1 X135.35 Y76.41 E117.9824
G1 X135.35 Y64.8 E118.5062
G1 X115.15 Y64.8 E119.41756
G1 X115.15 Y44.65 E120.32666
G1 X64.85 Y44.65 E122.59603
G1 X64.85 Y64.8 E123.50513
G1 X44.65 Y64.8 E124.41649
G0 F3000 X45.05 Y65.2
;TYPE:WALL-OUTER
G1 F1500 X45.05 Y114.8 E126.65428
G1 X65.25 Y114.8 E127.56564
G1 X65.25 Y134.95 E128.47474
G1 X114.75 Y134.95 E130.70801
G1 X114.75 Y114.8 E131.61712
G1 X134.95 Y114.8 E132.52847
G1 X134.95 Y65.2 E134.76626
G1 X114.75 Y65.2 E135.67762
G1 X114.75 Y45.05 E136.58672
G1 X65.25 Y45.05 E138.82
G1 X65.25 Y65.2 E139.7291
G1 X45.05 Y65.2 E140.64046
G0 F3000 X45.05 Y65.4
G0 X44.61 Y65.4
G1 F2400 E139.44046
G0 F3000 X35.2 Y56.01
;TYPE:WALL-INNER
G1 F2400 E140.64046
G1 F1500 X35.2 Y63.99 E141.00049
G1 X44.8 Y63.99 E141.43361
G1 X44.8 Y56.01 E141.79364
G1 X35.2 Y56.01 E142.22676
G0 F3000 X35.6 Y56.41
G1 F1500 X35.6 Y63.59 E142.5507
G1 X44.4 Y63.59 E142.94773
G1 X44.4 Y56.41 E143.27166
G1 X35.6 Y56.41 E143.66869
G0 F3000 X36 Y56.81
;TYPE:WALL-OUTER
G1 F1500 X36 Y63.19 E143.95654
G1 X44 Y63.19 E144.31747
G1 X44 Y56.81 E144.60531
G1 X36 Y56.81 E144.96625
G0 F3000 X36 Y57.01
G0 X35.56 Y57.01
G1 F2400 E143.76625
G0 F3000 X35.6 Y76.41
;TYPE:WALL-INNER
G1 F2400 E144.96625
G1 F1500 X35.6 Y83.59 E145.29019
G1 X44.4 Y83.59 E145.68721
G1 X44.4 Y76.41 E145.89018
G1 X35.6 Y76.41 E146.28721
G0 F3000 X36 Y76.81
;TYPE:WALL-OUTER
G1 F1500 X36 Y83.19 E146.57505
G1 X44 Y83.19 E146.93599
G1 X44 Y76.81 E147.22383
G1 X36 Y76.81 E147.58477
G0 F3000 X36 Y77.01
G0 X35.56 Y77.01
G1 F2400 E146.38477
G0 F3000 X35.6 Y96.41
;TYPE:WALL-INNER
G1 F2400 E147.58477
G1 F1500 X35.6 Y103.59 E147.9087
G1 X44.4 Y103.59 E148.30573
G1 X44.4 Y96.41 E148.5087
G1 X35.6 Y96.41 E148.90573
G0 F3000 X36 Y96.81
;TYPE:WALL-OUTER
G1 F1500 X36 Y103.19 E149.19357
G1 X44 Y103.19 E149.5545
G1 X44 Y96.81 E149.84235
G1 X36 Y96.81 E150.20328
G0 F3000 X36 Y97.01
G0 X35.56 Y97.01
G1 F2400 E149.00328
G0 F3000 X35.2 Y116.01
;TYPE:WALL-INNER
G1 F2400 E150.20328
G1 F1500 X35.2 Y123.99 E150.56331
G1 X44.8 Y123.99 E150.99643
G1 X44.8 Y116.01 E151.35647
G1 X35.2 Y116.01 E151.78959
G0 F3000 X35.6 Y116.41
G1 F1500 X35.6 Y123.59 E152.11352
G1 X44.4 Y123.59 E152.51055
G1 X44.4 Y116.41 E152.83449
G1 X35.6 Y116.41 E153.23152
G0 F3000 X36 Y116.81
;TYPE:WALL-OUTER
G1 F1500 X36 Y123.19 E153.51936
G1 X44 Y123.19 E153.88029
G1 X44 Y116.81 E154.16814
G1 X36 Y116.81 E154.52907
G0 F3000 X36 Y117.01
G0 X35.56 Y117.01
G1 F2400 E153.32907
G0 F3000 X44.5 Y124.5
;TYPE:WALL-INNER
G1 F2400 E154.52907
G1 F1500 X44.5 Y135.5 E155.02536
G1 X55.5 Y135.5 E155.52164
G1 X55.5 Y124.5 E156.01792
G1 X44.5 Y124.5 E156.51421
G0 F3000 X44.9 Y124.9
G1 F1500 X44.9 Y135.1 E156.9744
G1 X55.1 Y135.1 E157.43459
G1 X55.1 Y124.9 E157.89478
G1 X44.9 Y124.9 E158.35497
G0 F3000 X45.3 Y125.3
;TYPE:WALL-OUTER
G1 F1500 X45.3 Y134.7 E158.77907
G1 X54.7 Y134.7 E159.20316
G1 X54.7 Y125.3 E159.62726
G1 X45.3 Y125.3 E160.05136
G0 F3000 X45.3 Y125.5
G0 X44.86 Y125.5
G1 F2400 E158.85136
G0 F3000 X55.6 Y116.41
;TYPE:WALL-INNER
G1 F2400 E160.05136
G1 F1500 X55.6 Y123.59 E160.3753
G1 X64.4 Y123.59 E160.77232
G1 X64.4 Y116.41 E161.09626
G1 X55.6 Y116.41 E161.49329
G0 F3000 X56 Y116.81
;TYPE:WALL-OUTER
G1 F1500 X56 Y123.19 E161.78113
G1 X64 Y123.19 E162.14207
G1 X64 Y116.81 E162.42991
G1 X56 Y116.81 E162.79084
G0 F3000 X56 Y117.01
G0 X55.56 Y117.01
G1 F2400 E161.59084
G0 F3000 X55.2 Y136.01
;TYPE:WALL-INNER
G1 F2400 E162.79084
G1 F1500 X55.2 Y143.99 E163.15088
G1 X64.8 Y143.99 E163.584
G1 X64.8 Y136.01 E163.94403
G1 X55.2 Y136.01 E164.37715
G0 F3000 X55.6 Y136.41
G1 F1500 X55.6 Y143.59 E164.70109
G1 X64.4 Y143.59 E165.09811
G1 X64.4 Y136.41 E165.42205
G1 X55.6 Y136.41 E165.81908
G0 F3000 X56 Y136.81
;TYPE:WALL-OUTER
G1 F1500 X56 Y143.19 E166.10692
G1 X64 Y143.19 E166.46786
G1 X64 Y136.81 E166.7557
G1 X56 Y136.81 E167.11663
G0 F3000 X56 Y137.01
G0 X55.56 Y137.01
G1 F2400 E165.91663
G0 F3000 X75.2 Y136.01
;TYPE:WALL-INNER
G1 F2400 E167.11663
G1 F1500 X75.2 Y143.99 E167.47667
G1 X84.8 Y143.99 E167.90979
G1 X84.8 Y136.01 E168.26982
G1 X75.2 Y136.01 E168.55205
G0 F3000 X75.6 Y136.41
G1 F1500 X75.6 Y143.59 E168.87599
G1 X84.4 Y143.59 E169.27302
G1 X84.4 Y136.41 E169.59695
G1 X75.6 Y136.41 E169.99398
G0 F3000 X76 Y136.81
;TYPE:WALL-OUTER
G1 F1500 X76 Y143.19 E170.28183
G1 X84 Y143.19 E170.64276
G1 X84 Y136.81 E170.9306
G1 X76 Y136.81 E171.29154
G0 F3000 X76 Y137.01
G0 X75.56 Y137.01
G1 F2400 E170.09154
G0 F3000 X95.2 Y136.01
;TYPE:WALL-INNER
G1 F2400 E171.29154
G1 F1500 X95.2 Y143.99 E171.65157
G1 X104.8 Y143.99 E172.08469
G1 X104.8 Y136.01 E172.44472
G1 X95.2 Y136.01 E172.72695
G0 F3000 X95.6 Y136.41
G1 F1500 X95.6 Y143.59 E173.05089
G1 X104.4 Y143.59 E173.44792
G1 X104.4 Y136.41 E173.77186
G1 X95.6 Y136.41 E174.16888
G0 F3000 X96 Y136.81
;TYPE:WALL-OUTER
G1 F1500 X96 Y143.19 E174.45673
G1 X104 Y143.19 E174.81766
G1 X104 Y136.81 E175.10551
G1 X96 Y136.81 E175.46644
G0 F3000 X96 Y137.01
G0 X95.56 Y137.01
G1 F2400 E174.26644
G0 F3000 X115.2 Y136.01
;TYPE:WALL-INNER
G1 F2400 E175.46644
G1 F1500 X115.2 Y143.99 E175.82647
G1 X124.8 Y143.99 E176.25959
G1 X124.8 Y136.01 E176.61962
G1 X115.2 Y136.01 E177.05274
G0 F3000 X115.6 Y136.41
G1 F1500 X115.6 Y143.59 E177.37668
G1 X124.4 Y143.59 E177.77371
G1 X124.4 Y136.41 E178.09765
G1 X115.6 Y136.41 E178.49467
G0 F3000 X116 Y136.81
;TYPE:WALL-OUTER
G1 F1500 X116 Y143.19 E178.78252
G1 X124 Y143.19 E179.14345
G1 X124 Y136.81 E179.4313
G1 X116 Y136.81 E179.79223
G0 F3000 X116 Y137.01
G0 X115.56 Y137.01
G1 F2400 E178.59223
G0 F3000 X124.5 Y124.5
;TYPE:WALL-INNER
G1 F2400 E179.79223
G1 F1500 X124.5 Y135.5 E180.28851
G1 X135.5 Y135.5 E180.7848
G1 X135.5 Y124.5 E181.28108
G1 X124.5 Y124.5 E181.77737
G0 F3000 X124.9 Y124.9
G1 F1500 X124.9 Y135.1 E182.23756
G1 X135.1 Y135.1 E182.69775
G1 X135.1 Y124.9 E183.15794
G1 X124.9 Y124.9 E183.61813
G0 F3000 X125.3 Y125.3
;TYPE:WALL-OUTER
G1 F1500 X125.3 Y134.7 E184.04222
G1 X134.7 Y134.7 E184.46632
G1 X134.7 Y125.3 E184.89042
G1 X125.3 Y125.3 E185.31452
G0 F3000 X125.3 Y125.5
G0 X124.86 Y125.5
G1 F2400 E184.11452
G0 F3000 X115.6 Y116.41
;TYPE:WALL-INNER
G1 F2400 E185.31452
G1 F1500 X115.6 Y123.59 E185.63845
G1 X124.4 Y123.59 E186.03548
G1 X124.4 Y116.41 E186.35942
G1 X115.6 Y116.41 E186.75645
G0 F3000 X116 Y116.81
;TYPE:WALL-OUTER
G1 F1500 X116 Y123.19 E187.04429
G1 X124 Y123.19 E187.40522
G1 X124 Y116.81 E187.69307
G1 X116 Y116.81 E188.054
G0 F3000 X116 Y117.01
G0 X115.56 Y117.01
G1 F2400 E186.854
G0 F3000 X135.2 Y116.01
;TYPE:WALL-INNER
G1 F2400 E188.054
G1 F1500 X135.2 Y123.99 E188.41403
G1 X144.8 Y123.99 E188.84715
G1 X144.8 Y116.01 E189.20719
G1 X135.2 Y116.01 E189.64031
G0 F3000 X135.6 Y116.41
G1 F1500 X135.6 Y123.59 E189.96424
G1 X144.4 Y123.59 E190.36127
G1 X144.4 Y116.41 E190.68521
G1 X135.6 Y116.41 E191.08224
G0 F3000 X136 Y116.81
