;FLAVOR:Marlin
;TIME:7613
;Filament used: 13.2768m
;Layer height: 0.3
;MINX:26
;MINY:26
;MINZ:0.3
;MAXX:154
;MAXY:154
;MAXZ:9.9
;Generated with Cura_SteamEngine 4.12.1
M82 ;absolute extrusion mode
G21 ;metric values
G90 ;absolute positioning
M82 ;set extruder to absolute mode
M107 ;start with the fan off

M104 S200 T0 ; start heating T0 to what is set in Cura
M140 S60 ; start heating the bed to what is set in Cura
M190 S60 ; start heating the bed to what is set in Cura
M109 S200 T0 ; start heating T0 to what is set in Cura

G28 X0 Y0 ;move X/Y to min endstops
G28 Z0 ;move Z to min endstops
G1 Z15.0 F2400 ;move the platform down 15mm
G92 E0 ;zero the extruded length
G1 F200 E3 ;extrude 3mm of feed stock
G92 E0 ;zero the extruded length again
G1 F2400
G0 Y20 F2400
M117 Printing...
G5
G92 E0
G92 E0
G1 F2400 E-1.2
;LAYER_COUNT:33
;LAYER:0
M107
G0 F3000 X27.004 Y27.369 Z0.3
;TYPE:SKIRT
G1 F2400 E0
G1 F1500 X27.406 Y26.972 E0.02549
G1 X27.86 Y26.635 E0.051
G1 X28.357 Y26.366 E0.0765
G1 X28.887 Y26.169 E0.10201
G1 X29.44 Y26.05 E0.12753
G1 X30.218 Y26.002 E0.16269
G1 X30.33 Y26 E0.16775
G1 X149.35 Y26 E5.53754
G1 X150.048 Y26.01 E5.56903
G1 X150.612 Y26.058 E5.59457
G1 X151.162 Y26.185 E5.62004
G1 X151.69 Y26.389 E5.64558
G1 X152.184 Y26.664 E5.67109
G1 X152.633 Y27.007 E5.69658
G1 X153.03 Y27.409 E5.72207
G1 X153.367 Y27.864 E5.74761
G1 X153.635 Y28.361 E5.77309
G1 X153.831 Y28.891 E5.79858
G1 X153.951 Y29.444 E5.82411
G1 X153.998 Y30.218 E5.8591
G1 X154 Y30.33 E5.86415
G1 X154 Y149.314 E11.23232
G1 X153.991 Y150.041 E11.26512
G1 X153.944 Y150.604 E11.29061
G1 X153.818 Y151.155 E11.31611
G1 X153.616 Y151.683 E11.34162
G1 X153.341 Y152.177 E11.36712
G1 X152.999 Y152.627 E11.39262
G1 X152.597 Y153.025 E11.41815
G1 X152.144 Y153.362 E11.44362
G1 X151.647 Y153.632 E11.46914
G1 X151.117 Y153.829 E11.49465
G1 X150.565 Y153.95 E11.52014
G1 X149.782 Y153.998 E11.55554
G1 X149.67 Y154 E11.56059
G1 X30.655 Y154 E16.93016
G1 X29.957 Y153.991 E16.96165
G1 X29.394 Y153.943 E16.98714
G1 X28.843 Y153.817 E17.01264
G1 X28.315 Y153.615 E17.03815
G1 X27.821 Y153.34 E17.06366
G1 X27.371 Y152.998 E17.08916
G1 X26.973 Y152.596 E17.11468
G1 X26.637 Y152.142 E17.14016
G1 X26.367 Y151.645 E17.16568
G1 X26.17 Y151.115 E17.19119
G1 X26.05 Y150.563 E17.21668
G1 X26.001 Y149.766 E17.2527
G1 X26 Y30.62 E22.62818
G1 X26.009 Y29.955 E22.65818
G1 X26.057 Y29.392 E22.68368
G1 X26.183 Y28.841 E22.70918
G1 X26.386 Y28.313 E22.7347
G1 X26.662 Y27.819 E22.76023
G1 X27.004 Y27.369 E22.78573
G0 F3000 X27.397 Y27.531
G1 F1500 X27.794 Y27.171 E22.80991
G1 X28.241 Y26.873 E22.83415
G1 X28.726 Y26.645 E22.85833
G1 X29.24 Y26.492 E22.88252
G1 X29.908 Y26.41 E22.91289
G1 X30.33 Y26.4 E22.93193
G1 X149.345 Y26.4 E28.3015
G1 X150.043 Y26.41 E28.33299
G1 X150.577 Y26.458 E28.35718
G1 X151.098 Y26.584 E28.38136
G1 X151.595 Y26.787 E28.40558
G1 X152.056 Y27.061 E28.42978
G1 X152.471 Y27.4 E28.45396
G1 X152.831 Y27.798 E28.47817
G1 X153.128 Y28.244 E28.50234
G1 X153.356 Y28.73 E28.52656
G1 X153.508 Y29.244 E28.55075
G1 X153.59 Y29.909 E28.58098
G1 X153.6 Y30.33 E28.59997
G1 X153.6 Y149.309 E33.96792
G1 X153.591 Y150.036 E34.00072
G1 X153.544 Y150.57 E34.0249
G1 X153.419 Y151.091 E34.04908
G1 X153.217 Y151.588 E34.07328
G1 X152.944 Y152.05 E34.09749
G1 X152.606 Y152.466 E34.12167
G1 X152.209 Y152.827 E34.14588
G1 X151.763 Y153.125 E34.17008
G1 X151.278 Y153.353 E34.19426
G1 X150.764 Y153.507 E34.21847
G1 X150.092 Y153.59 E34.24902
G1 X149.67 Y153.6 E34.26806
G1 X30.661 Y153.6 E39.63736
G1 X29.963 Y153.591 E39.66885
G1 X29.428 Y153.544 E39.69308
G1 X28.907 Y153.418 E39.71727
G1 X28.41 Y153.216 E39.74147
G1 X27.949 Y152.943 E39.76564
G1 X27.533 Y152.604 E39.78985
G1 X27.172 Y152.208 E39.81403
G1 X26.874 Y151.762 E39.83823
G1 X26.646 Y151.276 E39.86245
G1 X26.493 Y150.762 E39.88665
G1 X26.41 Y150.088 E39.91728
G1 X26.4 Y149.658 E39.93669
G1 X26.4 Y30.625 E45.30707
G1 X26.409 Y29.96 E45.33707
G1 X26.457 Y29.426 E45.36126
G1 X26.583 Y28.905 E45.38545
G1 X26.785 Y28.408 E45.40965
G1 X27.058 Y27.947 E45.43382
G1 X27.397 Y27.531 E45.45803
G0 F3000 X27.454 Y28.082
G1 F1500 X27.789 Y27.704 E45.48082
G1 X28.18 Y27.383 E45.50364
G1 X28.617 Y27.128 E45.52647
G1 X29.088 Y26.944 E45.54929
G1 X29.582 Y26.838 E45.57208
G1 X30.24 Y26.801 E45.60181
G1 X149.339 Y26.8 E50.97517
G1 X150.037 Y26.81 E51.00666
G1 X150.54 Y26.857 E51.02946
G1 X151.03 Y26.983 E51.05228
G1 X151.494 Y27.185 E51.07512
G1 X151.92 Y27.457 E51.09792
G1 X152.298 Y27.792 E51.12071
G1 X152.618 Y28.183 E51.1435
G1 X152.873 Y28.62 E51.16633
G1 X153.056 Y29.091 E51.18913
G1 X153.163 Y29.585 E51.21193
G1 X153.199 Y30.24 E51.24153
G1 X153.2 Y149.304 E56.6133
G1 X153.191 Y150.031 E56.6461
G1 X153.145 Y150.534 E56.66889
G1 X153.02 Y151.024 E56.69171
G1 X152.819 Y151.488 E56.71452
G1 X152.548 Y151.915 E56.73734
G1 X152.213 Y152.294 E56.76016
G1 X151.823 Y152.615 E56.78295
G1 X151.387 Y152.871 E56.80576
G1 X150.916 Y153.054 E56.82856
G1 X150.422 Y153.162 E56.85137
G1 X149.76 Y153.199 E56.88129
G1 X30.666 Y153.2 E62.25442
G1 X29.968 Y153.191 E62.28591
G1 X29.464 Y153.144 E62.30875
G1 X28.974 Y153.019 E62.33156
G1 X28.51 Y152.818 E62.35438
G1 X28.084 Y152.547 E62.37716
G1 X27.705 Y152.212 E62.39998
G1 X27.384 Y151.821 E62.4228
G1 X27.129 Y151.385 E62.44559
G1 X26.945 Y150.914 E62.4684
G1 X26.838 Y150.42 E62.49121
G1 X26.801 Y149.744 E62.52175
G1 X26.8 Y30.631 E67.89574
G1 X26.809 Y29.966 E67.92574
G1 X26.856 Y29.462 E67.94858
G1 X26.982 Y28.973 E67.97136
G1 X27.183 Y28.509 E67.99418
G1 X27.454 Y28.082 E68.017
G1 F2400 E66.817
;MESH:clip_grid_2cm_type_c2.stl
G0 F3000 X35.6 Y36.41
;TYPE:WALL-INNER
G1 F2400 E68.017
G1 F1500 X35.6 Y43.59 E68.34093
G1 X44.4 Y43.59 E68.73796
G1 X44.4 Y36.41 E69.0619
G1 X35.6 Y36.41 E69.45893
G0 F3000 X36 Y36.81
;TYPE:WALL-OUTER
G1 F1500 X36 Y43.19 E69.74677
G1 X44 Y43.19 E70.1077
G1 X44 Y36.81 E70.39555
G1 X36 Y36.81 E70.75648
G0 F3000 X36 Y37.01
G0 X35.56 Y37.01
G1 F2400 E69.55648
G0 F3000 X44.65 Y44.65
;TYPE:WALL-INNER
G1 F2400 E70.75648
G1 F1500 X44.65 Y56.41 E71.28705
G1 X44.65 Y63.59 E71.61099
G1 X44.65 Y76.41 E72.18939
G1 X44.65 Y83.59 E72.51333
G1 X44.65 Y96.41 E73.09172
G1 X44.65 Y103.59 E73.41566
G1 X44.65 Y116.41 E73.99406
G1 X44.65 Y123.59 E74.31799
G1 X44.65 Y135.35 E74.84857
G1 X75.35 Y135.35 E76.23365
G1 X75.35 Y123.59 E76.76422
G1 X75.35 Y116.41 E77.08816
G1 X75.35 Y103.59 E77.66656
G1 X75.35 Y96.41 E77.99049
G1 X75.35 Y83.59 E78.56889
G1 X75.35 Y76.41 E78.89283
G1 X75.35 Y63.59 E79.47123
G1 X75.35 Y56.41 E79.79516
G1 X75.35 Y44.65 E80.32574
G1 X44.65 Y44.65 E81.71082
G0 F3000 X45.05 Y45.05
;TYPE:WALL-OUTER
G1 F1500 X45.05 Y134.95 E85.76681
G1 X74.95 Y134.95 E87.1158
G1 X74.95 Y45.05 E91.17179
G1 X45.05 Y45.05 E92.52078
G0 F3000 X45.05 Y45.25
G0 X44.61 Y45.25
G1 F2400 E91.32078
G0 F3000 X55.6 Y36.41
;TYPE:WALL-INNER
G1 F2400 E92.52078
G1 F1500 X55.6 Y43.59 E92.84472
G1 X64.4 Y43.59 E93.24175
G1 X64.4 Y36.41 E93.56568
G1 X55.6 Y36.41 E93.96271
G0 F3000 X56 Y36.81
;TYPE:WALL-OUTER
G1 F1500 X56 Y43.19 E94.25056
G1 X64 Y43.19 E94.61149
G1 X64 Y36.81 E94.89933
G1 X56 Y36.81 E95.26027
G0 F3000 X56 Y37.01
G0 X55.56 Y37.01
G1 F2400 E94.06027
G0 F3000 X75.6 Y36.41
;TYPE:WALL-INNER
G1 F2400 E95.26027
G1 F1500 X75.6 Y43.59 E95.58421
G1 X84.4 Y43.59 E95.98123
G1 X84.4 Y36.41 E96.30517
G1 X75.6 Y36.41 E96.7022
G0 F3000 X76 Y36.81
;TYPE:WALL-OUTER
G1 F1500 X76 Y43.19 E96.99004
G1 X84 Y43.19 E97.35098
G1 X84 Y36.81 E97.63882
G1 X76 Y36.81 E97.99975
G0 F3000 X76 Y37.01
G0 X75.56 Y37.01
G1 F2400 E96.79975
G0 F3000 X84.9 Y44.9
;TYPE:WALL-INNER
G1 F2400 E97.99975
G1 F1500 X84.9 Y55.1 E98.45995
G1 X95.1 Y55.1 E98.92014
G1 X95.1 Y44.9 E99.38033
G1 X84.9 Y44.9 E99.84052
G0 F3000 X85.3 Y45.3
;TYPE:WALL-OUTER
G1 F1500 X85.3 Y54.7 E100.26461
G1 X94.7 Y54.7 E100.68871
G1 X94.7 Y45.3 E101.11281
G1 X85.3 Y45.3 E101.5369
G0 F3000 X85.3 Y45.5
G0 X84.86 Y45.5
G1 F2400 E100.3369
G0 F3000 X95.6 Y36.41
;TYPE:WALL-INNER
G1 F2400 E101.5369
G1 F1500 X95.6 Y43.59 E101.86084
G1 X104.4 Y43.59 E102.25787
G1 X104.4 Y36.41 E102.58181
G1 X95.6 Y36.41 E102.97883
G0 F3000 X96 Y36.81
;TYPE:WALL-OUTER
G1 F1500 X96 Y43.19 E103.26668
G1 X104 Y43.19 E103.62761
G1 X104 Y36.81 E103.91546
G1 X96 Y36.81 E104.27639
G0 F3000 X96 Y37.01
G0 X95.56 Y37.01
G1 F2400 E103.07639
G0 F3000 X104.65 Y44.65
;TYPE:WALL-INNER
G1 F2400 E104.27639
G1 F1500 X104.65 Y56.41 E104.80696
G1 X104.65 Y63.59 E105.1309
G1 X104.65 Y76.41 E105.7093
G1 X104.65 Y83.59 E106.03324
G1 X104.65 Y96.41 E106.61163
G1 X104.65 Y103.59 E106.93557
G1 X104.65 Y116.41 E107.51397
G1 X104.65 Y123.59 E107.8379
G1 X104.65 Y135.35 E108.36848
G1 X135.35 Y135.35 E109.75356
G1 X135.35 Y123.59 E110.28413
G1 X135.35 Y116.41 E110.60807
G1 X135.35 Y103.59 E111.18647
G1 X135.35 Y96.41 E111.5104
G1 X135.35 Y83.59 E112.0888
G1 X135.35 Y76.41 E112.41274
G1 X135.35 Y63.59 E112.99113
G1 X135.35 Y56.41 E113.31507
G1 X135.35 Y44.65 E113.84564
G1 X104.65 Y44.65 E115.23073
G0 F3000 X105.05 Y45.05
;TYPE:WALL-OUTER
G1 F1500 X105.05 Y134.95 E119.28672
G1 X134.95 Y134.95 E120.63571
G1 X134.95 Y45.05 E124.6917
G1 X105.05 Y45.05 E126.04069
G0 F3000 X105.05 Y45.25
G0 X104.61 Y45.25
G1 F2400 E124.84069
G0 F3000 X115.6 Y36.41
;TYPE:WALL-INNER
G1 F2400 E126.04069
G1 F1500 X115.6 Y43.59 E126.36463
G1 X124.4 Y43.59 E126.76166
G1 X124.4 Y36.41 E127.08559
G1 X115.6 Y36.41 E127.48262
G0 F3000 X116 Y36.81
;TYPE:WALL-OUTER
G1 F1500 X116 Y43.19 E127.77047
G1 X124 Y43.19 E128.1314
G1 X124 Y36.81 E128.41924
G1 X116 Y36.81 E128.78018
G0 F3000 X116 Y37.01
G0 X115.56 Y37.01
G1 F2400 E127.58018
G0 F3000 X135.6 Y36.41
;TYPE:WALL-INNER
G1 F2400 E128.78018
G1 F1500 X135.6 Y43.59 E129.10412
G1 X144.4 Y43.59 E129.50114
G1 X144.4 Y36.41 E129.82508
G1 X135.6 Y36.41 E130.22211
G0 F3000 X136 Y36.81
;TYPE:WALL-OUTER
G1 F1500 X136 Y43.19 E130.50995
G1 X144 Y43.19 E130.87089
G1 X144 Y36.81 E131.15873
G1 X136 Y36.81 E131.51966
G0 F3000 X136 Y37.01
G0 X135.56 Y37.01
G1 F2400 E130.31966
G0 F3000 X135.6 Y56.41
;TYPE:WALL-INNER
G1 F2400 E131.51966
G1 F1500 X135.6 Y63.59 E131.72263
G1 X144.4 Y63.59 E132.11966
G1 X144.4 Y56.41 E132.4436
G1 X135.6 Y56.41 E132.84062
G0 F3000 X136 Y56.81
;TYPE:WALL-OUTER
G1 F1500 X136 Y63.19 E133.12847
G1 X144 Y63.19 E133.4894
G1 X144 Y56.81 E133.77725
G1 X136 Y56.81 E134.13818
G0 F3000 X136 Y57.01
G0 X135.56 Y57.01
G1 F2400 E132.93818
G0 F3000 X135.6 Y76.41
;TYPE:WALL-INNER
G1 F2400 E134.13818
G1 F1500 X135.6 Y83.59 E134.34115
G1 X144.4 Y83.59 E134.73818
G1 X144.4 Y76.41 E135.06212
G1 X135.6 Y76.41 E135.45914
G0 F3000 X136 Y76.81
;TYPE:WALL-OUTER
G1 F1500 X136 Y83.19 E135.74699
G1 X144 Y83.19 E136.10792
G1 X144 Y76.81 E136.39576
G1 X136 Y76.81 E136.7567
G0 F3000 X136 Y77.01
G0 X135.56 Y77.01
G1 F2400 E135.5567
G0 F3000 X135.6 Y96.41
;TYPE:WALL-INNER
G1 F2400 E136.7567
G1 F1500 X135.6 Y103.59 E136.95967
G1 X144.4 Y103.59 E137.35669
G1 X144.4 Y96.41 E137.68063
G1 X135.6 Y96.41 E138.07766
G0 F3000 X136 Y96.81
;TYPE:WALL-OUTER
G1 F1500 X136 Y103.19 E138.3655
G1 X144 Y103.19 E138.72644
G1 X144 Y96.81 E139.01428
G1 X136 Y96.81 E139.37522
G0 F3000 X136 Y97.01
G0 X135.56 Y97.01
G1 F2400 E138.17522
G0 F3000 X135.6 Y116.41
;TYPE:WALL-INNER
G1 F2400 E139.37522
G1 F1500 X135.6 Y123.59 E139.57818
G1 X144.4 Y123.59 E139.97521
G1 X144.4 Y116.41 E140.29915
G1 X135.6 Y116.41 E140.69618
G0 F3000 X136 Y116.81
;TYPE:WALL-OUTER
G1 F1500 X136 Y123.19 E140.98402
G1 X144 Y123.19 E141.34495
G1 X144 Y116.81 E141.6328
G1 X136 Y116.81 E141.99373
G0 F3000 X136 Y117.01
G0 X135.56 Y117.01
G1 F2400 E140.79373
G0 F3000 X135.6 Y136.41
;TYPE:WALL-INNER
G1 F2400 E141.99373
G1 F1500 X135.6 Y143.59 E142.31767
G1 X144.4 Y143.59 E142.7147
G1 X144.4 Y136.41 E143.03864
G1 X135.6 Y136.41 E143.43566
G0 F3000 X136 Y136.81
;TYPE:WALL-OUTER
G1 F1500 X136 Y143.19 E143.72351
G1 X144 Y143.19 E144.08444
G1 X144 Y136.81 E144.37229
G1 X136 Y136.81 E144.73322
G0 F3000 X136 Y137.01
G0 X135.56 Y137.01
G1 F2400 E143.53322
G0 F3000 X115.6 Y136.41
;TYPE:WALL-INNER
G1 F2400 E144.73322
G1 F1500 X115.6 Y143.59 E145.05716
G1 X124.4 Y143.59 E145.45418
G1 X124.4 Y136.41 E145.77812
G1 X115.6 Y136.41 E146.17515
G0 F3000 X116 Y136.81
;TYPE:WALL-OUTER
G1 F1500 X116 Y143.19 E146.46299
G1 X124 Y143.19 E146.82393
G1 X124 Y136.81 E147.11177
G1 X116 Y136.81 E147.47271
G0 F3000 X116 Y137.01
G0 X115.56 Y137.01
G1 F2400 E146.27271
G0 F3000 X95.6 Y136.41
;TYPE:WALL-INNER
G1 F2400 E147.47271
G1 F1500 X95.6 Y143.59 E147.79664
G1 X104.4 Y143.59 E148.19367
G1 X104.4 Y136.41 E148.51761
G1 X95.6 Y136.41 E148.91464
G0 F3000 X96 Y136.81
;TYPE:WALL-OUTER
G1 F1500 X96 Y143.19 E149.20248
G1 X104 Y143.19 E149.56341
G1 X104 Y136.81 E149.85126
G1 X96 Y136.81 E150.21219
G0 F3000 X96 Y137.01
G0 X95.56 Y137.01
G1 F2400 E149.01219
G0 F3000 X84.9 Y124.9
;TYPE:WALL-INNER
G1 F2400 E150.21219
G1 F1500 X84.9 Y135.1 E150.67238
G1 X95.1 Y135.1 E151.13257
G1 X95.1 Y124.9 E151.59276
G1 X84.9 Y124.9 E152.05295
G0 F3000 X85.3 Y125.3
;TYPE:WALL-OUTER
G1 F1500 X85.3 Y134.7 E152.47705
G1 X94.7 Y134.7 E152.90115
G1 X94.7 Y125.3 E153.32525
G1 X85.3 Y125.3 E153.74934
G0 F3000 X85.3 Y125.5
G0 X84.86 Y125.5
G1 F2400 E152.54934
G0 F3000 X75.6 Y116.41
;TYPE:WALL-INNER
G1 F2400 E153.74934
G1 F1500 X75.6 Y123.59 E153.95231
G1 X84.4 Y123.59 E154.34934
G1 X84.4 Y116.41 E154.67328
G1 X75.6 Y116.41 E155.0703
G0 F3000 X76 Y116.81
;TYPE:WALL-OUTER
G1 F1500 X76 Y123.19 E155.35815
G1 X84 Y123.19 E155.71908
G1 X84 Y116.81 E156.00693
G1 X76 Y116.81 E156.36786
G0 F3000 X76 Y117.01
G0 X75.56 Y117.01
G1 F2400 E155.16786
G0 F3000 X84.9 Y104.9
;TYPE:WALL-INNER
G1 F2400 E156.36786
G1 F1500 X84.9 Y115.1 E156.82805
G1 X95.1 Y115.1 E157.28824
G1 X95.1 Y104.9 E157.74843
G1 X84.9 Y104.9 E158.20862
G0 F3000 X85.3 Y105.3
;TYPE:WALL-OUTER
G1 F1500 X85.3 Y114.7 E158.63272
G1 X94.7 Y114.7 E159.05682
G1 X94.7 Y105.3 E159.48091
G1 X85.3 Y105.3 E159.90501
G0 F3000 X85.3 Y105.5
G0 X84.86 Y105.5
G1 F2400 E158.70501
G0 F3000 X75.6 Y96.41
;TYPE:WALL-INNER
G1 F2400 E159.90501
G1 F1500 X75.6 Y103.59 E160.10798
G1 X84.4 Y103.59 E160.50501
G1 X84.4 Y96.41 E160.82894
G1 X75.6 Y96.41 E161.22597
G0 F3000 X76 Y96.81
;TYPE:WALL-OUTER
G1 F1500 X76 Y103.19 E161.51381
G1 X84 Y103.19 E161.87475
G1 X84 Y96.81 E162.16259
G1 X76 Y96.81 E162.52353
G0 F3000 X76 Y97.01
G0 X75.56 Y97.01
G1 F2400 E161.32353
G0 F3000 X84.9 Y84.9
;TYPE:WALL-INNER
G1 F2400 E162.52353
G1 F1500 X84.9 Y95.1 E162.98372
G1 X95.1 Y95.1 E163.44391
G1 X95.1 Y84.9 E163.9041
G1 X84.9 Y84.9 E164.36429
G0 F3000 X85.3 Y85.3
;TYPE:WALL-OUTER
G1 F1500 X85.3 Y94.7 E164.78839
G1 X94.7 Y94.7 E165.21248
G1 X94.7 Y85.3 E165.63658
G1 X85.3 Y85.3 E166.06068
G0 F3000 X85.3 Y85.5
G0 X84.86 Y85.5
G1 F2400 E164.86068
G0 F3000 X75.6 Y76.41
;TYPE:WALL-INNER
G1 F2400 E166.06068
G1 F1500 X75.6 Y83.59 E166.26365
G1 X84.4 Y83.59 E166.66067
G1 X84.4 Y76.41 E166.98461
G1 X75.6 Y76.41 E167.38164
G0 F3000 X76 Y76.81
;TYPE:WALL-OUTER
G1 F1500 X76 Y83.19 E167.66948
G1 X84 Y83.19 E168.03042
G1 X84 Y76.81 E168.31826
G1 X76 Y76.81 E168.67919
G0 F3000 X76 Y77.01
G0 X75.56 Y77.01
G1 F2400 E167.47919
G0 F3000 X84.9 Y64.9
;TYPE:WALL-INNER
G1 F2400 E168.67919
G1 F1500 X84.9 Y75.1 E169.13938
G1 X95.1 Y75.1 E169.59957
G1 X95.1 Y64.9 E170.05977
G1 X84.9 Y64.9 E170.51996
G0 F3000 X85.3 Y65.3
;TYPE:WALL-OUTER
G1 F1500 X85.3 Y74.7 E170.94405
G1 X94.7 Y74.7 E171.36815
G1 X94.7 Y65.3 E171.79225
G1 X85.3 Y65.3 E172.21634
G0 F3000 X85.3 Y65.5
G0 X84.86 Y65.5
G1 F2400 E171.01634
G0 F3000 X75.6 Y56.41
;TYPE:WALL-INNER
G1 F2400 E172.21634
G1 F1500 X75.6 Y63.59 E172.41931
G1 X84.4 Y63.59 E172.81634
G1 X84.4 Y56.41 E173.14028
G1 X75.6 Y56.41 E173.5373
G0 F3000 X76 Y56.81
;TYPE:WALL-OUTER
G1 F1500 X76 Y63.19 E173.82515
G1 X84 Y63.19 E174.18608
G1 X84 Y56.81 E174.47393
G1 X76 Y56.81 E174.83486
G0 F3000 X76 Y57.01
G0 X75.56 Y57.01
G1 F2400 E173.63486
G0 F3000 X95.6 Y56.41
;TYPE:WALL-INNER
G1 F2400 E174.83486
G1 F1500 X95.6 Y63.59 E175.1588
G1 X104.4 Y63.59 E175.55583
G1 X104.4 Y56.41 E175.75879
G1 X95.6 Y56.41 E176.15582
G0 F3000 X96 Y56.81
;TYPE:WALL-OUTER
G1 F1500 X96 Y63.19 E176.44367
G1 X104 Y63.19 E176.8046
G1 X104 Y56.81 E177.09244
G1 X96 Y56.81 E177.45338
G0 F3000 X96 Y57.01
G0 X95.56 Y57.01
G1 F2400 E176.25338
G0 F3000 X95.6 Y76.41
