;FLAVOR:Marlin
;TIME:247
;Filament used: 0.333625m
;Layer height: 0.3
;MINX:75.392
;MINY:71.703
;MINZ:0.3
;MAXX:103.858
;MAXY:108.103
;MAXZ:6
;Generated with Cura_SteamEngine 4.12.1
M82 ;absolute extrusion mode
G21 ;metric values
G90 ;absolute positioning
M82 ;set extruder to absolute mode
M107 ;start with the fan off

M104 S200 T0 ; start heating T0 to what is set in Cura
M140 S60 ; start heating the bed to what is set in Cura
M190 S60 ; start heating the bed to what is set in Cura
M109 S200 T0 ; start heating T0 to what is set in Cura

G28 X0 Y0 ;move X/Y to min endstops
G28 Z0 ;move Z to min endstops
G1 Z15.0 F2400 ;move the platform down 15mm
G92 E0 ;zero the extruded length
G1 F200 E3 ;extrude 3mm of feed stock
G92 E0 ;zero the extruded length again
G1 F2400
G0 Y20 F2400
M117 Printing...
G5
G92 E0
G92 E0
G1 F2400 E-1.2
;LAYER_COUNT:20
;LAYER:0
M107
G0 F3000 X82.251 Y74.71 Z0.3
;TYPE:SKIRT
G1 F2400 E0
G1 F1500 X82.666 Y74.274 E0.02716
G1 X83.638 Y73.303 E0.08914
G1 X84.116 Y72.84 E0.11917
G1 X84.549 Y72.476 E0.14469
G1 X85.029 Y72.177 E0.1702
G1 X85.546 Y71.949 E0.1957
G1 X86.09 Y71.796 E0.22119
G1 X86.764 Y71.715 E0.25182
G1 X87.407 Y71.703 E0.28083
G1 X90.244 Y71.703 E0.40883
G1 X90.947 Y71.713 E0.44055
G1 X91.51 Y71.761 E0.46604
G1 X92.061 Y71.888 E0.49155
G1 X92.589 Y72.092 E0.51709
G1 X93.079 Y72.365 E0.5424
G1 X93.979 Y72.954 E0.59093
G1 X94.427 Y73.257 E0.61533
G1 X96.727 Y74.72 E0.73831
G1 X99.147 Y76.163 E0.86543
G1 X100.236 Y76.792 E0.92217
G1 X100.704 Y77.109 E0.94767
G1 X101.102 Y77.459 E0.97158
G1 X101.325 Y77.677 E0.98565
G1 X101.706 Y78.07 E1.01035
G1 X102.07 Y78.502 E1.03583
G1 X102.369 Y78.982 E1.06135
G1 X102.598 Y79.499 E1.08686
G1 X102.751 Y80.043 E1.11235
G1 X102.826 Y80.599 E1.13767
G1 X102.883 Y81.503 E1.17853
G1 X102.926 Y82.377 E1.21801
G1 X103.108 Y84.727 E1.32435
G1 X103.135 Y85.157 E1.34379
G1 X103.265 Y87.761 E1.46142
G1 X103.478 Y90.488 E1.58483
G1 X103.765 Y93.175 E1.70675
G1 X103.846 Y93.972 E1.74289
G1 X103.858 Y94.616 E1.77195
G1 X103.858 Y97.453 E1.89995
G1 X103.848 Y98.155 E1.93162
G1 X103.8 Y98.718 E1.95712
G1 X103.673 Y99.269 E1.98263
G1 X103.469 Y99.797 E2.00817
G1 X103.194 Y100.29 E2.03363
G1 X102.781 Y100.818 E2.06388
G1 X102.385 Y101.232 E2.08973
G1 X101.44 Y102.179 E2.15008
G1 X100.935 Y102.668 E2.1818
G1 X100.502 Y103.031 E2.20729
G1 X100.022 Y103.33 E2.23281
G1 X99.539 Y103.552 E2.25679
G1 X97.063 Y104.65 E2.37899
G1 X94.588 Y105.833 E2.50275
G1 X92.137 Y107.091 E2.62705
G1 X91.132 Y107.625 E2.67839
G1 X90.615 Y107.855 E2.70392
G1 X90.071 Y108.009 E2.72943
G1 X89.388 Y108.091 E2.76047
G1 X88.745 Y108.103 E2.78948
G1 X85.908 Y108.103 E2.91748
G1 X85.207 Y108.093 E2.94911
G1 X84.644 Y108.045 E2.9746
G1 X84.093 Y107.918 E3.00011
G1 X83.565 Y107.714 E3.02565
G1 X83.072 Y107.439 E3.05112
G1 X82.553 Y107.034 E3.08082
G1 X82.112 Y106.614 E3.1083
G1 X81.17 Y105.671 E3.16843
G1 X80.697 Y105.184 E3.19906
G1 X80.332 Y104.752 E3.22458
G1 X79.932 Y104.07 E3.26025
G1 X79.672 Y103.503 E3.28839
G1 X78.498 Y101.047 E3.41121
G1 X77.258 Y98.631 E3.53373
G1 X76.417 Y97.099 E3.61258
G1 X76.157 Y96.606 E3.63772
G1 X75.929 Y96.089 E3.66322
G1 X75.777 Y95.544 E3.68874
G1 X75.703 Y94.996 E3.71369
G1 X75.646 Y94.093 E3.75451
G1 X75.603 Y93.222 E3.79386
G1 X75.42 Y90.853 E3.90106
G1 X75.392 Y90.296 E3.92622
G1 X75.396 Y89.699 E3.95315
G1 X75.406 Y89.473 E3.96336
G1 X75.47 Y88.575 E4.00398
G1 X75.562 Y87.502 E4.05257
G1 X75.673 Y85.535 E4.14145
G1 X75.706 Y85.07 E4.16248
G1 X75.786 Y84.51 E4.18801
G1 X75.944 Y83.967 E4.21352
G1 X76.177 Y83.452 E4.23902
G1 X76.477 Y82.978 E4.26433
G1 X77.053 Y82.198 E4.30808
G1 X77.561 Y81.531 E4.3459
G1 X79.121 Y79.358 E4.46659
G1 X80.659 Y77.083 E4.59049
G1 X81.494 Y75.769 E4.66073
G1 X81.852 Y75.223 E4.69018
G1 X82.251 Y74.71 E4.7195
G0 F3000 X82.546 Y74.98
G1 F1500 X82.952 Y74.553 E4.74609
G1 X83.916 Y73.59 E4.80756
G1 X84.394 Y73.127 E4.83759
G1 X84.806 Y72.784 E4.86177
G1 X85.265 Y72.505 E4.88601
G1 X85.759 Y72.298 E4.91017
G1 X86.279 Y72.167 E4.93437
G1 X86.777 Y72.115 E4.95696
G1 X87.412 Y72.103 E4.98561
G1 X90.238 Y72.103 E5.11311
G1 X90.941 Y72.113 E5.14483
G1 X91.475 Y72.161 E5.16902
G1 X91.997 Y72.287 E5.19325
G1 X92.493 Y72.49 E5.21743
G1 X92.86 Y72.7 E5.2365
G1 X93.755 Y73.286 E5.28477
G1 X94.21 Y73.594 E5.30956
G1 X96.488 Y75.043 E5.43136
G1 X98.981 Y76.53 E5.56233
G1 X100.036 Y77.139 E5.61729
G1 X100.676 Y77.61 E5.65314
G1 X101.038 Y77.955 E5.6757
G1 X101.419 Y78.348 E5.7004
G1 X101.762 Y78.76 E5.72458
G1 X102.041 Y79.218 E5.74878
G1 X102.248 Y79.713 E5.77299
G1 X102.38 Y80.233 E5.79719
G1 X102.427 Y80.624 E5.81496
G1 X102.484 Y81.523 E5.8556
G1 X102.528 Y82.427 E5.89643
G1 X102.709 Y84.752 E6.00165
G1 X102.736 Y85.177 E6.02086
G1 X102.866 Y87.789 E6.13885
G1 X103.077 Y90.494 E6.26126
G1 X103.368 Y93.223 E6.38508
G1 X103.446 Y93.985 E6.41964
G1 X103.458 Y94.621 E6.44834
G1 X103.458 Y97.447 E6.57584
G1 X103.448 Y98.149 E6.60752
G1 X103.4 Y98.683 E6.63171
G1 X103.274 Y99.205 E6.65593
G1 X103.071 Y99.701 E6.68011
G1 X102.797 Y100.162 E6.70431
G1 X102.346 Y100.698 E6.73591
G1 X102.073 Y100.979 E6.75359
G1 X101.161 Y101.891 E6.81178
G1 X100.656 Y102.38 E6.84349
G1 X100.244 Y102.724 E6.86771
G1 X99.572 Y103.102 E6.90249
G1 X99.421 Y103.167 E6.90991
G1 X96.864 Y104.301 E7.03611
G1 X94.44 Y105.46 E7.15733
G1 X91.923 Y106.752 E7.28498
G1 X90.944 Y107.272 E7.33499
G1 X90.453 Y107.488 E7.35919
G1 X89.935 Y107.628 E7.3834
G1 X89.375 Y107.691 E7.40882
G1 X88.74 Y107.703 E7.43748
G1 X85.914 Y107.703 E7.56498
G1 X85.213 Y107.693 E7.59661
G1 X84.678 Y107.645 E7.62084
G1 X84.157 Y107.519 E7.64503
G1 X83.661 Y107.316 E7.66921
G1 X83.2 Y107.042 E7.6934
G1 X82.671 Y106.599 E7.72453
G1 X82.366 Y106.303 E7.74371
G1 X81.457 Y105.392 E7.80177
G1 X80.984 Y104.905 E7.8324
G1 X80.64 Y104.494 E7.85658
G1 X80.296 Y103.902 E7.88747
G1 X80.035 Y103.335 E7.91563
G1 X78.868 Y100.892 E8.03778
G1 X77.599 Y98.42 E8.16315
G1 X76.771 Y96.912 E8.24076
G1 X76.511 Y96.419 E8.26591
G1 X76.297 Y95.928 E8.29008
G1 X76.158 Y95.41 E8.31427
G1 X76.102 Y94.97 E8.33428
G1 X76.045 Y94.073 E8.37484
G1 X76.001 Y93.169 E8.41567
G1 X75.819 Y90.829 E8.52156
G1 X75.792 Y90.283 E8.54623
G1 X75.796 Y89.705 E8.5723
G1 X75.805 Y89.501 E8.58152
G1 X75.869 Y88.609 E8.62186
G1 X75.962 Y87.522 E8.67108
G1 X76.072 Y85.563 E8.75961
G1 X76.105 Y85.098 E8.78064
G1 X76.183 Y84.568 E8.80481
G1 X76.338 Y84.054 E8.82903
G1 X76.569 Y83.57 E8.85323
G1 X76.799 Y83.216 E8.87227
G1 X77.371 Y82.441 E8.91573
G1 X77.875 Y81.778 E8.9533
G1 X79.462 Y79.569 E9.07602
G1 X80.996 Y77.3 E9.19959
G1 X81.828 Y75.988 E9.26968
G1 X82.186 Y75.442 E9.29914
G1 X82.546 Y74.98 E9.32556
G0 F3000 X82.841 Y75.251
G1 F1500 X83.238 Y74.833 E9.35157
G1 X84.195 Y73.877 E9.4126
G1 X84.673 Y73.414 E9.44263
G1 X85.062 Y73.093 E9.46538
G1 X85.498 Y72.836 E9.48821
G1 X85.969 Y72.651 E9.51104
G1 X86.462 Y72.543 E9.53381
G1 X87.008 Y72.508 E9.5585
G1 X87.417 Y72.503 E9.57695
G1 X90.233 Y72.503 E9.704
G1 X90.936 Y72.513 E9.73572
G1 X91.439 Y72.56 E9.75851
G1 X91.929 Y72.686 E9.78134
G1 X92.392 Y72.888 E9.80413
G1 X92.641 Y73.035 E9.81718
G1 X93.531 Y73.617 E9.86515
G1 X93.967 Y73.912 E9.8889
G1 X96.315 Y75.406 E10.01447
G1 X98.747 Y76.856 E10.14221
G1 X99.836 Y77.485 E10.19895
G1 X100.405 Y77.904 E10.23083
G1 X100.751 Y78.234 E10.2524
G1 X101.132 Y78.627 E10.2771
G1 X101.454 Y79.016 E10.29988
G1 X101.71 Y79.452 E10.32269
G1 X101.895 Y79.922 E10.34548
G1 X102.027 Y80.65 E10.37886
G1 X102.084 Y81.542 E10.41919
G1 X102.128 Y82.444 E10.45993
G1 X102.309 Y84.778 E10.56555
G1 X102.336 Y85.197 E10.58449
G1 X102.467 Y87.826 E10.70325
G1 X102.678 Y90.527 E10.82548
G1 X102.971 Y93.272 E10.95003
G1 X103.046 Y93.998 E10.98296
G1 X103.058 Y94.626 E11.0113
G1 X103.058 Y97.442 E11.13835
G1 X103.048 Y98.144 E11.17002
G1 X103.001 Y98.647 E11.19282
G1 X102.875 Y99.137 E11.21564
G1 X102.673 Y99.6 E11.23843
G1 X102.402 Y100.027 E11.26125
G1 X102.053 Y100.426 E11.28517
G1 X101.79 Y100.696 E11.30217
G1 X100.883 Y101.604 E11.36007
G1 X100.378 Y102.093 E11.39179
G1 X99.988 Y102.415 E11.41461
G1 X99.414 Y102.734 E11.44423
G1 X99.259 Y102.801 E11.45185
G1 X96.709 Y103.933 E11.57773
G1 X94.25 Y105.108 E11.70068
G1 X91.74 Y106.396 E11.82797
G1 X90.756 Y106.919 E11.87824
G1 X90.292 Y107.12 E11.90106
G1 X89.803 Y107.246 E11.92384
G1 X89.212 Y107.296 E11.9506
G1 X88.735 Y107.303 E11.97212
G1 X85.919 Y107.303 E12.09917
G1 X85.218 Y107.293 E12.1308
G1 X84.715 Y107.246 E12.15359
G1 X84.225 Y107.12 E12.17642
G1 X83.762 Y106.918 E12.19921
G1 X83.335 Y106.646 E12.22205
G1 X82.942 Y106.305 E12.24553
G1 X82.672 Y106.043 E12.2625
G1 X81.744 Y105.114 E12.32174
G1 X81.271 Y104.627 E12.35237
G1 X80.948 Y104.237 E12.37522
G1 X80.659 Y103.735 E12.40135
G1 X80.398 Y103.168 E12.42951
G1 X79.227 Y100.716 E12.55211
G1 X77.97 Y98.266 E12.67634
G1 X77.125 Y96.726 E12.75559
G1 X76.865 Y96.233 E12.78074
G1 X76.665 Y95.768 E12.80358
G1 X76.541 Y95.278 E12.82638
G1 X76.502 Y94.945 E12.84151
G1 X76.445 Y94.054 E12.88179
G1 X76.401 Y93.153 E12.92249
G1 X76.218 Y90.804 E13.02879
G1 X76.192 Y90.271 E13.05286
G1 X76.196 Y89.711 E13.07813
G1 X76.204 Y89.53 E13.0863
G1 X76.268 Y88.643 E13.12643
G1 X76.359 Y87.58 E13.17456
G1 X76.471 Y85.591 E13.26444
G1 X76.504 Y85.126 E13.28547
G1 X76.58 Y84.627 E13.30825
G1 X76.733 Y84.145 E13.33106
G1 X76.96 Y83.693 E13.35388
G1 X77.121 Y83.453 E13.36692
G1 X77.69 Y82.683 E13.41012
G1 X78.199 Y82.014 E13.44804
G1 X79.785 Y79.805 E13.57073
G1 X81.327 Y77.524 E13.69495
G1 X82.163 Y76.207 E13.76533
G1 X82.521 Y75.661 E13.79479
G1 X82.841 Y75.251 E13.81825
G1 F2400 E12.61825
;MESH:clip-mini_clip_holder.stl(1)
G0 F3000 X86.594 Y77.983
;TYPE:WALL-INNER
G1 F2400 E13.81825
G1 F1500 X87.474 Y77.103 E13.8744
G1 X90.314 Y77.103 E14.00253
G1 X91.194 Y77.983 E14.05868
G1 X91.194 Y80.823 E14.18681
G1 X90.314 Y81.703 E14.24296
G1 X87.474 Y81.703 E14.37109
G1 X86.594 Y80.823 E14.42724
G1 X86.594 Y77.983 E14.55537
G0 F3000 X86.194 Y77.817
G1 F1500 X87.308 Y76.703 E14.62645
G1 X90.48 Y76.703 E14.76956
G1 X91.594 Y77.817 E14.84064
G1 X91.594 Y80.989 E14.98375
G1 X90.48 Y82.103 E15.05483
G1 X87.308 Y82.103 E15.19794
G1 X86.194 Y80.989 E15.26902
G1 X86.194 Y77.817 E15.41213
G0 F3000 X85.794 Y77.651
G1 F1500 X87.142 Y76.303 E15.49813
G1 X90.646 Y76.303 E15.65622
G1 X91.994 Y77.651 E15.74223
G1 X91.994 Y81.155 E15.90032
G1 X90.646 Y82.503 E15.98633
G1 X87.142 Y82.503 E16.14442
G1 X85.794 Y81.155 E16.23043
G1 X85.794 Y77.651 E16.38852
G0 F3000 X85.394 Y77.485
;TYPE:WALL-OUTER
G1 F1500 X86.976 Y75.903 E16.48946
G1 X90.812 Y75.903 E16.66252
G1 X92.394 Y77.485 E16.76346
G1 X92.394 Y81.321 E16.93653
G1 X90.812 Y82.903 E17.03747
G1 X86.976 Y82.903 E17.21054
G1 X85.394 Y81.321 E17.31147
G1 X85.394 Y77.485 E17.48454
G0 F3000 X85.535 Y77.344
G0 X85.846 Y77.655
G1 F2400 E16.28454
G0 F3000 X86.984 Y78.143
;TYPE:SKIN
G1 F2400 E17.48454
G1 F1500 X87.634 Y77.493 E17.52681
G1 X90.154 Y77.493 E17.64267
G1 X90.804 Y78.143 E17.68494
G1 X90.804 Y80.663 E17.80081
G1 X90.154 Y81.313 E17.84307
G1 X87.634 Y81.313 E17.95894
G1 X86.984 Y80.663 E18.0012
G1 X86.984 Y78.143 E18.11707
G1 F2400 E16.91707
G0 F3000 X87.92 Y81.132
G1 F2400 E18.11707
G1 F1500 X87.163 Y80.375 E18.16629
G0 F3000 X87.163 Y79.809
G1 F1500 X88.486 Y81.132 E18.25232
G0 F3000 X89.052 Y81.132
G1 F1500 X87.163 Y79.244 E18.37512
G0 F3000 X87.163 Y78.678
G1 F1500 X89.618 Y81.132 E18.53472
G0 F3000 X90.131 Y81.08
G1 F1500 X87.215 Y78.164 E18.72433
G0 F3000 X87.498 Y77.882
G1 F1500 X90.414 Y80.797 E18.91391
G0 F3000 X90.623 Y80.441
G1 F1500 X87.855 Y77.673 E19.09389
G0 F3000 X88.421 Y77.673
G1 F1500 X90.623 Y79.875 E19.23707
G0 F3000 X90.623 Y79.309
G1 F1500 X88.987 Y77.673 E19.34345
G0 F3000 X89.552 Y77.673
G1 F1500 X90.623 Y78.744 E19.41309
G1 X90.693 Y78.814
G1 F2400 E18.21309
;MESH:clip-mini_clip.stl
G0 F3000 X95.594 Y85.343
;TYPE:WALL-INNER
G1 F2400 E19.41309
G1 F1500 X97.492 Y85.343 E19.49873
G1 X97.799 Y85.548 E19.51538
G1 X97.492 Y85.753 E19.5241
G1 X95.594 Y85.753 E19.59728
G1 X95.287 Y85.548 E19.61394
G1 X95.594 Y85.343 E19.62266
G1 F2400 E18.42266
G0 F3000 X95.438 Y82.001
G1 F2400 E19.62266
G1 F1500 X94.838 Y81.402 E19.66091
G1 X94.838 Y81.093 E19.67485
G1 X95.088 Y80.843 E19.6908
G1 X95.264 Y80.843 E19.69874
G1 X95.448 Y81.064 E19.71172
G1 X95.448 Y82.001 E19.75399
G1 X95.448 Y84.943 E19.88672
G1 X97.638 Y84.943 E19.98553
G1 X97.638 Y82.001 E20.11826
G1 X97.638 Y81.064 E20.16054
G1 X97.822 Y80.843 E20.17351
G1 X97.998 Y80.843 E20.18145
G1 X98.248 Y81.093 E20.1974
G1 X98.248 Y81.402 E20.21134
G1 X97.648 Y82.001 E20.2496
G1 X97.648 Y84.966 E20.25596
G1 X98.52 Y85.548 E20.30326
G1 X97.648 Y86.13 E20.35056
G1 X97.648 Y89.095 E20.48433
G1 X98.248 Y89.694 E20.52258
G1 X98.248 Y90.003 E20.53652
G1 X97.998 Y90.253 E20.55247
G1 X97.822 Y90.253 E20.56041
G1 X97.638 Y90.032 E20.57339
G1 X97.638 Y89.095 E20.61566
G1 X97.638 Y86.153 E20.62099
G1 X95.448 Y86.153 E20.71979
G1 X95.448 Y89.095 E20.85253
G1 X95.448 Y90.032 E20.8948
G1 X95.264 Y90.253 E20.90777
G1 X95.088 Y90.253 E20.91572
G1 X94.838 Y90.003 E20.93167
G1 X94.838 Y89.694 E20.94561
G1 X95.438 Y89.095 E20.98386
G1 X95.438 Y86.13 E20.99022
G1 X94.566 Y85.548 E21.03752
G1 X95.438 Y84.966 E21.08482
G1 X95.438 Y82.001 E21.09118
G0 F3000 X95.043 Y82.165
;TYPE:WALL-OUTER
G1 F1500 X94.443 Y81.566 E21.12943
G1 X94.443 Y80.93 E21.15813
G1 X94.925 Y80.448 E21.18888
G1 X95.449 Y80.448 E21.21252
G1 X95.843 Y80.921 E21.2403
G1 X95.843 Y84.548 E21.40394
G1 X97.243 Y84.548 E21.4671
G1 X97.243 Y80.921 E21.63074
G1 X97.637 Y80.448 E21.65851
G1 X98.161 Y80.448 E21.68215
G1 X98.643 Y80.93 E21.71291
G1 X98.643 Y81.566 E21.7416
G1 X98.043 Y82.165 E21.77985
G1 X98.043 Y84.755 E21.8967
G1 X98.943 Y85.355 E21.94551
G1 X98.943 Y85.741 E21.96292
G1 X98.043 Y86.341 E22.01172
G1 X98.043 Y88.931 E22.12857
G1 X98.643 Y89.53 E22.16682
G1 X98.643 Y90.166 E22.19552
G1 X98.161 Y90.648 E22.22627
G1 X97.637 Y90.648 E22.24991
G1 X97.243 Y90.175 E22.27769
G1 X97.243 Y86.548 E22.44133
G1 X95.843 Y86.548 E22.50449
G1 X95.843 Y90.175 E22.66813
G1 X95.449 Y90.648 E22.6959
G1 X94.925 Y90.648 E22.71954
G1 X94.443 Y90.166 E22.7503
G1 X94.443 Y89.53 E22.77899
G1 X95.043 Y88.931 E22.81724
G1 X95.043 Y86.341 E22.93409
G1 X94.143 Y85.741 E22.9829
G1 X94.143 Y85.355 E23.00031
G1 X95.043 Y84.755 E23.04911
G1 X95.043 Y82.165 E23.16596
G0 F3000 X94.902 Y82.024
G0 X95.213 Y81.714
G1 F2400 E21.96596
;MESH:clip-mini_clip.stl(1)
G0 F3000 X89.548 Y89.655
;TYPE:WALL-INNER
G1 F2400 E23.16596
G1 F1500 X89.855 Y89.86 E23.18262
G1 X89.548 Y90.065 E23.19134
G1 X87.65 Y90.065 E23.27697
G1 X87.343 Y89.86 E23.29363
G1 X87.65 Y89.655 E23.30234
G1 X89.548 Y89.655 E23.37553
G1 F2400 E22.17553
G0 F3000 X89.704 Y86.313
G1 F2400 E23.37553
G1 F1500 X89.704 Y89.278 E23.5093
G1 X90.576 Y89.86 E23.5566
G1 X89.704 Y90.442 E23.6039
G1 X89.704 Y93.407 E23.73767
G1 X90.304 Y94.006 E23.77592
G1 X90.304 Y94.315 E23.78986
G1 X90.054 Y94.565 E23.80581
G1 X89.878 Y94.565 E23.81375
G1 X89.694 Y94.344 E23.82673
G1 X89.694 Y93.407 E23.869
G1 X89.694 Y90.465 E23.87433
G1 X87.504 Y90.465 E23.97313
G1 X87.504 Y93.407 E24.10587
G1 X87.504 Y94.344 E24.14814
G1 X87.32 Y94.565 E24.16112
G1 X87.144 Y94.565 E24.16906
G1 X86.894 Y94.315 E24.18501
G1 X86.894 Y94.006 E24.19895
G1 X87.494 Y93.407 E24.2372
G1 X87.494 Y90.442 E24.24356
G1 X86.622 Y89.86 E24.29086
G1 X87.494 Y89.278 E24.33816
G1 X87.494 Y86.313 E24.47193
G1 X86.894 Y85.714 E24.51018
G1 X86.894 Y85.405 E24.52412
G1 X87.144 Y85.155 E24.54008
G1 X87.32 Y85.155 E24.54802
G1 X87.504 Y85.376 E24.56099
G1 X87.504 Y86.313 E24.60326
G1 X87.504 Y89.255 E24.60859
G1 X89.694 Y89.255 E24.7074
G1 X89.694 Y86.313 E24.71272
G1 X89.694 Y85.376 E24.755
G1 X89.878 Y85.155 E24.76797
G1 X90.054 Y85.155 E24.77591
G1 X90.304 Y85.405 E24.79186
G1 X90.304 Y85.714 E24.8058
G1 X89.704 Y86.313 E24.84405
G0 F3000 X90.099 Y86.477
;TYPE:WALL-OUTER
G1 F1500 X90.099 Y89.067 E24.96091
G1 X90.999 Y89.667 E25.00971
G1 X90.999 Y90.053 E25.02712
G1 X90.099 Y90.653 E25.07592
G1 X90.099 Y93.243 E25.19278
G1 X90.699 Y93.842 E25.23103
G1 X90.699 Y94.478 E25.25972
G1 X90.217 Y94.96 E25.29047
G1 X89.693 Y94.96 E25.31412
G1 X89.299 Y94.487 E25.34189
