;FLAVOR:Marlin
;TIME:8225
;Filament used: 13.7932m
;Layer height: 0.3
;MINX:26
;MINY:26.5
;MINZ:0.3
;MAXX:154
;MAXY:154.5
;MAXZ:9.9
;Generated with Cura_SteamEngine 4.12.1
M82 ;absolute extrusion mode
G21 ;metric values
G90 ;absolute positioning
M82 ;set extruder to absolute mode
M107 ;start with the fan off

M104 S200 T0 ; start heating T0 to what is set in Cura
M140 S60 ; start heating the bed to what is set in Cura
M190 S60 ; start heating the bed to what is set in Cura
M109 S200 T0 ; start heating T0 to what is set in Cura

G28 X0 Y0 ;move X/Y to min endstops
G28 Z0 ;move Z to min endstops
G1 Z15.0 F2400 ;move the platform down 15mm
G92 E0 ;zero the extruded length
G1 F200 E3 ;extrude 3mm of feed stock
G92 E0 ;zero the extruded length again
G1 F2400
G0 Y20 F2400
M117 Printing...
G5
G92 E0
G92 E0
G1 F2400 E-1.2
;LAYER_COUNT:33
;LAYER:0
M107
G0 F3000 X27.406 Y27.472 Z0.3
;TYPE:SKIRT
G1 F2400 E0
G1 F1500 X27.86 Y27.135 E0.02551
G1 X28.357 Y26.866 E0.05101
G1 X28.887 Y26.669 E0.07652
G1 X29.44 Y26.55 E0.10204
G1 X30.218 Y26.502 E0.1372
G1 X30.33 Y26.5 E0.14226
G1 X149.35 Y26.5 E5.51205
G1 X150.048 Y26.51 E5.54354
G1 X150.612 Y26.558 E5.56908
G1 X151.162 Y26.685 E5.59455
G1 X151.69 Y26.889 E5.62009
G1 X152.184 Y27.164 E5.64559
G1 X152.633 Y27.507 E5.67109
G1 X153.03 Y27.909 E5.69658
G1 X153.367 Y28.364 E5.72212
G1 X153.635 Y28.861 E5.7476
G1 X153.831 Y29.391 E5.77309
G1 X153.951 Y29.944 E5.79862
G1 X153.998 Y30.718 E5.83361
G1 X154 Y30.83 E5.83866
G1 X154 Y149.814 E11.20683
G1 X153.991 Y150.541 E11.23963
G1 X153.944 Y151.104 E11.26512
G1 X153.818 Y151.655 E11.29062
G1 X153.616 Y152.183 E11.31613
G1 X153.341 Y152.677 E11.34163
G1 X152.999 Y153.127 E11.36713
G1 X152.597 Y153.525 E11.39266
G1 X152.144 Y153.862 E11.41813
G1 X151.647 Y154.132 E11.44365
G1 X151.117 Y154.329 E11.46916
G1 X150.565 Y154.45 E11.49465
G1 X149.782 Y154.498 E11.53005
G1 X149.67 Y154.5 E11.5351
G1 X30.655 Y154.5 E16.90467
G1 X29.957 Y154.491 E16.93616
G1 X29.394 Y154.443 E16.96165
G1 X28.843 Y154.317 E16.98715
G1 X28.315 Y154.115 E17.01266
G1 X27.821 Y153.84 E17.03817
G1 X27.371 Y153.498 E17.06367
G1 X26.973 Y153.096 E17.08919
G1 X26.637 Y152.642 E17.11467
G1 X26.367 Y152.145 E17.14019
G1 X26.17 Y151.615 E17.1657
G1 X26.05 Y151.063 E17.19119
G1 X26.001 Y150.266 E17.22721
G1 X26 Y31.12 E22.60269
G1 X26.009 Y30.455 E22.63269
G1 X26.057 Y29.892 E22.65819
G1 X26.183 Y29.341 E22.68369
G1 X26.386 Y28.813 E22.70921
G1 X26.662 Y28.319 E22.73474
G1 X27.004 Y27.869 E22.76024
G1 X27.406 Y27.472 E22.78573
G0 F3000 X27.794 Y27.671
G1 F1500 X28.241 Y27.373 E22.80997
G1 X28.726 Y27.145 E22.83415
G1 X29.24 Y26.992 E22.85834
G1 X29.908 Y26.91 E22.88871
G1 X30.33 Y26.9 E22.90775
G1 X149.345 Y26.9 E28.27732
G1 X150.043 Y26.91 E28.30881
G1 X150.577 Y26.958 E28.333
G1 X151.098 Y27.084 E28.35718
G1 X151.595 Y27.287 E28.38141
G1 X152.056 Y27.561 E28.4056
G1 X152.471 Y27.9 E28.42978
G1 X152.831 Y28.298 E28.45399
G1 X153.128 Y28.744 E28.47816
G1 X153.356 Y29.23 E28.50238
G1 X153.508 Y29.744 E28.52657
G1 X153.59 Y30.409 E28.5568
G1 X153.6 Y30.83 E28.5758
G1 X153.6 Y149.809 E33.94374
G1 X153.591 Y150.536 E33.97654
G1 X153.544 Y151.07 E34.00072
G1 X153.419 Y151.591 E34.0249
G1 X153.217 Y152.088 E34.0491
G1 X152.944 Y152.55 E34.07331
G1 X152.606 Y152.966 E34.0975
G1 X152.209 Y153.327 E34.1217
G1 X151.763 Y153.625 E34.14591
G1 X151.278 Y153.853 E34.17008
G1 X150.764 Y154.007 E34.19429
G1 X150.092 Y154.09 E34.22484
G1 X149.67 Y154.1 E34.24389
G1 X30.661 Y154.1 E39.61318
G1 X29.963 Y154.091 E39.64467
G1 X29.428 Y154.044 E39.6689
G1 X28.907 Y153.918 E39.69309
G1 X28.41 Y153.716 E39.71729
G1 X27.949 Y153.443 E39.74146
G1 X27.533 Y153.104 E39.76568
G1 X27.172 Y152.708 E39.78985
G1 X26.874 Y152.262 E39.81405
G1 X26.646 Y151.776 E39.83827
G1 X26.493 Y151.262 E39.86247
G1 X26.41 Y150.588 E39.89311
G1 X26.4 Y150.158 E39.91251
G1 X26.4 Y31.125 E45.28289
G1 X26.409 Y30.46 E45.31289
G1 X26.457 Y29.926 E45.33708
G1 X26.583 Y29.405 E45.36127
G1 X26.785 Y28.908 E45.38547
G1 X27.058 Y28.447 E45.40964
G1 X27.397 Y28.031 E45.43385
G1 X27.794 Y27.671 E45.45803
G0 F3000 X27.789 Y28.204
G1 F1500 X28.18 Y27.883 E45.48086
G1 X28.617 Y27.628 E45.50368
G1 X29.088 Y27.444 E45.5265
G1 X29.582 Y27.338 E45.54929
G1 X30.24 Y27.301 E45.57903
G1 X149.339 Y27.3 E50.95238
G1 X150.037 Y27.31 E50.98388
G1 X150.54 Y27.357 E51.00667
G1 X151.03 Y27.483 E51.0295
G1 X151.494 Y27.685 E51.05233
G1 X151.92 Y27.957 E51.07513
G1 X152.298 Y28.292 E51.09792
G1 X152.618 Y28.683 E51.12071
G1 X152.873 Y29.12 E51.14354
G1 X153.056 Y29.591 E51.16634
G1 X153.163 Y30.085 E51.18914
G1 X153.199 Y30.74 E51.21874
G1 X153.2 Y149.804 E56.59051
G1 X153.191 Y150.531 E56.62332
G1 X153.145 Y151.034 E56.64611
G1 X153.02 Y151.524 E56.66892
G1 X152.819 Y151.988 E56.69173
G1 X152.548 Y152.415 E56.71455
G1 X152.213 Y152.794 E56.73737
G1 X151.823 Y153.115 E56.76016
G1 X151.387 Y153.371 E56.78297
G1 X150.916 Y153.554 E56.80577
G1 X150.422 Y153.662 E56.82859
G1 X149.76 Y153.699 E56.8585
G1 X30.666 Y153.7 E62.23163
G1 X29.968 Y153.691 E62.26312
G1 X29.464 Y153.644 E62.28596
G1 X28.974 Y153.519 E62.30877
G1 X28.51 Y153.318 E62.33159
G1 X28.084 Y153.047 E62.35437
G1 X27.705 Y152.712 E62.37719
G1 X27.384 Y152.321 E62.40001
G1 X27.129 Y151.885 E62.4228
G1 X26.945 Y151.414 E62.44562
G1 X26.838 Y150.92 E62.46842
G1 X26.801 Y150.244 E62.49896
G1 X26.8 Y31.131 E67.87295
G1 X26.809 Y30.466 E67.90296
G1 X26.856 Y29.962 E67.92579
G1 X26.982 Y29.473 E67.94858
G1 X27.183 Y29.009 E67.97139
G1 X27.454 Y28.582 E67.99421
G1 X27.789 Y28.204 E68.017
G1 F2400 E66.817
;MESH:clip_grid_2cm_type_c.stl
G0 F3000 X36.851 Y36.1
;TYPE:WALL-INNER
G1 F2400 E68.017
G1 F1500 X35.6 Y37.351 E68.09681
G1 X35.6 Y43.649 E68.38096
G1 X36.851 Y44.9 E68.46078
G1 X43.149 Y44.9 E68.74492
G1 X44.4 Y43.649 E68.82474
G1 X44.4 Y37.351 E69.10889
G1 X43.149 Y36.1 E69.18871
G1 X36.851 Y36.1 E69.47285
G0 F3000 X37.017 Y36.5
;TYPE:WALL-OUTER
G1 F1500 X36 Y37.517 E69.53774
G1 X36 Y43.483 E69.80691
G1 X37.017 Y44.5 E69.8718
G1 X42.983 Y44.5 E70.14097
G1 X44 Y43.483 E70.20585
G1 X44 Y37.517 E70.47502
G1 X42.983 Y36.5 E70.53991
G1 X37.017 Y36.5 E70.80908
G0 F3000 X36.876 Y36.641
G0 X36.565 Y36.33
G1 F2400 E69.60908
G0 F3000 X44.39 Y44.891
;TYPE:WALL-INNER
G1 F2400 E70.80908
G1 F1500 X44.39 Y56.86 E71.34908
G1 X44.39 Y57.341 E71.37078
G1 X44.05 Y57.001 E71.38244
G1 X43.149 Y56.1 E71.43993
G1 X36.851 Y56.1 E71.72407
G1 X35.6 Y57.351 E71.80389
G1 X35.6 Y63.649 E72.08804
G1 X36.851 Y64.9 E72.16786
G1 X43.149 Y64.9 E72.452
G1 X44.05 Y63.999 E72.50949
G1 X44.39 Y63.659 E72.53118
G1 X44.39 Y64.14 E72.54287
G1 X44.39 Y76.86 E73.11675
G1 X44.39 Y77.341 E73.13845
G1 X44.05 Y77.001 E73.15011
G1 X43.149 Y76.1 E73.2076
G1 X36.851 Y76.1 E73.49175
G1 X35.6 Y77.351 E73.57157
G1 X35.6 Y83.649 E73.85571
G1 X36.851 Y84.9 E73.93553
G1 X43.149 Y84.9 E74.21968
G1 X44.05 Y83.999 E74.27717
G1 X44.39 Y83.659 E74.29886
G1 X44.39 Y84.14 E74.31054
G1 X44.391 Y96.861 E74.88447
G1 X44.391 Y97.342 E74.90617
G1 X44.051 Y97.002 E74.91784
G1 X43.149 Y96.1 E74.97539
G1 X36.851 Y96.1 E75.25953
G1 X35.6 Y97.351 E75.33935
G1 X35.6 Y103.649 E75.6235
G1 X36.851 Y104.9 E75.70332
G1 X43.149 Y104.9 E75.98746
G1 X44.051 Y103.998 E76.04501
G1 X44.391 Y103.658 E76.06671
G1 X44.391 Y104.139 E76.07839
G1 X44.391 Y116.861 E76.65237
G1 X44.391 Y117.342 E76.67407
G1 X44.051 Y117.002 E76.68573
G1 X43.149 Y116.1 E76.74328
G1 X36.851 Y116.1 E77.02742
G1 X35.6 Y117.351 E77.10724
G1 X35.6 Y123.649 E77.39139
G1 X36.851 Y124.9 E77.47121
G1 X43.149 Y124.9 E77.75535
G1 X44.051 Y123.998 E77.81291
G1 X44.391 Y123.658 E77.8346
G1 X44.391 Y124.139 E77.84628
G1 X44.391 Y136.11 E78.38638
G1 X56.36 Y136.11 E78.92638
G1 X56.841 Y136.11 E78.94808
G1 X56.501 Y136.45 E78.95974
G1 X55.6 Y137.351 E79.01723
G1 X55.6 Y143.649 E79.30137
G1 X56.851 Y144.9 E79.38119
G1 X63.149 Y144.9 E79.66534
G1 X64.4 Y143.649 E79.74516
G1 X64.4 Y137.351 E80.0293
G1 X63.499 Y136.45 E80.08679
G1 X63.159 Y136.11 E80.10848
G1 X63.64 Y136.11 E80.12017
G1 X75.61 Y136.11 E80.66022
G1 X75.61 Y124.14 E81.20026
G1 X75.61 Y123.659 E81.22196
G1 X75.95 Y123.999 E81.23362
G1 X76.851 Y124.9 E81.29111
G1 X83.149 Y124.9 E81.57526
G1 X84.4 Y123.649 E81.65508
G1 X84.4 Y117.351 E81.93922
G1 X83.149 Y116.1 E82.01904
G1 X76.851 Y116.1 E82.30319
G1 X75.95 Y117.001 E82.36068
G1 X75.61 Y117.341 E82.38237
G1 X75.61 Y116.86 E82.39405
G1 X75.61 Y104.14 E82.96794
G1 X75.61 Y103.659 E82.98964
G1 X75.95 Y103.999 E83.0013
G1 X76.851 Y104.9 E83.05879
G1 X83.149 Y104.9 E83.34293
G1 X84.4 Y103.649 E83.42275
G1 X84.4 Y97.351 E83.7069
G1 X83.149 Y96.1 E83.78672
G1 X76.851 Y96.1 E84.07086
G1 X75.95 Y97.001 E84.12835
G1 X75.61 Y97.341 E84.15004
G1 X75.61 Y96.86 E84.16173
G1 X75.609 Y84.139 E84.73566
G1 X75.609 Y83.658 E84.75736
G1 X75.949 Y83.998 E84.76902
G1 X76.851 Y84.9 E84.82657
G1 X83.149 Y84.9 E85.11072
G1 X84.4 Y83.649 E85.19054
G1 X84.4 Y77.351 E85.47468
G1 X83.149 Y76.1 E85.5545
G1 X76.851 Y76.1 E85.83865
G1 X75.949 Y77.002 E85.8962
G1 X75.609 Y77.342 E85.91789
G1 X75.609 Y76.861 E85.92958
G1 X75.609 Y64.139 E86.50355
G1 X75.609 Y63.658 E86.52525
G1 X75.949 Y63.998 E86.53691
G1 X76.851 Y64.9 E86.59446
G1 X83.149 Y64.9 E86.87861
G1 X84.4 Y63.649 E86.95843
G1 X84.4 Y57.351 E87.24257
G1 X83.149 Y56.1 E87.32239
G1 X76.851 Y56.1 E87.60654
G1 X75.949 Y57.002 E87.66409
G1 X75.609 Y57.342 E87.68578
G1 X75.609 Y56.861 E87.69747
G1 X75.609 Y44.89 E88.23756
G1 X63.64 Y44.89 E88.77756
G1 X63.159 Y44.89 E88.79927
G1 X63.499 Y44.55 E88.81093
G1 X64.4 Y43.649 E88.86841
G1 X64.4 Y37.351 E89.15256
G1 X63.149 Y36.1 E89.23238
G1 X56.851 Y36.1 E89.51652
G1 X55.6 Y37.351 E89.59634
G1 X55.6 Y43.649 E89.88049
G1 X56.502 Y44.551 E89.93804
G1 X56.842 Y44.891 E89.95973
G1 X56.361 Y44.891 E89.97142
G1 X44.39 Y44.891 E90.51151
G0 F3000 X44.79 Y45.291
;TYPE:WALL-OUTER
G1 F1500 X44.791 Y135.71 E94.59092
G1 X75.21 Y135.71 E95.96332
G1 X75.209 Y45.29 E100.04278
G1 X44.79 Y45.291 E101.41518
G0 F3000 X44.79 Y45.491
G0 X44.35 Y45.49
G1 F2400 E100.21518
G0 F3000 X42.983 Y56.5
G1 F2400 E101.41518
G1 F1500 X37.017 Y56.5 E101.68435
G1 X36 Y57.517 E101.74924
G1 X36 Y63.483 E102.0184
G1 X37.017 Y64.5 E102.08329
G1 X42.983 Y64.5 E102.35246
G1 X44 Y63.483 E102.41735
G1 X44 Y57.517 E102.68651
G1 X42.983 Y56.5 E102.7514
G0 F3000 X42.783 Y56.5
G0 X42.783 Y56.06
G1 F2400 E101.5514
G0 F3000 X42.983 Y76.5
G1 F2400 E102.7514
G1 F1500 X37.017 Y76.5 E103.02057
G1 X36 Y77.517 E103.08546
G1 X36 Y83.483 E103.35463
G1 X37.017 Y84.5 E103.41951
G1 X42.983 Y84.5 E103.68868
G1 X44 Y83.483 E103.75357
G1 X44 Y77.517 E104.02274
G1 X42.983 Y76.5 E104.08763
G0 F3000 X42.783 Y76.5
G0 X42.783 Y76.06
G1 F2400 E102.88763
G0 F3000 X42.983 Y96.5
G1 F2400 E104.08763
G1 F1500 X37.017 Y96.5 E104.35679
G1 X36 Y97.517 E104.42168
G1 X36 Y103.483 E104.69085
G1 X37.017 Y104.5 E104.75574
G1 X42.983 Y104.5 E105.0249
G1 X44 Y103.483 E105.08979
G1 X44 Y97.517 E105.35896
G1 X42.983 Y96.5 E105.42385
G0 F3000 X42.783 Y96.5
G0 X42.783 Y96.06
G1 F2400 E104.22385
G0 F3000 X42.983 Y116.5
G1 F2400 E105.42385
G1 F1500 X37.017 Y116.5 E105.69301
G1 X36 Y117.517 E105.7579
G1 X36 Y123.483 E106.02707
G1 X37.017 Y124.5 E106.09196
G1 X42.983 Y124.5 E106.36113
G1 X44 Y123.483 E106.42602
G1 X44 Y117.517 E106.69518
G1 X42.983 Y116.5 E106.76007
G0 F3000 X42.783 Y116.5
G0 X42.783 Y116.06
G1 F2400 E105.56007
G0 F3000 X36.851 Y136.1
;TYPE:WALL-INNER
G1 F2400 E106.76007
G1 F1500 X35.6 Y137.351 E106.83989
G1 X35.6 Y143.649 E107.12404
G1 X36.851 Y144.9 E107.20386
G1 X43.149 Y144.9 E107.488
G1 X44.4 Y143.649 E107.56782
G1 X44.4 Y137.351 E107.85196
G1 X43.149 Y136.1 E107.93178
G1 X36.851 Y136.1 E108.21593
G0 F3000 X37.017 Y136.5
;TYPE:WALL-OUTER
G1 F1500 X36 Y137.517 E108.28082
G1 X36 Y143.483 E108.54999
G1 X37.017 Y144.5 E108.61487
G1 X42.983 Y144.5 E108.88404
G1 X44 Y143.483 E108.94893
G1 X44 Y137.517 E109.2181
G1 X42.983 Y136.5 E109.28299
G1 X37.017 Y136.5 E109.55215
G0 F3000 X36.876 Y136.641
G0 X36.565 Y136.33
G1 F2400 E108.35215
G0 F3000 X56 Y137.517
G1 F2400 E109.55215
G1 F1500 X56 Y143.483 E109.82132
G1 X57.017 Y144.5 E109.88621
G1 X62.983 Y144.5 E110.15537
G1 X64 Y143.483 E110.22026
G1 X64 Y137.517 E110.48943
G1 X62.983 Y136.5 E110.55432
G1 X57.017 Y136.5 E110.82349
G1 X56 Y137.517 E110.88837
G0 F3000 X56 Y137.717
G0 X55.56 Y137.717
G1 F2400 E109.68837
G0 F3000 X76.851 Y136.1
;TYPE:WALL-INNER
G1 F2400 E110.88837
G1 F1500 X75.6 Y137.351 E110.96819
G1 X75.6 Y143.649 E111.25234
G1 X76.851 Y144.9 E111.33216
G1 X83.149 Y144.9 E111.6163
G1 X84.4 Y143.649 E111.69612
G1 X84.4 Y137.351 E111.98027
G1 X83.149 Y136.1 E112.06009
G1 X76.851 Y136.1 E112.34423
G0 F3000 X77.017 Y136.5
;TYPE:WALL-OUTER
G1 F1500 X76 Y137.517 E112.40912
G1 X76 Y143.483 E112.67829
G1 X77.017 Y144.5 E112.74318
G1 X82.983 Y144.5 E113.01234
G1 X84 Y143.483 E113.07723
G1 X84 Y137.517 E113.3464
G1 X82.983 Y136.5 E113.41129
G1 X77.017 Y136.5 E113.68046
G0 F3000 X76.876 Y136.641
G0 X76.565 Y136.33
G1 F2400 E112.48046
G0 F3000 X86.751 Y125.4
;TYPE:WALL-INNER
G1 F2400 E113.68046
G1 F1500 X84.9 Y127.251 E113.79856
G1 X84.9 Y129.249 E113.8887
G1 X85.9 Y130.248 E113.95247
G1 X85.9 Y130.752 E113.97521
G1 X84.9 Y131.751 E114.03899
G1 X84.9 Y133.749 E114.12913
G1 X86.751 Y135.6 E114.24723
G1 X88.749 Y135.6 E114.33737
G1 X89.748 Y134.6 E114.40115
G1 X90.252 Y134.6 E114.42389
G1 X91.251 Y135.6 E114.48766
G1 X93.249 Y135.6 E114.5778
G1 X95.1 Y133.749 E114.6959
G1 X95.1 Y131.751 E114.78605
G1 X94.1 Y130.752 E114.84982
G1 X94.1 Y130.248 E114.87256
G1 X95.1 Y129.249 E114.93633
G1 X95.1 Y127.251 E115.02648
G1 X93.249 Y125.4 E115.14458
G1 X91.251 Y125.4 E115.23472
G1 X90.252 Y126.4 E115.29849
G1 X89.748 Y126.4 E115.32123
G1 X88.749 Y125.4 E115.38501
G1 X86.751 Y125.4 E115.47515
G0 F3000 X86.917 Y125.8
;TYPE:WALL-OUTER
G1 F1500 X85.3 Y127.417 E115.57832
G1 X85.3 Y129.083 E115.65348
G1 X86.3 Y130.082 E115.71726
G1 X86.3 Y130.918 E115.75498
G1 X85.3 Y131.917 E115.81875
G1 X85.3 Y133.583 E115.89391
G1 X86.917 Y135.2 E115.99708
G1 X88.583 Y135.2 E116.07225
G1 X89.582 Y134.2 E116.13602
G1 X90.418 Y134.2 E116.17374
G1 X91.417 Y135.2 E116.23751
G1 X93.083 Y135.2 E116.31268
G1 X94.7 Y133.583 E116.41585
G1 X94.7 Y131.917 E116.49101
G1 X93.7 Y130.918 E116.55479
G1 X93.7 Y130.082 E116.5925
G1 X94.7 Y129.083 E116.65628
G1 X94.7 Y127.417 E116.73144
G1 X93.083 Y125.8 E116.83461
G1 X91.417 Y125.8 E116.90978
G1 X90.418 Y126.8 E116.97355
G1 X89.582 Y126.8 E117.01127
G1 X88.583 Y125.8 E117.07504
G1 X86.917 Y125.8 E117.1502
G0 F3000 X86.776 Y125.941
G0 X86.465 Y125.63
G1 F2400 E115.9502
G0 F3000 X84 Y123.483
G1 F2400 E117.1502
G1 F1500 X84 Y117.517 E117.41937
G1 X82.983 Y116.5 E117.48426
G1 X77.017 Y116.5 E117.75343
G1 X76 Y117.517 E117.81832
G1 X76 Y123.483 E118.08748
G1 X77.017 Y124.5 E118.15237
G1 X82.983 Y124.5 E118.42154
G1 X84 Y123.483 E118.48643
G0 F3000 X84 Y123.283
G0 X84.44 Y123.283
G1 F2400 E117.28643
G0 F3000 X86.751 Y105.4
;TYPE:WALL-INNER
G1 F2400 E118.48643
G1 F1500 X84.9 Y107.251 E118.60453
G1 X84.9 Y109.249 E118.69467
G1 X85.9 Y110.248 E118.75845
G1 X85.9 Y110.752 E118.78118
G1 X84.9 Y111.751 E118.84496
G1 X84.9 Y113.749 E118.9351
G1 X86.751 Y115.6 E119.0532
G1 X88.749 Y115.6 E119.14335
G1 X89.748 Y114.6 E119.20712
G1 X90.252 Y114.6 E119.22986
G1 X91.251 Y115.6 E119.29363
G1 X93.249 Y115.6 E119.38377
G1 X95.1 Y113.749 E119.50188
G1 X95.1 Y111.751 E119.59202
G1 X94.1 Y110.752 E119.65579
G1 X94.1 Y110.248 E119.67853
G1 X95.1 Y109.249 E119.7423
G1 X95.1 Y107.251 E119.83245
G1 X93.249 Y105.4 E119.95055
G1 X91.251 Y105.4 E120.04069
G1 X90.252 Y106.4 E120.10446
G1 X89.748 Y106.4 E120.1272
G1 X88.749 Y105.4 E120.19098
G1 X86.751 Y105.4 E120.28112
G0 F3000 X86.917 Y105.8
;TYPE:WALL-OUTER
G1 F1500 X85.3 Y107.417 E120.38429
G1 X85.3 Y109.083 E120.45946
G1 X86.3 Y110.082 E120.52323
G1 X86.3 Y110.918 E120.56095
G1 X85.3 Y111.917 E120.62472
G1 X85.3 Y113.583 E120.69988
G1 X86.917 Y115.2 E120.80306
G1 X88.583 Y115.2 E120.87822
G1 X89.582 Y114.2 E120.94199
G1 X90.418 Y114.2 E120.97971
G1 X91.417 Y115.2 E121.04348
G1 X93.083 Y115.2 E121.11865
G1 X94.7 Y113.583 E121.22182
G1 X94.7 Y111.917 E121.29698
G1 X93.7 Y110.918 E121.36076
G1 X93.7 Y110.082 E121.39847
