;FLAVOR:Marlin
;TIME:8457
;Filament used: 14.7849m
;Layer height: 0.3
;MINX:26
;MINY:26
;MINZ:0.3
;MAXX:154
;MAXY:154
;MAXZ:9.9
;Generated with Cura_SteamEngine 4.12.1
M82 ;absolute extrusion mode
G21 ;metric values
G90 ;absolute positioning
M82 ;set extruder to absolute mode
M107 ;start with the fan off

M104 S200 T0 ; start heating T0 to what is set in Cura
M140 S60 ; start heating the bed to what is set in Cura
M190 S60 ; start heating the bed to what is set in Cura
M109 S200 T0 ; start heating T0 to what is set in Cura

G28 X0 Y0 ;move X/Y to min endstops
G28 Z0 ;move Z to min endstops
G1 Z15.0 F2400 ;move the platform down 15mm
G92 E0 ;zero the extruded length
G1 F200 E3 ;extrude 3mm of feed stock
G92 E0 ;zero the extruded length again
G1 F2400
G0 Y20 F2400
M117 Printing...
G5
G92 E0
G92 E0
G1 F2400 E-1.2
;LAYER_COUNT:33
;LAYER:0
M107
G0 F3000 X27.004 Y27.369 Z0.3
;TYPE:SKIRT
G1 F2400 E0
G1 F1500 X27.406 Y26.972 E0.02549
G1 X27.86 Y26.635 E0.051
G1 X28.357 Y26.366 E0.0765
G1 X28.887 Y26.169 E0.10201
G1 X29.44 Y26.05 E0.12753
G1 X30.218 Y26.002 E0.16269
G1 X30.33 Y26 E0.16775
G1 X149.35 Y26 E5.53754
G1 X150.048 Y26.01 E5.56903
G1 X150.612 Y26.058 E5.59457
G1 X151.162 Y26.185 E5.62004
G1 X151.69 Y26.389 E5.64558
G1 X152.184 Y26.664 E5.67109
G1 X152.633 Y27.007 E5.69658
G1 X153.03 Y27.409 E5.72207
G1 X153.367 Y27.864 E5.74761
G1 X153.635 Y28.361 E5.77309
G1 X153.831 Y28.891 E5.79858
G1 X153.951 Y29.444 E5.82411
G1 X153.998 Y30.218 E5.8591
G1 X154 Y30.33 E5.86415
G1 X154 Y149.314 E11.23232
G1 X153.991 Y150.041 E11.26512
G1 X153.944 Y150.604 E11.29061
G1 X153.818 Y151.155 E11.31611
G1 X153.616 Y151.683 E11.34162
G1 X153.341 Y152.177 E11.36712
G1 X152.999 Y152.627 E11.39262
G1 X152.597 Y153.025 E11.41815
G1 X152.144 Y153.362 E11.44362
G1 X151.647 Y153.632 E11.46914
G1 X151.117 Y153.829 E11.49465
G1 X150.565 Y153.95 E11.52014
G1 X149.782 Y153.998 E11.55554
G1 X149.67 Y154 E11.56059
G1 X30.655 Y154 E16.93016
G1 X29.957 Y153.991 E16.96165
G1 X29.394 Y153.943 E16.98714
G1 X28.843 Y153.817 E17.01264
G1 X28.315 Y153.615 E17.03815
G1 X27.821 Y153.34 E17.06366
G1 X27.371 Y152.998 E17.08916
G1 X26.973 Y152.596 E17.11468
G1 X26.637 Y152.142 E17.14016
G1 X26.367 Y151.645 E17.16568
G1 X26.17 Y151.115 E17.19119
G1 X26.05 Y150.563 E17.21668
G1 X26.001 Y149.766 E17.2527
G1 X26 Y30.62 E22.62818
G1 X26.009 Y29.955 E22.65818
G1 X26.057 Y29.392 E22.68368
G1 X26.183 Y28.841 E22.70918
G1 X26.386 Y28.313 E22.7347
G1 X26.662 Y27.819 E22.76023
G1 X27.004 Y27.369 E22.78573
G0 F3000 X27.397 Y27.531
G1 F1500 X27.794 Y27.171 E22.80991
G1 X28.241 Y26.873 E22.83415
G1 X28.726 Y26.645 E22.85833
G1 X29.24 Y26.492 E22.88252
G1 X29.908 Y26.41 E22.91289
G1 X30.33 Y26.4 E22.93193
G1 X149.345 Y26.4 E28.3015
G1 X150.043 Y26.41 E28.33299
G1 X150.577 Y26.458 E28.35718
G1 X151.098 Y26.584 E28.38136
G1 X151.595 Y26.787 E28.40558
G1 X152.056 Y27.061 E28.42978
G1 X152.471 Y27.4 E28.45396
G1 X152.831 Y27.798 E28.47817
G1 X153.128 Y28.244 E28.50234
G1 X153.356 Y28.73 E28.52656
G1 X153.508 Y29.244 E28.55075
G1 X153.59 Y29.909 E28.58098
G1 X153.6 Y30.33 E28.59997
G1 X153.6 Y149.309 E33.96792
G1 X153.591 Y150.036 E34.00072
G1 X153.544 Y150.57 E34.0249
G1 X153.419 Y151.091 E34.04908
G1 X153.217 Y151.588 E34.07328
G1 X152.944 Y152.05 E34.09749
G1 X152.606 Y152.466 E34.12167
G1 X152.209 Y152.827 E34.14588
G1 X151.763 Y153.125 E34.17008
G1 X151.278 Y153.353 E34.19426
G1 X150.764 Y153.507 E34.21847
G1 X150.092 Y153.59 E34.24902
G1 X149.67 Y153.6 E34.26806
G1 X30.661 Y153.6 E39.63736
G1 X29.963 Y153.591 E39.66885
G1 X29.428 Y153.544 E39.69308
G1 X28.907 Y153.418 E39.71727
G1 X28.41 Y153.216 E39.74147
G1 X27.949 Y152.943 E39.76564
G1 X27.533 Y152.604 E39.78985
G1 X27.172 Y152.208 E39.81403
G1 X26.874 Y151.762 E39.83823
G1 X26.646 Y151.276 E39.86245
G1 X26.493 Y150.762 E39.88665
G1 X26.41 Y150.088 E39.91728
G1 X26.4 Y149.658 E39.93669
G1 X26.4 Y30.625 E45.30707
G1 X26.409 Y29.96 E45.33707
G1 X26.457 Y29.426 E45.36126
G1 X26.583 Y28.905 E45.38545
G1 X26.785 Y28.408 E45.40965
G1 X27.058 Y27.947 E45.43382
G1 X27.397 Y27.531 E45.45803
G0 F3000 X27.454 Y28.082
G1 F1500 X27.789 Y27.704 E45.48082
G1 X28.18 Y27.383 E45.50364
G1 X28.617 Y27.128 E45.52647
G1 X29.088 Y26.944 E45.54929
G1 X29.582 Y26.838 E45.57208
G1 X30.24 Y26.801 E45.60181
G1 X149.339 Y26.8 E50.97517
G1 X150.037 Y26.81 E51.00666
G1 X150.54 Y26.857 E51.02946
G1 X151.03 Y26.983 E51.05228
G1 X151.494 Y27.185 E51.07512
G1 X151.92 Y27.457 E51.09792
G1 X152.298 Y27.792 E51.12071
G1 X152.618 Y28.183 E51.1435
G1 X152.873 Y28.62 E51.16633
G1 X153.056 Y29.091 E51.18913
G1 X153.163 Y29.585 E51.21193
G1 X153.199 Y30.24 E51.24153
G1 X153.2 Y149.304 E56.6133
G1 X153.191 Y150.031 E56.6461
G1 X153.145 Y150.534 E56.66889
G1 X153.02 Y151.024 E56.69171
G1 X152.819 Y151.488 E56.71452
G1 X152.548 Y151.915 E56.73734
G1 X152.213 Y152.294 E56.76016
G1 X151.823 Y152.615 E56.78295
G1 X151.387 Y152.871 E56.80576
G1 X150.916 Y153.054 E56.82856
G1 X150.422 Y153.162 E56.85137
G1 X149.76 Y153.199 E56.88129
G1 X30.666 Y153.2 E62.25442
G1 X29.968 Y153.191 E62.28591
G1 X29.464 Y153.144 E62.30875
G1 X28.974 Y153.019 E62.33156
G1 X28.51 Y152.818 E62.35438
G1 X28.084 Y152.547 E62.37716
G1 X27.705 Y152.212 E62.39998
G1 X27.384 Y151.821 E62.4228
G1 X27.129 Y151.385 E62.44559
G1 X26.945 Y150.914 E62.4684
G1 X26.838 Y150.42 E62.49121
G1 X26.801 Y149.744 E62.52175
G1 X26.8 Y30.631 E67.89574
G1 X26.809 Y29.966 E67.92574
G1 X26.856 Y29.462 E67.94858
G1 X26.982 Y28.973 E67.97136
G1 X27.183 Y28.509 E67.99418
G1 X27.454 Y28.082 E68.017
G1 F2400 E66.817
;MESH:clip_grid_2cm_r2.stl
G0 F3000 X36.41 Y35.6
;TYPE:WALL-INNER
G1 F2400 E68.017
G1 F1500 X36.41 Y44.4 E68.41402
G1 X43.59 Y44.4 E68.73796
G1 X43.59 Y35.6 E69.13499
G1 X36.41 Y35.6 E69.45893
G0 F3000 X36.81 Y36
;TYPE:WALL-OUTER
G1 F1500 X36.81 Y44 E69.81986
G1 X43.19 Y44 E70.1077
G1 X43.19 Y36 E70.46864
G1 X36.81 Y36 E70.75648
G0 F3000 X36.81 Y36.2
G0 X36.37 Y36.2
G1 F2400 E69.55648
G0 F3000 X44.9 Y44.9
;TYPE:WALL-INNER
G1 F2400 E70.75648
G1 F1500 X44.9 Y55.1 E71.21667
G1 X55.1 Y55.1 E71.67686
G1 X55.1 Y44.9 E72.13705
G1 X44.9 Y44.9 E72.59724
G0 F3000 X45.3 Y45.3
;TYPE:WALL-OUTER
G1 F1500 X45.3 Y54.7 E73.02134
G1 X54.7 Y54.7 E73.44544
G1 X54.7 Y45.3 E73.86953
G1 X45.3 Y45.3 E74.29363
G0 F3000 X45.3 Y45.5
G0 X44.86 Y45.5
G1 F2400 E73.09363
G0 F3000 X36.41 Y55.6
;TYPE:WALL-INNER
G1 F2400 E74.29363
G1 F1500 X36.41 Y64.4 E74.69066
G1 X43.59 Y64.4 E75.0146
G1 X43.59 Y55.6 E75.41162
G1 X36.41 Y55.6 E75.73556
G0 F3000 X36.81 Y56
;TYPE:WALL-OUTER
G1 F1500 X36.81 Y64 E76.0965
G1 X43.19 Y64 E76.38434
G1 X43.19 Y56 E76.74527
G1 X36.81 Y56 E77.03312
G0 F3000 X36.81 Y56.2
G0 X36.37 Y56.2
G1 F2400 E75.83312
G0 F3000 X44.9 Y64.9
;TYPE:WALL-INNER
G1 F2400 E77.03312
G1 F1500 X44.9 Y75.1 E77.49331
G1 X55.1 Y75.1 E77.9535
G1 X55.1 Y64.9 E78.41369
G1 X44.9 Y64.9 E78.87388
G0 F3000 X45.3 Y65.3
;TYPE:WALL-OUTER
G1 F1500 X45.3 Y74.7 E79.29798
G1 X54.7 Y74.7 E79.72207
G1 X54.7 Y65.3 E80.14617
G1 X45.3 Y65.3 E80.57027
G0 F3000 X45.3 Y65.5
G0 X44.86 Y65.5
G1 F2400 E79.37027
G0 F3000 X36.41 Y75.6
;TYPE:WALL-INNER
G1 F2400 E80.57027
G1 F1500 X36.41 Y84.4 E80.9673
G1 X43.59 Y84.4 E81.29123
G1 X43.59 Y75.6 E81.68826
G1 X36.41 Y75.6 E82.0122
G0 F3000 X36.81 Y76
;TYPE:WALL-OUTER
G1 F1500 X36.81 Y84 E82.37313
G1 X43.19 Y84 E82.66098
G1 X43.19 Y76 E83.02191
G1 X36.81 Y76 E83.30975
G0 F3000 X36.81 Y76.2
G0 X36.37 Y76.2
G1 F2400 E82.10975
G0 F3000 X44.9 Y84.9
;TYPE:WALL-INNER
G1 F2400 E83.30975
G1 F1500 X44.9 Y95.1 E83.76995
G1 X55.1 Y95.1 E84.23014
G1 X55.1 Y84.9 E84.69033
G1 X44.9 Y84.9 E85.15052
G0 F3000 X45.3 Y85.3
;TYPE:WALL-OUTER
G1 F1500 X45.3 Y94.7 E85.57461
G1 X54.7 Y94.7 E85.99871
G1 X54.7 Y85.3 E86.42281
G1 X45.3 Y85.3 E86.8469
G0 F3000 X45.3 Y85.5
G0 X44.86 Y85.5
G1 F2400 E85.6469
G0 F3000 X36.41 Y95.6
;TYPE:WALL-INNER
G1 F2400 E86.8469
G1 F1500 X36.41 Y104.4 E87.24393
G1 X43.59 Y104.4 E87.56787
G1 X43.59 Y95.6 E87.9649
G1 X36.41 Y95.6 E88.28883
G0 F3000 X36.81 Y96
;TYPE:WALL-OUTER
G1 F1500 X36.81 Y104 E88.64977
G1 X43.19 Y104 E88.93761
G1 X43.19 Y96 E89.29855
G1 X36.81 Y96 E89.58639
G0 F3000 X36.81 Y96.2
G0 X36.37 Y96.2
G1 F2400 E88.38639
G0 F3000 X44.9 Y104.9
;TYPE:WALL-INNER
G1 F2400 E89.58639
G1 F1500 X44.9 Y115.1 E90.04658
G1 X55.1 Y115.1 E90.50677
G1 X55.1 Y104.9 E90.96696
G1 X44.9 Y104.9 E91.42715
G0 F3000 X45.3 Y105.3
;TYPE:WALL-OUTER
G1 F1500 X45.3 Y114.7 E91.85125
G1 X54.7 Y114.7 E92.27535
G1 X54.7 Y105.3 E92.69944
G1 X45.3 Y105.3 E93.12354
G0 F3000 X45.3 Y105.5
G0 X44.86 Y105.5
G1 F2400 E91.92354
G0 F3000 X36.41 Y115.6
;TYPE:WALL-INNER
G1 F2400 E93.12354
G1 F1500 X36.41 Y124.4 E93.52057
G1 X43.59 Y124.4 E93.84451
G1 X43.59 Y115.6 E94.24153
G1 X36.41 Y115.6 E94.56547
G0 F3000 X36.81 Y116
;TYPE:WALL-OUTER
G1 F1500 X36.81 Y124 E94.9264
G1 X43.19 Y124 E95.21425
G1 X43.19 Y116 E95.57518
G1 X36.81 Y116 E95.86303
G0 F3000 X36.81 Y116.2
G0 X36.37 Y116.2
G1 F2400 E94.66303
G0 F3000 X44.9 Y124.9
;TYPE:WALL-INNER
G1 F2400 E95.86303
G1 F1500 X44.9 Y135.1 E96.32322
G1 X55.1 Y135.1 E96.78341
G1 X55.1 Y124.9 E97.2436
G1 X44.9 Y124.9 E97.70379
G0 F3000 X45.3 Y125.3
;TYPE:WALL-OUTER
G1 F1500 X45.3 Y134.7 E98.12789
G1 X54.7 Y134.7 E98.55198
G1 X54.7 Y125.3 E98.97608
G1 X45.3 Y125.3 E99.40018
G0 F3000 X45.3 Y125.5
G0 X44.86 Y125.5
G1 F2400 E98.20018
G0 F3000 X36.41 Y135.6
;TYPE:WALL-INNER
G1 F2400 E99.40018
G1 F1500 X36.41 Y144.4 E99.7972
G1 X43.59 Y144.4 E100.12114
G1 X43.59 Y135.6 E100.51817
G1 X36.41 Y135.6 E100.84211
G0 F3000 X36.81 Y136
;TYPE:WALL-OUTER
G1 F1500 X36.81 Y144 E101.20304
G1 X43.19 Y144 E101.49089
G1 X43.19 Y136 E101.85182
G1 X36.81 Y136 E102.13966
G0 F3000 X36.81 Y136.2
G0 X36.37 Y136.2
G1 F2400 E100.93966
G0 F3000 X56.41 Y135.6
;TYPE:WALL-INNER
G1 F2400 E102.13966
G1 F1500 X56.41 Y144.4 E102.53669
G1 X63.59 Y144.4 E102.86063
G1 X63.59 Y135.6 E103.25766
G1 X56.41 Y135.6 E103.58159
G0 F3000 X56.81 Y136
;TYPE:WALL-OUTER
G1 F1500 X56.81 Y144 E103.94253
G1 X63.19 Y144 E104.23037
G1 X63.19 Y136 E104.59131
G1 X56.81 Y136 E104.87915
G0 F3000 X56.81 Y136.2
G0 X56.37 Y136.2
G1 F2400 E103.67915
G0 F3000 X64.9 Y124.9
;TYPE:WALL-INNER
G1 F2400 E104.87915
G1 F1500 X64.9 Y135.1 E105.33934
G1 X75.1 Y135.1 E105.79953
G1 X75.1 Y124.9 E106.25972
G1 X64.9 Y124.9 E106.71991
G0 F3000 X65.3 Y125.3
;TYPE:WALL-OUTER
G1 F1500 X65.3 Y134.7 E107.14401
G1 X74.7 Y134.7 E107.56811
G1 X74.7 Y125.3 E107.9922
G1 X65.3 Y125.3 E108.4163
G0 F3000 X65.3 Y125.5
G0 X64.86 Y125.5
G1 F2400 E107.2163
G0 F3000 X56.41 Y115.6
;TYPE:WALL-INNER
G1 F2400 E108.4163
G1 F1500 X56.41 Y124.4 E108.81333
G1 X63.59 Y124.4 E109.13727
G1 X63.59 Y115.6 E109.53429
G1 X56.41 Y115.6 E109.85823
G0 F3000 X56.81 Y116
;TYPE:WALL-OUTER
G1 F1500 X56.81 Y124 E110.21916
G1 X63.19 Y124 E110.50701
G1 X63.19 Y116 E110.86794
G1 X56.81 Y116 E111.15579
G0 F3000 X56.81 Y116.2
G0 X56.37 Y116.2
G1 F2400 E109.95579
G0 F3000 X64.9 Y104.9
;TYPE:WALL-INNER
G1 F2400 E111.15579
G1 F1500 X64.9 Y115.1 E111.61598
G1 X75.1 Y115.1 E112.07617
G1 X75.1 Y104.9 E112.53636
G1 X64.9 Y104.9 E112.99655
G0 F3000 X65.3 Y105.3
;TYPE:WALL-OUTER
G1 F1500 X65.3 Y114.7 E113.42065
G1 X74.7 Y114.7 E113.84474
G1 X74.7 Y105.3 E114.26884
G1 X65.3 Y105.3 E114.69294
G0 F3000 X65.3 Y105.5
G0 X64.86 Y105.5
G1 F2400 E113.49294
G0 F3000 X56.41 Y95.6
;TYPE:WALL-INNER
G1 F2400 E114.69294
G1 F1500 X56.41 Y104.4 E115.08996
G1 X63.59 Y104.4 E115.4139
G1 X63.59 Y95.6 E115.81093
G1 X56.41 Y95.6 E116.13487
G0 F3000 X56.81 Y96
;TYPE:WALL-OUTER
G1 F1500 X56.81 Y104 E116.4958
G1 X63.19 Y104 E116.78365
G1 X63.19 Y96 E117.14458
G1 X56.81 Y96 E117.43242
G0 F3000 X56.81 Y96.2
G0 X56.37 Y96.2
G1 F2400 E116.23242
G0 F3000 X64.9 Y84.9
;TYPE:WALL-INNER
G1 F2400 E117.43242
G1 F1500 X64.9 Y95.1 E117.89261
G1 X75.1 Y95.1 E118.3528
G1 X75.1 Y84.9 E118.81299
G1 X64.9 Y84.9 E119.27318
G0 F3000 X65.3 Y85.3
;TYPE:WALL-OUTER
G1 F1500 X65.3 Y94.7 E119.69728
G1 X74.7 Y94.7 E120.12138
G1 X74.7 Y85.3 E120.54548
G1 X65.3 Y85.3 E120.96957
G0 F3000 X65.3 Y85.5
G0 X64.86 Y85.5
G1 F2400 E119.76957
G0 F3000 X56.41 Y75.6
;TYPE:WALL-INNER
G1 F2400 E120.96957
G1 F1500 X56.41 Y84.4 E121.3666
G1 X63.59 Y84.4 E121.69054
G1 X63.59 Y75.6 E122.08757
G1 X56.41 Y75.6 E122.4115
G0 F3000 X56.81 Y76
;TYPE:WALL-OUTER
G1 F1500 X56.81 Y84 E122.77244
G1 X63.19 Y84 E123.06028
G1 X63.19 Y76 E123.42122
G1 X56.81 Y76 E123.70906
G0 F3000 X56.81 Y76.2
G0 X56.37 Y76.2
G1 F2400 E122.50906
G0 F3000 X64.9 Y64.9
;TYPE:WALL-INNER
G1 F2400 E123.70906
G1 F1500 X64.9 Y75.1 E124.16925
G1 X75.1 Y75.1 E124.62944
G1 X75.1 Y64.9 E125.08963
G1 X64.9 Y64.9 E125.54982
G0 F3000 X65.3 Y65.3
;TYPE:WALL-OUTER
G1 F1500 X65.3 Y74.7 E125.97392
G1 X74.7 Y74.7 E126.39802
G1 X74.7 Y65.3 E126.82211
G1 X65.3 Y65.3 E127.24621
G0 F3000 X65.3 Y65.5
G0 X64.86 Y65.5
G1 F2400 E126.04621
G0 F3000 X56.41 Y55.6
;TYPE:WALL-INNER
G1 F2400 E127.24621
G1 F1500 X56.41 Y64.4 E127.64324
G1 X63.59 Y64.4 E127.96717
G1 X63.59 Y55.6 E128.3642
G1 X56.41 Y55.6 E128.68814
G0 F3000 X56.81 Y56
;TYPE:WALL-OUTER
G1 F1500 X56.81 Y64 E129.04907
G1 X63.19 Y64 E129.33692
G1 X63.19 Y56 E129.69785
G1 X56.81 Y56 E129.9857
G0 F3000 X56.81 Y56.2
G0 X56.37 Y56.2
G1 F2400 E128.7857
G0 F3000 X64.9 Y44.9
;TYPE:WALL-INNER
G1 F2400 E129.9857
G1 F1500 X64.9 Y55.1 E130.44589
G1 X75.1 Y55.1 E130.90608
G1 X75.1 Y44.9 E131.36627
G1 X64.9 Y44.9 E131.82646
G0 F3000 X65.3 Y45.3
;TYPE:WALL-OUTER
G1 F1500 X65.3 Y54.7 E132.25055
G1 X74.7 Y54.7 E132.67465
G1 X74.7 Y45.3 E133.09875
G1 X65.3 Y45.3 E133.52285
G0 F3000 X65.3 Y45.5
G0 X64.86 Y45.5
G1 F2400 E132.32285
G0 F3000 X56.41 Y35.6
;TYPE:WALL-INNER
G1 F2400 E133.52285
G1 F1500 X56.41 Y44.4 E133.91987
G1 X63.59 Y44.4 E134.24381
G1 X63.59 Y35.6 E134.64084
G1 X56.41 Y35.6 E134.96478
G0 F3000 X56.81 Y36
;TYPE:WALL-OUTER
G1 F1500 X56.81 Y44 E135.32571
G1 X63.19 Y44 E135.61355
G1 X63.19 Y36 E135.97449
G1 X56.81 Y36 E136.26233
G0 F3000 X56.81 Y36.2
G0 X56.37 Y36.2
G1 F2400 E135.06233
G0 F3000 X76.41 Y35.6
;TYPE:WALL-INNER
G1 F2400 E136.26233
G1 F1500 X76.41 Y44.4 E136.65936
G1 X83.59 Y44.4 E136.9833
G1 X83.59 Y35.6 E137.38032
G1 X76.41 Y35.6 E137.70426
G0 F3000 X76.81 Y36
;TYPE:WALL-OUTER
G1 F1500 X76.81 Y44 E138.0652
G1 X83.19 Y44 E138.35304
G1 X83.19 Y36 E138.71397
G1 X76.81 Y36 E139.00182
G0 F3000 X76.81 Y36.2
G0 X76.37 Y36.2
G1 F2400 E137.80182
G0 F3000 X84.9 Y44.9
;TYPE:WALL-INNER
G1 F2400 E139.00182
G1 F1500 X84.9 Y55.1 E139.46201
G1 X95.1 Y55.1 E139.9222
G1 X95.1 Y44.9 E140.38239
G1 X84.9 Y44.9 E140.84258
G0 F3000 X85.3 Y45.3
;TYPE:WALL-OUTER
G1 F1500 X85.3 Y54.7 E141.26668
G1 X94.7 Y54.7 E141.69077
G1 X94.7 Y45.3 E142.11487
G1 X85.3 Y45.3 E142.53897
G0 F3000 X85.3 Y45.5
G0 X84.86 Y45.5
G1 F2400 E141.33897
G0 F3000 X76.41 Y55.6
;TYPE:WALL-INNER
G1 F2400 E142.53897
G1 F1500 X76.41 Y64.4 E142.936
G1 X83.59 Y64.4 E143.25993
G1 X83.59 Y55.6 E143.65696
G1 X76.41 Y55.6 E143.9809
G0 F3000 X76.81 Y56
;TYPE:WALL-OUTER
G1 F1500 X76.81 Y64 E144.34183
G1 X83.19 Y64 E144.62968
G1 X83.19 Y56 E144.99061
G1 X76.81 Y56 E145.27846
G0 F3000 X76.81 Y56.2
G0 X76.37 Y56.2
G1 F2400 E144.07846
G0 F3000 X84.9 Y64.9
;TYPE:WALL-INNER
G1 F2400 E145.27846
G1 F1500 X84.9 Y75.1 E145.73865
G1 X95.1 Y75.1 E146.19884
G1 X95.1 Y64.9 E146.65903
G1 X84.9 Y64.9 E147.11922
G0 F3000 X85.3 Y65.3
;TYPE:WALL-OUTER
G1 F1500 X85.3 Y74.7 E147.54331
G1 X94.7 Y74.7 E147.96741
G1 X94.7 Y65.3 E148.39151
G1 X85.3 Y65.3 E148.81561
G0 F3000 X85.3 Y65.5
G0 X84.86 Y65.5
G1 F2400 E147.61561
G0 F3000 X76.41 Y75.6
;TYPE:WALL-INNER
G1 F2400 E148.81561
G1 F1500 X76.41 Y84.4 E149.21263
G1 X83.59 Y84.4 E149.53657
G1 X83.59 Y75.6 E149.9336
G1 X76.41 Y75.6 E150.25754
G0 F3000 X76.81 Y76
;TYPE:WALL-OUTER
G1 F1500 X76.81 Y84 E150.61847
G1 X83.19 Y84 E150.90631
G1 X83.19 Y76 E151.26725
G1 X76.81 Y76 E151.55509
G0 F3000 X76.81 Y76.2
G0 X76.37 Y76.2
G1 F2400 E150.35509
G0 F3000 X84.9 Y84.9
;TYPE:WALL-INNER
G1 F2400 E151.55509
G1 F1500 X84.9 Y95.1 E152.01528
G1 X95.1 Y95.1 E152.47547
G1 X95.1 Y84.9 E152.93566
G1 X84.9 Y84.9 E153.39585
G0 F3000 X85.3 Y85.3
;TYPE:WALL-OUTER
G1 F1500 X85.3 Y94.7 E153.81995
G1 X94.7 Y94.7 E154.24405
G1 X94.7 Y85.3 E154.66814
G1 X85.3 Y85.3 E155.09224
G0 F3000 X85.3 Y85.5
G0 X84.86 Y85.5
G1 F2400 E153.89224
G0 F3000 X76.41 Y95.6
