;FLAVOR:Marlin
;TIME:9456
;Filament used: 16.4172m
;Layer height: 0.3
;MINX:26
;MINY:26
;MINZ:0.3
;MAXX:154
;MAXY:154
;MAXZ:9.9
;Generated with Cura_SteamEngine 4.12.1
M82 ;absolute extrusion mode
G21 ;metric values
G90 ;absolute positioning
M82 ;set extruder to absolute mode
M107 ;start with the fan off

M104 S200 T0 ; start heating T0 to what is set in Cura
M140 S60 ; start heating the bed to what is set in Cura
M190 S60 ; start heating the bed to what is set in Cura
M109 S200 T0 ; start heating T0 to what is set in Cura

G28 X0 Y0 ;move X/Y to min endstops
G28 Z0 ;move Z to min endstops
G1 Z15.0 F2400 ;move the platform down 15mm
G92 E0 ;zero the extruded length
G1 F200 E3 ;extrude 3mm of feed stock
G92 E0 ;zero the extruded length again
G1 F2400
G0 Y20 F2400
M117 Printing...
G5
G92 E0
G92 E0
G1 F2400 E-1.2
;LAYER_COUNT:33
;LAYER:0
M107
G0 F3000 X27.004 Y27.369 Z0.3
;TYPE:SKIRT
G1 F2400 E0
G1 F1500 X27.406 Y26.972 E0.02549
G1 X27.86 Y26.635 E0.051
G1 X28.357 Y26.366 E0.0765
G1 X28.887 Y26.169 E0.10201
G1 X29.44 Y26.05 E0.12753
G1 X30.218 Y26.002 E0.16269
G1 X30.33 Y26 E0.16775
G1 X149.35 Y26 E5.53754
G1 X150.048 Y26.01 E5.56903
G1 X150.612 Y26.058 E5.59457
G1 X151.162 Y26.185 E5.62004
G1 X151.69 Y26.389 E5.64558
G1 X152.184 Y26.664 E5.67109
G1 X152.633 Y27.007 E5.69658
G1 X153.03 Y27.409 E5.72207
G1 X153.367 Y27.864 E5.74761
G1 X153.635 Y28.361 E5.77309
G1 X153.831 Y28.891 E5.79858
G1 X153.951 Y29.444 E5.82411
G1 X153.998 Y30.218 E5.8591
G1 X154 Y30.33 E5.86415
G1 X154 Y149.314 E11.23232
G1 X153.991 Y150.041 E11.26512
G1 X153.944 Y150.604 E11.29061
G1 X153.818 Y151.155 E11.31611
G1 X153.616 Y151.683 E11.34162
G1 X153.341 Y152.177 E11.36712
G1 X152.999 Y152.627 E11.39262
G1 X152.597 Y153.025 E11.41815
G1 X152.144 Y153.362 E11.44362
G1 X151.647 Y153.632 E11.46914
G1 X151.117 Y153.829 E11.49465
G1 X150.565 Y153.95 E11.52014
G1 X149.782 Y153.998 E11.55554
G1 X149.67 Y154 E11.56059
G1 X30.655 Y154 E16.93016
G1 X29.957 Y153.991 E16.96165
G1 X29.394 Y153.943 E16.98714
G1 X28.843 Y153.817 E17.01264
G1 X28.315 Y153.615 E17.03815
G1 X27.821 Y153.34 E17.06366
G1 X27.371 Y152.998 E17.08916
G1 X26.973 Y152.596 E17.11468
G1 X26.637 Y152.142 E17.14016
G1 X26.367 Y151.645 E17.16568
G1 X26.17 Y151.115 E17.19119
G1 X26.05 Y150.563 E17.21668
G1 X26.001 Y149.766 E17.2527
G1 X26 Y30.62 E22.62818
G1 X26.009 Y29.955 E22.65818
G1 X26.057 Y29.392 E22.68368
G1 X26.183 Y28.841 E22.70918
G1 X26.386 Y28.313 E22.7347
G1 X26.662 Y27.819 E22.76023
G1 X27.004 Y27.369 E22.78573
G0 F3000 X27.397 Y27.531
G1 F1500 X27.794 Y27.171 E22.80991
G1 X28.241 Y26.873 E22.83415
G1 X28.726 Y26.645 E22.85833
G1 X29.24 Y26.492 E22.88252
G1 X29.908 Y26.41 E22.91289
G1 X30.33 Y26.4 E22.93193
G1 X149.345 Y26.4 E28.3015
G1 X150.043 Y26.41 E28.33299
G1 X150.577 Y26.458 E28.35718
G1 X151.098 Y26.584 E28.38136
G1 X151.595 Y26.787 E28.40558
G1 X152.056 Y27.061 E28.42978
G1 X152.471 Y27.4 E28.45396
G1 X152.831 Y27.798 E28.47817
G1 X153.128 Y28.244 E28.50234
G1 X153.356 Y28.73 E28.52656
G1 X153.508 Y29.244 E28.55075
G1 X153.59 Y29.909 E28.58098
G1 X153.6 Y30.33 E28.59997
G1 X153.6 Y149.309 E33.96792
G1 X153.591 Y150.036 E34.00072
G1 X153.544 Y150.57 E34.0249
G1 X153.419 Y151.091 E34.04908
G1 X153.217 Y151.588 E34.07328
G1 X152.944 Y152.05 E34.09749
G1 X152.606 Y152.466 E34.12167
G1 X152.209 Y152.827 E34.14588
G1 X151.763 Y153.125 E34.17008
G1 X151.278 Y153.353 E34.19426
G1 X150.764 Y153.507 E34.21847
G1 X150.092 Y153.59 E34.24902
G1 X149.67 Y153.6 E34.26806
G1 X30.661 Y153.6 E39.63736
G1 X29.963 Y153.591 E39.66885
G1 X29.428 Y153.544 E39.69308
G1 X28.907 Y153.418 E39.71727
G1 X28.41 Y153.216 E39.74147
G1 X27.949 Y152.943 E39.76564
G1 X27.533 Y152.604 E39.78985
G1 X27.172 Y152.208 E39.81403
G1 X26.874 Y151.762 E39.83823
G1 X26.646 Y151.276 E39.86245
G1 X26.493 Y150.762 E39.88665
G1 X26.41 Y150.088 E39.91728
G1 X26.4 Y149.658 E39.93669
G1 X26.4 Y30.625 E45.30707
G1 X26.409 Y29.96 E45.33707
G1 X26.457 Y29.426 E45.36126
G1 X26.583 Y28.905 E45.38545
G1 X26.785 Y28.408 E45.40965
G1 X27.058 Y27.947 E45.43382
G1 X27.397 Y27.531 E45.45803
G0 F3000 X27.454 Y28.082
G1 F1500 X27.789 Y27.704 E45.48082
G1 X28.18 Y27.383 E45.50364
G1 X28.617 Y27.128 E45.52647
G1 X29.088 Y26.944 E45.54929
G1 X29.582 Y26.838 E45.57208
G1 X30.24 Y26.801 E45.60181
G1 X149.339 Y26.8 E50.97517
G1 X150.037 Y26.81 E51.00666
G1 X150.54 Y26.857 E51.02946
G1 X151.03 Y26.983 E51.05228
G1 X151.494 Y27.185 E51.07512
G1 X151.92 Y27.457 E51.09792
G1 X152.298 Y27.792 E51.12071
G1 X152.618 Y28.183 E51.1435
G1 X152.873 Y28.62 E51.16633
G1 X153.056 Y29.091 E51.18913
G1 X153.163 Y29.585 E51.21193
G1 X153.199 Y30.24 E51.24153
G1 X153.2 Y149.304 E56.6133
G1 X153.191 Y150.031 E56.6461
G1 X153.145 Y150.534 E56.66889
G1 X153.02 Y151.024 E56.69171
G1 X152.819 Y151.488 E56.71452
G1 X152.548 Y151.915 E56.73734
G1 X152.213 Y152.294 E56.76016
G1 X151.823 Y152.615 E56.78295
G1 X151.387 Y152.871 E56.80576
G1 X150.916 Y153.054 E56.82856
G1 X150.422 Y153.162 E56.85137
G1 X149.76 Y153.199 E56.88129
G1 X30.666 Y153.2 E62.25442
G1 X29.968 Y153.191 E62.28591
G1 X29.464 Y153.144 E62.30875
G1 X28.974 Y153.019 E62.33156
G1 X28.51 Y152.818 E62.35438
G1 X28.084 Y152.547 E62.37716
G1 X27.705 Y152.212 E62.39998
G1 X27.384 Y151.821 E62.4228
G1 X27.129 Y151.385 E62.44559
G1 X26.945 Y150.914 E62.4684
G1 X26.838 Y150.42 E62.49121
G1 X26.801 Y149.744 E62.52175
G1 X26.8 Y30.631 E67.89574
G1 X26.809 Y29.966 E67.92574
G1 X26.856 Y29.462 E67.94858
G1 X26.982 Y28.973 E67.97136
G1 X27.183 Y28.509 E67.99418
G1 X27.454 Y28.082 E68.017
G1 F2400 E66.817
;MESH:clip_grid_2cm_r2.stl
G0 F3000 X36.01 Y35.2
;TYPE:WALL-INNER
G1 F2400 E68.017
G1 F1500 X36.01 Y44.8 E68.45012
G1 X43.99 Y44.8 E68.81015
G1 X43.99 Y35.2 E69.24327
G1 X36.01 Y35.2 E69.6033
G0 F3000 X36.41 Y35.6
G1 F1500 X36.41 Y44.4 E70.00033
G1 X43.59 Y44.4 E70.32426
G1 X43.59 Y35.6 E70.72129
G1 X36.41 Y35.6 E71.04523
G0 F3000 X36.81 Y36
;TYPE:WALL-OUTER
G1 F1500 X36.81 Y44 E71.40616
G1 X43.19 Y44 E71.69401
G1 X43.19 Y36 E72.05494
G1 X36.81 Y36 E72.34279
G0 F3000 X36.81 Y36.2
G0 X36.37 Y36.2
G1 F2400 E71.14279
G0 F3000 X44.5 Y44.5
;TYPE:WALL-INNER
G1 F2400 E72.34279
G1 F1500 X44.5 Y55.5 E72.83907
G1 X55.5 Y55.5 E73.33535
G1 X55.5 Y44.5 E73.83164
G1 X44.5 Y44.5 E74.32792
G0 F3000 X44.9 Y44.9
G1 F1500 X44.9 Y55.1 E74.78811
G1 X55.1 Y55.1 E75.2483
G1 X55.1 Y44.9 E75.70849
G1 X44.9 Y44.9 E76.16868
G0 F3000 X45.3 Y45.3
;TYPE:WALL-OUTER
G1 F1500 X45.3 Y54.7 E76.59278
G1 X54.7 Y54.7 E77.01688
G1 X54.7 Y45.3 E77.44097
G1 X45.3 Y45.3 E77.86507
G0 F3000 X45.3 Y45.5
G0 X44.86 Y45.5
G1 F2400 E76.66507
G0 F3000 X36.01 Y55.2
;TYPE:WALL-INNER
G1 F2400 E77.86507
G1 F1500 X36.01 Y64.8 E78.29819
G1 X43.99 Y64.8 E78.65822
G1 X43.99 Y55.2 E79.09134
G1 X36.01 Y55.2 E79.45137
G0 F3000 X36.41 Y55.6
G1 F1500 X36.41 Y64.4 E79.8484
G1 X43.59 Y64.4 E80.17234
G1 X43.59 Y55.6 E80.56937
G1 X36.41 Y55.6 E80.8933
G0 F3000 X36.81 Y56
;TYPE:WALL-OUTER
G1 F1500 X36.81 Y64 E81.25424
G1 X43.19 Y64 E81.54208
G1 X43.19 Y56 E81.90302
G1 X36.81 Y56 E82.19086
G0 F3000 X36.81 Y56.2
G0 X36.37 Y56.2
G1 F2400 E80.99086
G0 F3000 X44.5 Y64.5
;TYPE:WALL-INNER
G1 F2400 E82.19086
G1 F1500 X44.5 Y75.5 E82.68714
G1 X55.5 Y75.5 E83.18343
G1 X55.5 Y64.5 E83.67971
G1 X44.5 Y64.5 E84.176
G0 F3000 X44.9 Y64.9
G1 F1500 X44.9 Y75.1 E84.63619
G1 X55.1 Y75.1 E85.09638
G1 X55.1 Y64.9 E85.55657
G1 X44.9 Y64.9 E86.01676
G0 F3000 X45.3 Y65.3
;TYPE:WALL-OUTER
G1 F1500 X45.3 Y74.7 E86.44085
G1 X54.7 Y74.7 E86.86495
G1 X54.7 Y65.3 E87.28905
G1 X45.3 Y65.3 E87.71315
G0 F3000 X45.3 Y65.5
G0 X44.86 Y65.5
G1 F2400 E86.51315
G0 F3000 X36.01 Y75.2
;TYPE:WALL-INNER
G1 F2400 E87.71315
G1 F1500 X36.01 Y84.8 E88.14627
G1 X43.99 Y84.8 E88.5063
G1 X43.99 Y75.2 E88.93942
G1 X36.01 Y75.2 E89.29945
G0 F3000 X36.41 Y75.6
G1 F1500 X36.41 Y84.4 E89.69648
G1 X43.59 Y84.4 E90.02041
G1 X43.59 Y75.6 E90.41744
G1 X36.41 Y75.6 E90.74138
G0 F3000 X36.81 Y76
;TYPE:WALL-OUTER
G1 F1500 X36.81 Y84 E91.10231
G1 X43.19 Y84 E91.39016
G1 X43.19 Y76 E91.75109
G1 X36.81 Y76 E92.03894
G0 F3000 X36.81 Y76.2
G0 X36.37 Y76.2
G1 F2400 E90.83894
G0 F3000 X44.5 Y84.5
;TYPE:WALL-INNER
G1 F2400 E92.03894
G1 F1500 X44.5 Y95.5 E92.53522
G1 X55.5 Y95.5 E93.0315
G1 X55.5 Y84.5 E93.52779
G1 X44.5 Y84.5 E94.02407
G0 F3000 X44.9 Y84.9
G1 F1500 X44.9 Y95.1 E94.48426
G1 X55.1 Y95.1 E94.94445
G1 X55.1 Y84.9 E95.40464
G1 X44.9 Y84.9 E95.86483
G0 F3000 X45.3 Y85.3
;TYPE:WALL-OUTER
G1 F1500 X45.3 Y94.7 E96.28893
G1 X54.7 Y94.7 E96.71303
G1 X54.7 Y85.3 E97.13712
G1 X45.3 Y85.3 E97.56122
G0 F3000 X45.3 Y85.5
G0 X44.86 Y85.5
G1 F2400 E96.36122
G0 F3000 X36.01 Y95.2
;TYPE:WALL-INNER
G1 F2400 E97.56122
G1 F1500 X36.01 Y104.8 E97.99434
G1 X43.99 Y104.8 E98.35437
G1 X43.99 Y95.2 E98.78749
G1 X36.01 Y95.2 E99.14752
G0 F3000 X36.41 Y95.6
G1 F1500 X36.41 Y104.4 E99.54455
G1 X43.59 Y104.4 E99.86849
G1 X43.59 Y95.6 E100.26552
G1 X36.41 Y95.6 E100.58945
G0 F3000 X36.81 Y96
;TYPE:WALL-OUTER
G1 F1500 X36.81 Y104 E100.95039
G1 X43.19 Y104 E101.23823
G1 X43.19 Y96 E101.59917
G1 X36.81 Y96 E101.88701
G0 F3000 X36.81 Y96.2
G0 X36.37 Y96.2
G1 F2400 E100.68701
G0 F3000 X44.5 Y104.5
;TYPE:WALL-INNER
G1 F2400 E101.88701
G1 F1500 X44.5 Y115.5 E102.38329
G1 X55.5 Y115.5 E102.87958
G1 X55.5 Y104.5 E103.37586
G1 X44.5 Y104.5 E103.87215
G0 F3000 X44.9 Y104.9
G1 F1500 X44.9 Y115.1 E104.33234
G1 X55.1 Y115.1 E104.79253
G1 X55.1 Y104.9 E105.25272
G1 X44.9 Y104.9 E105.71291
G0 F3000 X45.3 Y105.3
;TYPE:WALL-OUTER
G1 F1500 X45.3 Y114.7 E106.137
G1 X54.7 Y114.7 E106.5611
G1 X54.7 Y105.3 E106.9852
G1 X45.3 Y105.3 E107.4093
G0 F3000 X45.3 Y105.5
G0 X44.86 Y105.5
G1 F2400 E106.2093
G0 F3000 X36.01 Y115.2
;TYPE:WALL-INNER
G1 F2400 E107.4093
G1 F1500 X36.01 Y124.8 E107.84242
G1 X43.99 Y124.8 E108.20245
G1 X43.99 Y115.2 E108.63557
G1 X36.01 Y115.2 E108.9956
G0 F3000 X36.41 Y115.6
G1 F1500 X36.41 Y124.4 E109.39263
G1 X43.59 Y124.4 E109.71656
G1 X43.59 Y115.6 E110.11359
G1 X36.41 Y115.6 E110.43753
G0 F3000 X36.81 Y116
;TYPE:WALL-OUTER
G1 F1500 X36.81 Y124 E110.79846
G1 X43.19 Y124 E111.08631
G1 X43.19 Y116 E111.44724
G1 X36.81 Y116 E111.73509
G0 F3000 X36.81 Y116.2
G0 X36.37 Y116.2
G1 F2400 E110.53509
G0 F3000 X44.5 Y124.5
;TYPE:WALL-INNER
G1 F2400 E111.73509
G1 F1500 X44.5 Y135.5 E112.23137
G1 X55.5 Y135.5 E112.72765
G1 X55.5 Y124.5 E113.22394
G1 X44.5 Y124.5 E113.72022
G0 F3000 X44.9 Y124.9
G1 F1500 X44.9 Y135.1 E114.18041
G1 X55.1 Y135.1 E114.6406
G1 X55.1 Y124.9 E115.10079
G1 X44.9 Y124.9 E115.56098
G0 F3000 X45.3 Y125.3
;TYPE:WALL-OUTER
G1 F1500 X45.3 Y134.7 E115.98508
G1 X54.7 Y134.7 E116.40918
G1 X54.7 Y125.3 E116.83327
G1 X45.3 Y125.3 E117.25737
G0 F3000 X45.3 Y125.5
G0 X44.86 Y125.5
G1 F2400 E116.05737
G0 F3000 X36.01 Y135.2
;TYPE:WALL-INNER
G1 F2400 E117.25737
G1 F1500 X36.01 Y144.8 E117.69049
G1 X43.99 Y144.8 E118.05052
G1 X43.99 Y135.2 E118.48364
G1 X36.01 Y135.2 E118.84367
G0 F3000 X36.41 Y135.6
G1 F1500 X36.41 Y144.4 E119.2407
G1 X43.59 Y144.4 E119.56464
G1 X43.59 Y135.6 E119.96167
G1 X36.41 Y135.6 E120.2856
G0 F3000 X36.81 Y136
;TYPE:WALL-OUTER
G1 F1500 X36.81 Y144 E120.64654
G1 X43.19 Y144 E120.93438
G1 X43.19 Y136 E121.29532
G1 X36.81 Y136 E121.58316
G0 F3000 X36.81 Y136.2
G0 X36.37 Y136.2
G1 F2400 E120.38316
G0 F3000 X56.01 Y135.2
;TYPE:WALL-INNER
G1 F2400 E121.58316
G1 F1500 X56.01 Y144.8 E122.01628
G1 X63.99 Y144.8 E122.37631
G1 X63.99 Y135.2 E122.80943
G1 X56.01 Y135.2 E123.16946
G0 F3000 X56.41 Y135.6
G1 F1500 X56.41 Y144.4 E123.56649
G1 X63.59 Y144.4 E123.89043
G1 X63.59 Y135.6 E124.28746
G1 X56.41 Y135.6 E124.61139
G0 F3000 X56.81 Y136
;TYPE:WALL-OUTER
G1 F1500 X56.81 Y144 E124.97233
G1 X63.19 Y144 E125.26017
G1 X63.19 Y136 E125.62111
G1 X56.81 Y136 E125.90895
G0 F3000 X56.81 Y136.2
G0 X56.37 Y136.2
G1 F2400 E124.70895
G0 F3000 X64.5 Y124.5
;TYPE:WALL-INNER
G1 F2400 E125.90895
G1 F1500 X64.5 Y135.5 E126.40523
G1 X75.5 Y135.5 E126.90152
G1 X75.5 Y124.5 E127.3978
G1 X64.5 Y124.5 E127.89409
G0 F3000 X64.9 Y124.9
G1 F1500 X64.9 Y135.1 E128.35428
G1 X75.1 Y135.1 E128.81447
G1 X75.1 Y124.9 E129.27466
G1 X64.9 Y124.9 E129.73485
G0 F3000 X65.3 Y125.3
;TYPE:WALL-OUTER
G1 F1500 X65.3 Y134.7 E130.15894
G1 X74.7 Y134.7 E130.58304
G1 X74.7 Y125.3 E131.00714
G1 X65.3 Y125.3 E131.43124
G0 F3000 X65.3 Y125.5
G0 X64.86 Y125.5
G1 F2400 E130.23124
G0 F3000 X56.01 Y115.2
;TYPE:WALL-INNER
G1 F2400 E131.43124
G1 F1500 X56.01 Y124.8 E131.86436
G1 X63.99 Y124.8 E132.22439
G1 X63.99 Y115.2 E132.65751
G1 X56.01 Y115.2 E133.01754
G0 F3000 X56.41 Y115.6
G1 F1500 X56.41 Y124.4 E133.41457
G1 X63.59 Y124.4 E133.7385
G1 X63.59 Y115.6 E134.13553
G1 X56.41 Y115.6 E134.45947
G0 F3000 X56.81 Y116
;TYPE:WALL-OUTER
G1 F1500 X56.81 Y124 E134.8204
G1 X63.19 Y124 E135.10825
G1 X63.19 Y116 E135.46918
G1 X56.81 Y116 E135.75703
G0 F3000 X56.81 Y116.2
G0 X56.37 Y116.2
G1 F2400 E134.55703
G0 F3000 X64.5 Y104.5
;TYPE:WALL-INNER
G1 F2400 E135.75703
G1 F1500 X64.5 Y115.5 E136.25331
G1 X75.5 Y115.5 E136.74959
G1 X75.5 Y104.5 E137.24588
G1 X64.5 Y104.5 E137.74216
G0 F3000 X64.9 Y104.9
G1 F1500 X64.9 Y115.1 E138.20235
G1 X75.1 Y115.1 E138.66254
G1 X75.1 Y104.9 E139.12273
G1 X64.9 Y104.9 E139.58292
G0 F3000 X65.3 Y105.3
;TYPE:WALL-OUTER
G1 F1500 X65.3 Y114.7 E140.00702
G1 X74.7 Y114.7 E140.43112
G1 X74.7 Y105.3 E140.85521
G1 X65.3 Y105.3 E141.27931
G0 F3000 X65.3 Y105.5
G0 X64.86 Y105.5
G1 F2400 E140.07931
G0 F3000 X56.01 Y95.2
;TYPE:WALL-INNER
G1 F2400 E141.27931
G1 F1500 X56.01 Y104.8 E141.71243
G1 X63.99 Y104.8 E142.07246
G1 X63.99 Y95.2 E142.50558
G1 X56.01 Y95.2 E142.86561
G0 F3000 X56.41 Y95.6
G1 F1500 X56.41 Y104.4 E143.26264
G1 X63.59 Y104.4 E143.58658
G1 X63.59 Y95.6 E143.98361
G1 X56.41 Y95.6 E144.30754
G0 F3000 X56.81 Y96
;TYPE:WALL-OUTER
G1 F1500 X56.81 Y104 E144.66848
G1 X63.19 Y104 E144.95632
G1 X63.19 Y96 E145.31726
G1 X56.81 Y96 E145.6051
G0 F3000 X56.81 Y96.2
G0 X56.37 Y96.2
G1 F2400 E144.4051
G0 F3000 X64.5 Y84.5
;TYPE:WALL-INNER
G1 F2400 E145.6051
G1 F1500 X64.5 Y95.5 E146.10138
G1 X75.5 Y95.5 E146.59767
G1 X75.5 Y84.5 E147.09395
G1 X64.5 Y84.5 E147.59024
G0 F3000 X64.9 Y84.9
G1 F1500 X64.9 Y95.1 E148.05043
G1 X75.1 Y95.1 E148.51062
G1 X75.1 Y84.9 E148.97081
G1 X64.9 Y84.9 E149.431
G0 F3000 X65.3 Y85.3
;TYPE:WALL-OUTER
G1 F1500 X65.3 Y94.7 E149.85509
G1 X74.7 Y94.7 E150.27919
G1 X74.7 Y85.3 E150.70329
G1 X65.3 Y85.3 E151.12739
G0 F3000 X65.3 Y85.5
G0 X64.86 Y85.5
G1 F2400 E149.92739
G0 F3000 X56.01 Y75.2
;TYPE:WALL-INNER
G1 F2400 E151.12739
G1 F1500 X56.01 Y84.8 E151.56051
G1 X63.99 Y84.8 E151.92054
G1 X63.99 Y75.2 E152.35366
G1 X56.01 Y75.2 E152.71369
G0 F3000 X56.41 Y75.6
G1 F1500 X56.41 Y84.4 E153.11072
G1 X63.59 Y84.4 E153.43465
G1 X63.59 Y75.6 E153.83168
G1 X56.41 Y75.6 E154.15562
G0 F3000 X56.81 Y76
;TYPE:WALL-OUTER
G1 F1500 X56.81 Y84 E154.51655
G1 X63.19 Y84 E154.8044
G1 X63.19 Y76 E155.16533
G1 X56.81 Y76 E155.45318
G0 F3000 X56.81 Y76.2
G0 X56.37 Y76.2
G1 F2400 E154.25318
G0 F3000 X64.5 Y64.5
;TYPE:WALL-INNER
G1 F2400 E155.45318
G1 F1500 X64.5 Y75.5 E155.94946
G1 X75.5 Y75.5 E156.44574
G1 X75.5 Y64.5 E156.94203
G1 X64.5 Y64.5 E157.43831
G0 F3000 X64.9 Y64.9
G1 F1500 X64.9 Y75.1 E157.8985
G1 X75.1 Y75.1 E158.35869
G1 X75.1 Y64.9 E158.81888
G1 X64.9 Y64.9 E159.27907
G0 F3000 X65.3 Y65.3
;TYPE:WALL-OUTER
G1 F1500 X65.3 Y74.7 E159.70317
G1 X74.7 Y74.7 E160.12727
G1 X74.7 Y65.3 E160.55136
G1 X65.3 Y65.3 E160.97546
G0 F3000 X65.3 Y65.5
G0 X64.86 Y65.5
G1 F2400 E159.77546
G0 F3000 X56.01 Y55.2
;TYPE:WALL-INNER
G1 F2400 E160.97546
G1 F1500 X56.01 Y64.8 E161.40858
G1 X63.99 Y64.8 E161.76861
G1 X63.99 Y55.2 E162.20173
G1 X56.01 Y55.2 E162.56176
G0 F3000 X56.41 Y55.6
G1 F1500 X56.41 Y64.4 E162.95879
G1 X63.59 Y64.4 E163.28273
G1 X63.59 Y55.6 E163.67976
G1 X56.41 Y55.6 E164.00369
G0 F3000 X56.81 Y56
;TYPE:WALL-OUTER
G1 F1500 X56.81 Y64 E164.36463
G1 X63.19 Y64 E164.65247
G1 X63.19 Y56 E165.01341
G1 X56.81 Y56 E165.30125
G0 F3000 X56.81 Y56.2
G0 X56.37 Y56.2
G1 F2400 E164.10125
G0 F3000 X64.5 Y44.5
;TYPE:WALL-INNER
G1 F2400 E165.30125
G1 F1500 X64.5 Y55.5 E165.79753
G1 X75.5 Y55.5 E166.29382
G1 X75.5 Y44.5 E166.7901
G1 X64.5 Y44.5 E167.28639
G0 F3000 X64.9 Y44.9
G1 F1500 X64.9 Y55.1 E167.74658
G1 X75.1 Y55.1 E168.20677
G1 X75.1 Y44.9 E168.66696
