;FLAVOR:Marlin
;TIME:7462
;Filament used: 13.262m
;Layer height: 0.3
;MINX:26
;MINY:26
;MINZ:0.3
;MAXX:154
;MAXY:154
;MAXZ:9.9
;Generated with Cura_SteamEngine 4.12.1
M82 ;absolute extrusion mode
G21 ;metric values
G90 ;absolute positioning
M82 ;set extruder to absolute mode
M107 ;start with the fan off

M104 S200 T0 ; start heating T0 to what is set in Cura
M140 S60 ; start heating the bed to what is set in Cura
M190 S60 ; start heating the bed to what is set in Cura
M109 S200 T0 ; start heating T0 to what is set in Cura

G28 X0 Y0 ;move X/Y to min endstops
G28 Z0 ;move Z to min endstops
G1 Z15.0 F2400 ;move the platform down 15mm
G92 E0 ;zero the extruded length
G1 F200 E3 ;extrude 3mm of feed stock
G92 E0 ;zero the extruded length again
G1 F2400
G0 Y20 F2400
M117 Printing...
G5
G92 E0
G92 E0
G1 F2400 E-1.2
;LAYER_COUNT:33
;LAYER:0
M107
G0 F3000 X27.004 Y27.369 Z0.3
;TYPE:SKIRT
G1 F2400 E0
G1 F1500 X27.406 Y26.972 E0.02549
G1 X27.86 Y26.635 E0.051
G1 X28.357 Y26.366 E0.0765
G1 X28.887 Y26.169 E0.10201
G1 X29.44 Y26.05 E0.12753
G1 X30.218 Y26.002 E0.16269
G1 X30.33 Y26 E0.16775
G1 X149.35 Y26 E5.53754
G1 X150.048 Y26.01 E5.56903
G1 X150.612 Y26.058 E5.59457
G1 X151.162 Y26.185 E5.62004
G1 X151.69 Y26.389 E5.64558
G1 X152.184 Y26.664 E5.67109
G1 X152.633 Y27.007 E5.69658
G1 X153.03 Y27.409 E5.72207
G1 X153.367 Y27.864 E5.74761
G1 X153.635 Y28.361 E5.77309
G1 X153.831 Y28.891 E5.79858
G1 X153.951 Y29.444 E5.82411
G1 X153.998 Y30.218 E5.8591
G1 X154 Y30.33 E5.86415
G1 X154 Y149.314 E11.23232
G1 X153.991 Y150.041 E11.26512
G1 X153.944 Y150.604 E11.29061
G1 X153.818 Y151.155 E11.31611
G1 X153.616 Y151.683 E11.34162
G1 X153.341 Y152.177 E11.36712
G1 X152.999 Y152.627 E11.39262
G1 X152.597 Y153.025 E11.41815
G1 X152.144 Y153.362 E11.44362
G1 X151.647 Y153.632 E11.46914
G1 X151.117 Y153.829 E11.49465
G1 X150.565 Y153.95 E11.52014
G1 X149.782 Y153.998 E11.55554
G1 X149.67 Y154 E11.56059
G1 X30.655 Y154 E16.93016
G1 X29.957 Y153.991 E16.96165
G1 X29.394 Y153.943 E16.98714
G1 X28.843 Y153.817 E17.01264
G1 X28.315 Y153.615 E17.03815
G1 X27.821 Y153.34 E17.06366
G1 X27.371 Y152.998 E17.08916
G1 X26.973 Y152.596 E17.11468
G1 X26.637 Y152.142 E17.14016
G1 X26.367 Y151.645 E17.16568
G1 X26.17 Y151.115 E17.19119
G1 X26.05 Y150.563 E17.21668
G1 X26.001 Y149.766 E17.2527
G1 X26 Y30.62 E22.62818
G1 X26.009 Y29.955 E22.65818
G1 X26.057 Y29.392 E22.68368
G1 X26.183 Y28.841 E22.70918
G1 X26.386 Y28.313 E22.7347
G1 X26.662 Y27.819 E22.76023
G1 X27.004 Y27.369 E22.78573
G0 F3000 X27.397 Y27.531
G1 F1500 X27.794 Y27.171 E22.80991
G1 X28.241 Y26.873 E22.83415
G1 X28.726 Y26.645 E22.85833
G1 X29.24 Y26.492 E22.88252
G1 X29.908 Y26.41 E22.91289
G1 X30.33 Y26.4 E22.93193
G1 X149.345 Y26.4 E28.3015
G1 X150.043 Y26.41 E28.33299
G1 X150.577 Y26.458 E28.35718
G1 X151.098 Y26.584 E28.38136
G1 X151.595 Y26.787 E28.40558
G1 X152.056 Y27.061 E28.42978
G1 X152.471 Y27.4 E28.45396
G1 X152.831 Y27.798 E28.47817
G1 X153.128 Y28.244 E28.50234
G1 X153.356 Y28.73 E28.52656
G1 X153.508 Y29.244 E28.55075
G1 X153.59 Y29.909 E28.58098
G1 X153.6 Y30.33 E28.59997
G1 X153.6 Y149.309 E33.96792
G1 X153.591 Y150.036 E34.00072
G1 X153.544 Y150.57 E34.0249
G1 X153.419 Y151.091 E34.04908
G1 X153.217 Y151.588 E34.07328
G1 X152.944 Y152.05 E34.09749
G1 X152.606 Y152.466 E34.12167
G1 X152.209 Y152.827 E34.14588
G1 X151.763 Y153.125 E34.17008
G1 X151.278 Y153.353 E34.19426
G1 X150.764 Y153.507 E34.21847
G1 X150.092 Y153.59 E34.24902
G1 X149.67 Y153.6 E34.26806
G1 X30.661 Y153.6 E39.63736
G1 X29.963 Y153.591 E39.66885
G1 X29.428 Y153.544 E39.69308
G1 X28.907 Y153.418 E39.71727
G1 X28.41 Y153.216 E39.74147
G1 X27.949 Y152.943 E39.76564
G1 X27.533 Y152.604 E39.78985
G1 X27.172 Y152.208 E39.81403
G1 X26.874 Y151.762 E39.83823
G1 X26.646 Y151.276 E39.86245
G1 X26.493 Y150.762 E39.88665
G1 X26.41 Y150.088 E39.91728
G1 X26.4 Y149.658 E39.93669
G1 X26.4 Y30.625 E45.30707
G1 X26.409 Y29.96 E45.33707
G1 X26.457 Y29.426 E45.36126
G1 X26.583 Y28.905 E45.38545
G1 X26.785 Y28.408 E45.40965
G1 X27.058 Y27.947 E45.43382
G1 X27.397 Y27.531 E45.45803
G0 F3000 X27.454 Y28.082
G1 F1500 X27.789 Y27.704 E45.48082
G1 X28.18 Y27.383 E45.50364
G1 X28.617 Y27.128 E45.52647
G1 X29.088 Y26.944 E45.54929
G1 X29.582 Y26.838 E45.57208
G1 X30.24 Y26.801 E45.60181
G1 X149.339 Y26.8 E50.97517
G1 X150.037 Y26.81 E51.00666
G1 X150.54 Y26.857 E51.02946
G1 X151.03 Y26.983 E51.05228
G1 X151.494 Y27.185 E51.07512
G1 X151.92 Y27.457 E51.09792
G1 X152.298 Y27.792 E51.12071
G1 X152.618 Y28.183 E51.1435
G1 X152.873 Y28.62 E51.16633
G1 X153.056 Y29.091 E51.18913
G1 X153.163 Y29.585 E51.21193
G1 X153.199 Y30.24 E51.24153
G1 X153.2 Y149.304 E56.6133
G1 X153.191 Y150.031 E56.6461
G1 X153.145 Y150.534 E56.66889
G1 X153.02 Y151.024 E56.69171
G1 X152.819 Y151.488 E56.71452
G1 X152.548 Y151.915 E56.73734
G1 X152.213 Y152.294 E56.76016
G1 X151.823 Y152.615 E56.78295
G1 X151.387 Y152.871 E56.80576
G1 X150.916 Y153.054 E56.82856
G1 X150.422 Y153.162 E56.85137
G1 X149.76 Y153.199 E56.88129
G1 X30.666 Y153.2 E62.25442
G1 X29.968 Y153.191 E62.28591
G1 X29.464 Y153.144 E62.30875
G1 X28.974 Y153.019 E62.33156
G1 X28.51 Y152.818 E62.35438
G1 X28.084 Y152.547 E62.37716
G1 X27.705 Y152.212 E62.39998
G1 X27.384 Y151.821 E62.4228
G1 X27.129 Y151.385 E62.44559
G1 X26.945 Y150.914 E62.4684
G1 X26.838 Y150.42 E62.49121
G1 X26.801 Y149.744 E62.52175
G1 X26.8 Y30.631 E67.89574
G1 X26.809 Y29.966 E67.92574
G1 X26.856 Y29.462 E67.94858
G1 X26.982 Y28.973 E67.97136
G1 X27.183 Y28.509 E67.99418
G1 X27.454 Y28.082 E68.017
G1 F2400 E66.817
;MESH:clip_grid_2cm_type_b2.stl
G0 F3000 X36.41 Y35.6
;TYPE:WALL-INNER
G1 F2400 E68.017
G1 F1500 X36.41 Y44.4 E68.41402
G1 X43.59 Y44.4 E68.73796
G1 X43.59 Y35.6 E69.13499
G1 X36.41 Y35.6 E69.45893
G0 F3000 X36.81 Y36
;TYPE:WALL-OUTER
G1 F1500 X36.81 Y44 E69.81986
G1 X43.19 Y44 E70.1077
G1 X43.19 Y36 E70.46864
G1 X36.81 Y36 E70.75648
G0 F3000 X36.81 Y36.2
G0 X36.37 Y36.2
G1 F2400 E69.55648
G0 F3000 X44.65 Y44.65
;TYPE:WALL-INNER
G1 F2400 E70.75648
G1 F1500 X44.65 Y75.35 E72.14156
G1 X56.41 Y75.35 E72.67214
G1 X63.59 Y75.35 E72.99608
G1 X75.35 Y75.35 E73.52665
G1 X75.35 Y44.65 E74.91173
G1 X63.59 Y44.65 E75.4423
G1 X56.41 Y44.65 E75.76624
G1 X44.65 Y44.65 E76.29681
G0 F3000 X45.05 Y45.05
;TYPE:WALL-OUTER
G1 F1500 X45.05 Y74.95 E77.6458
G1 X74.95 Y74.95 E78.99479
G1 X74.95 Y45.05 E80.34378
G1 X45.05 Y45.05 E81.69277
G0 F3000 X45.05 Y45.25
G0 X44.61 Y45.25
G1 F2400 E80.49277
G0 F3000 X36.41 Y55.6
;TYPE:WALL-INNER
G1 F2400 E81.69277
G1 F1500 X36.41 Y64.4 E82.0898
G1 X43.59 Y64.4 E82.41374
G1 X43.59 Y55.6 E82.81076
G1 X36.41 Y55.6 E83.1347
G0 F3000 X36.81 Y56
;TYPE:WALL-OUTER
G1 F1500 X36.81 Y64 E83.49564
G1 X43.19 Y64 E83.78348
G1 X43.19 Y56 E84.14441
G1 X36.81 Y56 E84.43226
G0 F3000 X36.81 Y56.2
G0 X36.37 Y56.2
G1 F2400 E83.23226
G0 F3000 X36.41 Y75.6
;TYPE:WALL-INNER
G1 F2400 E84.43226
G1 F1500 X36.41 Y84.4 E84.82929
G1 X43.59 Y84.4 E85.15322
G1 X43.59 Y75.6 E85.55025
G1 X36.41 Y75.6 E85.87419
G0 F3000 X36.81 Y76
;TYPE:WALL-OUTER
G1 F1500 X36.81 Y84 E86.23512
G1 X43.19 Y84 E86.52297
G1 X43.19 Y76 E86.8839
G1 X36.81 Y76 E87.17174
G0 F3000 X36.81 Y76.2
G0 X36.37 Y76.2
G1 F2400 E85.97174
G0 F3000 X44.9 Y84.9
;TYPE:WALL-INNER
G1 F2400 E87.17174
G1 F1500 X44.9 Y95.1 E87.63194
G1 X55.1 Y95.1 E88.09213
G1 X55.1 Y84.9 E88.55232
G1 X44.9 Y84.9 E89.01251
G0 F3000 X45.3 Y85.3
;TYPE:WALL-OUTER
G1 F1500 X45.3 Y94.7 E89.4366
G1 X54.7 Y94.7 E89.8607
G1 X54.7 Y85.3 E90.2848
G1 X45.3 Y85.3 E90.70889
G0 F3000 X45.3 Y85.5
G0 X44.86 Y85.5
G1 F2400 E89.50889
G0 F3000 X36.41 Y95.6
;TYPE:WALL-INNER
G1 F2400 E90.70889
G1 F1500 X36.41 Y104.4 E91.10592
G1 X43.59 Y104.4 E91.42986
G1 X43.59 Y95.6 E91.82689
G1 X36.41 Y95.6 E92.15082
G0 F3000 X36.81 Y96
;TYPE:WALL-OUTER
G1 F1500 X36.81 Y104 E92.51176
G1 X43.19 Y104 E92.7996
G1 X43.19 Y96 E93.16054
G1 X36.81 Y96 E93.44838
G0 F3000 X36.81 Y96.2
G0 X36.37 Y96.2
G1 F2400 E92.24838
G0 F3000 X44.65 Y104.65
;TYPE:WALL-INNER
G1 F2400 E93.44838
G1 F1500 X44.65 Y135.35 E94.83346
G1 X56.41 Y135.35 E95.36404
G1 X63.59 Y135.35 E95.68797
G1 X75.35 Y135.35 E96.21855
G1 X75.35 Y104.65 E97.60363
G1 X63.59 Y104.65 E98.1342
G1 X56.41 Y104.65 E98.45814
G1 X44.65 Y104.65 E98.98871
G0 F3000 X45.05 Y105.05
;TYPE:WALL-OUTER
G1 F1500 X45.05 Y134.95 E100.3377
G1 X74.95 Y134.95 E101.68669
G1 X74.95 Y105.05 E103.03568
G1 X45.05 Y105.05 E104.38467
G0 F3000 X45.05 Y105.25
G0 X44.61 Y105.25
G1 F2400 E103.18467
G0 F3000 X36.41 Y115.6
;TYPE:WALL-INNER
G1 F2400 E104.38467
G1 F1500 X36.41 Y124.4 E104.7817
G1 X43.59 Y124.4 E105.10564
G1 X43.59 Y115.6 E105.50266
G1 X36.41 Y115.6 E105.8266
G0 F3000 X36.81 Y116
;TYPE:WALL-OUTER
G1 F1500 X36.81 Y124 E106.18753
G1 X43.19 Y124 E106.47538
G1 X43.19 Y116 E106.83631
G1 X36.81 Y116 E107.12416
G0 F3000 X36.81 Y116.2
G0 X36.37 Y116.2
G1 F2400 E105.92416
G0 F3000 X36.41 Y135.6
;TYPE:WALL-INNER
G1 F2400 E107.12416
G1 F1500 X36.41 Y144.4 E107.52118
G1 X43.59 Y144.4 E107.84512
G1 X43.59 Y135.6 E108.24215
G1 X36.41 Y135.6 E108.56609
G0 F3000 X36.81 Y136
;TYPE:WALL-OUTER
G1 F1500 X36.81 Y144 E108.92702
G1 X43.19 Y144 E109.21487
G1 X43.19 Y136 E109.5758
G1 X36.81 Y136 E109.86364
G0 F3000 X36.81 Y136.2
G0 X36.37 Y136.2
G1 F2400 E108.66364
G0 F3000 X56.41 Y135.6
;TYPE:WALL-INNER
G1 F2400 E109.86364
G1 F1500 X56.41 Y144.4 E110.26067
G1 X63.59 Y144.4 E110.58461
G1 X63.59 Y135.6 E110.98164
G1 X56.41 Y135.6 E111.18461
G0 F3000 X56.81 Y136
;TYPE:WALL-OUTER
G1 F1500 X56.81 Y144 E111.54554
G1 X63.19 Y144 E111.83338
G1 X63.19 Y136 E112.19432
G1 X56.81 Y136 E112.48216
G0 F3000 X56.81 Y136.2
G0 X56.37 Y136.2
G1 F2400 E111.28216
G0 F3000 X76.41 Y135.6
;TYPE:WALL-INNER
G1 F2400 E112.48216
G1 F1500 X76.41 Y144.4 E112.87919
G1 X83.59 Y144.4 E113.20313
G1 X83.59 Y135.6 E113.60015
G1 X76.41 Y135.6 E113.92409
G0 F3000 X76.81 Y136
;TYPE:WALL-OUTER
G1 F1500 X76.81 Y144 E114.28503
G1 X83.19 Y144 E114.57287
G1 X83.19 Y136 E114.9338
G1 X76.81 Y136 E115.22165
G0 F3000 X76.81 Y136.2
G0 X76.37 Y136.2
G1 F2400 E114.02165
G0 F3000 X84.9 Y124.9
;TYPE:WALL-INNER
G1 F2400 E115.22165
G1 F1500 X84.9 Y135.1 E115.68184
G1 X95.1 Y135.1 E116.14203
G1 X95.1 Y124.9 E116.60222
G1 X84.9 Y124.9 E117.06241
G0 F3000 X85.3 Y125.3
;TYPE:WALL-OUTER
G1 F1500 X85.3 Y134.7 E117.48651
G1 X94.7 Y134.7 E117.9106
G1 X94.7 Y125.3 E118.3347
G1 X85.3 Y125.3 E118.7588
G0 F3000 X85.3 Y125.5
G0 X84.86 Y125.5
G1 F2400 E117.5588
G0 F3000 X76.41 Y115.6
;TYPE:WALL-INNER
G1 F2400 E118.7588
G1 F1500 X76.41 Y124.4 E119.15582
G1 X83.59 Y124.4 E119.47976
G1 X83.59 Y115.6 E119.87679
G1 X76.41 Y115.6 E120.20073
G0 F3000 X76.81 Y116
;TYPE:WALL-OUTER
G1 F1500 X76.81 Y124 E120.56166
G1 X83.19 Y124 E120.84951
G1 X83.19 Y116 E121.21044
G1 X76.81 Y116 E121.49828
G0 F3000 X76.81 Y116.2
G0 X76.37 Y116.2
G1 F2400 E120.29828
G0 F3000 X84.9 Y104.9
;TYPE:WALL-INNER
G1 F2400 E121.49828
G1 F1500 X84.9 Y115.1 E121.95847
G1 X95.1 Y115.1 E122.41867
G1 X95.1 Y104.9 E122.87886
G1 X84.9 Y104.9 E123.33905
G0 F3000 X85.3 Y105.3
;TYPE:WALL-OUTER
G1 F1500 X85.3 Y114.7 E123.76314
G1 X94.7 Y114.7 E124.18724
G1 X94.7 Y105.3 E124.61134
G1 X85.3 Y105.3 E125.03543
G0 F3000 X85.3 Y105.5
G0 X84.86 Y105.5
G1 F2400 E123.83543
G0 F3000 X76.41 Y95.6
;TYPE:WALL-INNER
G1 F2400 E125.03543
G1 F1500 X76.41 Y104.4 E125.43246
G1 X83.59 Y104.4 E125.7564
G1 X83.59 Y95.6 E126.15343
G1 X76.41 Y95.6 E126.47736
G0 F3000 X76.81 Y96
;TYPE:WALL-OUTER
G1 F1500 X76.81 Y104 E126.8383
G1 X83.19 Y104 E127.12614
G1 X83.19 Y96 E127.48708
G1 X76.81 Y96 E127.77492
G0 F3000 X76.81 Y96.2
G0 X76.37 Y96.2
G1 F2400 E126.57492
G0 F3000 X84.9 Y84.9
;TYPE:WALL-INNER
G1 F2400 E127.77492
G1 F1500 X84.9 Y95.1 E128.23511
G1 X95.1 Y95.1 E128.6953
G1 X95.1 Y84.9 E129.15549
G1 X84.9 Y84.9 E129.61568
G0 F3000 X85.3 Y85.3
;TYPE:WALL-OUTER
G1 F1500 X85.3 Y94.7 E130.03978
G1 X94.7 Y94.7 E130.46388
G1 X94.7 Y85.3 E130.88797
G1 X85.3 Y85.3 E131.31207
G0 F3000 X85.3 Y85.5
G0 X84.86 Y85.5
G1 F2400 E130.11207
G0 F3000 X76.41 Y75.6
;TYPE:WALL-INNER
G1 F2400 E131.31207
G1 F1500 X76.41 Y84.4 E131.7091
G1 X83.59 Y84.4 E132.03304
G1 X83.59 Y75.6 E132.43006
G1 X76.41 Y75.6 E132.754
G0 F3000 X76.81 Y76
;TYPE:WALL-OUTER
G1 F1500 X76.81 Y84 E133.11493
G1 X83.19 Y84 E133.40278
G1 X83.19 Y76 E133.76371
G1 X76.81 Y76 E134.05156
G0 F3000 X76.81 Y76.2
G0 X76.37 Y76.2
G1 F2400 E132.85156
G0 F3000 X84.9 Y64.9
;TYPE:WALL-INNER
G1 F2400 E134.05156
G1 F1500 X84.9 Y75.1 E134.51175
G1 X95.1 Y75.1 E134.97194
G1 X95.1 Y64.9 E135.43213
G1 X84.9 Y64.9 E135.89232
G0 F3000 X85.3 Y65.3
;TYPE:WALL-OUTER
G1 F1500 X85.3 Y74.7 E136.31642
G1 X94.7 Y74.7 E136.74051
G1 X94.7 Y65.3 E137.16461
G1 X85.3 Y65.3 E137.58871
G0 F3000 X85.3 Y65.5
G0 X84.86 Y65.5
G1 F2400 E136.38871
G0 F3000 X76.41 Y55.6
;TYPE:WALL-INNER
G1 F2400 E137.58871
G1 F1500 X76.41 Y64.4 E137.98573
G1 X83.59 Y64.4 E138.30967
G1 X83.59 Y55.6 E138.7067
G1 X76.41 Y55.6 E139.03064
G0 F3000 X76.81 Y56
;TYPE:WALL-OUTER
G1 F1500 X76.81 Y64 E139.39157
G1 X83.19 Y64 E139.67942
G1 X83.19 Y56 E140.04035
G1 X76.81 Y56 E140.32819
G0 F3000 X76.81 Y56.2
G0 X76.37 Y56.2
G1 F2400 E139.12819
G0 F3000 X84.9 Y44.9
;TYPE:WALL-INNER
G1 F2400 E140.32819
G1 F1500 X84.9 Y55.1 E140.78838
G1 X95.1 Y55.1 E141.24857
G1 X95.1 Y44.9 E141.70876
G1 X84.9 Y44.9 E142.16896
G0 F3000 X85.3 Y45.3
;TYPE:WALL-OUTER
G1 F1500 X85.3 Y54.7 E142.59305
G1 X94.7 Y54.7 E143.01715
G1 X94.7 Y45.3 E143.44125
G1 X85.3 Y45.3 E143.86534
G0 F3000 X85.3 Y45.5
G0 X84.86 Y45.5
G1 F2400 E142.66534
G0 F3000 X76.41 Y35.6
;TYPE:WALL-INNER
G1 F2400 E143.86534
G1 F1500 X76.41 Y44.4 E144.26237
G1 X83.59 Y44.4 E144.58631
G1 X83.59 Y35.6 E144.98334
G1 X76.41 Y35.6 E145.30727
G0 F3000 X76.81 Y36
;TYPE:WALL-OUTER
G1 F1500 X76.81 Y44 E145.66821
G1 X83.19 Y44 E145.95605
G1 X83.19 Y36 E146.31699
G1 X76.81 Y36 E146.60483
G0 F3000 X76.81 Y36.2
G0 X76.37 Y36.2
G1 F2400 E145.40483
G0 F3000 X56.41 Y35.6
;TYPE:WALL-INNER
G1 F2400 E146.60483
G1 F1500 X56.41 Y44.4 E147.00186
G1 X63.59 Y44.4 E147.20483
G1 X63.59 Y35.6 E147.60185
G1 X56.41 Y35.6 E147.92579
G0 F3000 X56.81 Y36
;TYPE:WALL-OUTER
G1 F1500 X56.81 Y44 E148.28672
G1 X63.19 Y44 E148.57457
G1 X63.19 Y36 E148.9355
G1 X56.81 Y36 E149.22335
G0 F3000 X56.81 Y36.2
G0 X56.37 Y36.2
G1 F2400 E148.02335
G0 F3000 X56.41 Y75.6
;TYPE:WALL-INNER
G1 F2400 E149.22335
G1 F1500 X56.41 Y84.4 E149.62037
G1 X63.59 Y84.4 E149.94431
G1 X63.59 Y75.6 E150.34134
G1 X56.41 Y75.6 E150.54431
G0 F3000 X56.81 Y76
;TYPE:WALL-OUTER
G1 F1500 X56.81 Y84 E150.90524
G1 X63.19 Y84 E151.19309
G1 X63.19 Y76 E151.55402
G1 X56.81 Y76 E151.84186
G0 F3000 X56.81 Y76.2
G0 X56.37 Y76.2
G1 F2400 E150.64186
G0 F3000 X64.9 Y84.9
;TYPE:WALL-INNER
G1 F2400 E151.84186
G1 F1500 X64.9 Y95.1 E152.30205
G1 X75.1 Y95.1 E152.76225
G1 X75.1 Y84.9 E153.22244
G1 X64.9 Y84.9 E153.68263
G0 F3000 X65.3 Y85.3
;TYPE:WALL-OUTER
G1 F1500 X65.3 Y94.7 E154.10672
G1 X74.7 Y94.7 E154.53082
G1 X74.7 Y85.3 E154.95492
G1 X65.3 Y85.3 E155.37901
G0 F3000 X65.3 Y85.5
G0 X64.86 Y85.5
G1 F2400 E154.17901
G0 F3000 X56.41 Y95.6
;TYPE:WALL-INNER
G1 F2400 E155.37901
G1 F1500 X56.41 Y104.4 E155.77604
G1 X63.59 Y104.4 E155.97901
G1 X63.59 Y95.6 E156.37604
G1 X56.41 Y95.6 E156.69998
G0 F3000 X56.81 Y96
;TYPE:WALL-OUTER
G1 F1500 X56.81 Y104 E157.06091
G1 X63.19 Y104 E157.34875
G1 X63.19 Y96 E157.70969
G1 X56.81 Y96 E157.99753
G0 F3000 X56.81 Y96.2
G0 X56.37 Y96.2
G1 F2400 E156.79753
G0 F3000 X96.41 Y95.6
;TYPE:WALL-INNER
G1 F2400 E157.99753
G1 F1500 X96.41 Y104.4 E158.39456
G1 X103.59 Y104.4 E158.7185
G1 X103.59 Y95.6 E159.11552
G1 X96.41 Y95.6 E159.43946
G0 F3000 X96.81 Y96
;TYPE:WALL-OUTER
G1 F1500 X96.81 Y104 E159.8004
G1 X103.19 Y104 E160.08824
G1 X103.19 Y96 E160.44917
G1 X96.81 Y96 E160.73702
G0 F3000 X96.81 Y96.2
G0 X96.37 Y96.2
G1 F2400 E159.53702
G0 F3000 X104.65 Y104.65
;TYPE:WALL-INNER
G1 F2400 E160.73702
G1 F1500 X104.65 Y135.35 E162.1221
G1 X116.41 Y135.35 E162.65267
G1 X123.59 Y135.35 E162.97661
G1 X135.35 Y135.35 E163.50718
G1 X135.35 Y104.65 E164.89227
G1 X123.59 Y104.65 E165.42284
G1 X116.41 Y104.65 E165.74678
G1 X104.65 Y104.65 E166.27735
G0 F3000 X105.05 Y105.05
;TYPE:WALL-OUTER
G1 F1500 X105.05 Y134.95 E167.62634
G1 X134.95 Y134.95 E168.97533
G1 X134.95 Y105.05 E170.32432
