;FLAVOR:Marlin
;TIME:8415
;Filament used: 14.8354m
;Layer height: 0.3
;MINX:26
;MINY:26
;MINZ:0.3
;MAXX:154
;MAXY:154
;MAXZ:9.9
;Generated with Cura_SteamEngine 4.12.1
M82 ;absolute extrusion mode
G21 ;metric values
G90 ;absolute positioning
M82 ;set extruder to absolute mode
M107 ;start with the fan off

M104 S200 T0 ; start heating T0 to what is set in Cura
M140 S60 ; start heating the bed to what is set in Cura
M190 S60 ; start heating the bed to what is set in Cura
M109 S200 T0 ; start heating T0 to what is set in Cura

G28 X0 Y0 ;move X/Y to min endstops
G28 Z0 ;move Z to min endstops
G1 Z15.0 F2400 ;move the platform down 15mm
G92 E0 ;zero the extruded length
G1 F200 E3 ;extrude 3mm of feed stock
G92 E0 ;zero the extruded length again
G1 F2400
G0 Y20 F2400
M117 Printing...
G5
G92 E0
G92 E0
G1 F2400 E-1.2
;LAYER_COUNT:33
;LAYER:0
M107
G0 F3000 X27.004 Y27.369 Z0.3
;TYPE:SKIRT
G1 F2400 E0
G1 F1500 X27.406 Y26.972 E0.02549
G1 X27.86 Y26.635 E0.051
G1 X28.357 Y26.366 E0.0765
G1 X28.887 Y26.169 E0.10201
G1 X29.44 Y26.05 E0.12753
G1 X30.218 Y26.002 E0.16269
G1 X30.33 Y26 E0.16775
G1 X149.35 Y26 E5.53754
G1 X150.048 Y26.01 E5.56903
G1 X150.612 Y26.058 E5.59457
G1 X151.162 Y26.185 E5.62004
G1 X151.69 Y26.389 E5.64558
G1 X152.184 Y26.664 E5.67109
G1 X152.633 Y27.007 E5.69658
G1 X153.03 Y27.409 E5.72207
G1 X153.367 Y27.864 E5.74761
G1 X153.635 Y28.361 E5.77309
G1 X153.831 Y28.891 E5.79858
G1 X153.951 Y29.444 E5.82411
G1 X153.998 Y30.218 E5.8591
G1 X154 Y30.33 E5.86415
G1 X154 Y149.314 E11.23232
G1 X153.991 Y150.041 E11.26512
G1 X153.944 Y150.604 E11.29061
G1 X153.818 Y151.155 E11.31611
G1 X153.616 Y151.683 E11.34162
G1 X153.341 Y152.177 E11.36712
G1 X152.999 Y152.627 E11.39262
G1 X152.597 Y153.025 E11.41815
G1 X152.144 Y153.362 E11.44362
G1 X151.647 Y153.632 E11.46914
G1 X151.117 Y153.829 E11.49465
G1 X150.565 Y153.95 E11.52014
G1 X149.782 Y153.998 E11.55554
G1 X149.67 Y154 E11.56059
G1 X30.655 Y154 E16.93016
G1 X29.957 Y153.991 E16.96165
G1 X29.394 Y153.943 E16.98714
G1 X28.843 Y153.817 E17.01264
G1 X28.315 Y153.615 E17.03815
G1 X27.821 Y153.34 E17.06366
G1 X27.371 Y152.998 E17.08916
G1 X26.973 Y152.596 E17.11468
G1 X26.637 Y152.142 E17.14016
G1 X26.367 Y151.645 E17.16568
G1 X26.17 Y151.115 E17.19119
G1 X26.05 Y150.563 E17.21668
G1 X26.001 Y149.766 E17.2527
G1 X26 Y30.62 E22.62818
G1 X26.009 Y29.955 E22.65818
G1 X26.057 Y29.392 E22.68368
G1 X26.183 Y28.841 E22.70918
G1 X26.386 Y28.313 E22.7347
G1 X26.662 Y27.819 E22.76023
G1 X27.004 Y27.369 E22.78573
G0 F3000 X27.397 Y27.531
G1 F1500 X27.794 Y27.171 E22.80991
G1 X28.241 Y26.873 E22.83415
G1 X28.726 Y26.645 E22.85833
G1 X29.24 Y26.492 E22.88252
G1 X29.908 Y26.41 E22.91289
G1 X30.33 Y26.4 E22.93193
G1 X149.345 Y26.4 E28.3015
G1 X150.043 Y26.41 E28.33299
G1 X150.577 Y26.458 E28.35718
G1 X151.098 Y26.584 E28.38136
G1 X151.595 Y26.787 E28.40558
G1 X152.056 Y27.061 E28.42978
G1 X152.471 Y27.4 E28.45396
G1 X152.831 Y27.798 E28.47817
G1 X153.128 Y28.244 E28.50234
G1 X153.356 Y28.73 E28.52656
G1 X153.508 Y29.244 E28.55075
G1 X153.59 Y29.909 E28.58098
G1 X153.6 Y30.33 E28.59997
G1 X153.6 Y149.309 E33.96792
G1 X153.591 Y150.036 E34.00072
G1 X153.544 Y150.57 E34.0249
G1 X153.419 Y151.091 E34.04908
G1 X153.217 Y151.588 E34.07328
G1 X152.944 Y152.05 E34.09749
G1 X152.606 Y152.466 E34.12167
G1 X152.209 Y152.827 E34.14588
G1 X151.763 Y153.125 E34.17008
G1 X151.278 Y153.353 E34.19426
G1 X150.764 Y153.507 E34.21847
G1 X150.092 Y153.59 E34.24902
G1 X149.67 Y153.6 E34.26806
G1 X30.661 Y153.6 E39.63736
G1 X29.963 Y153.591 E39.66885
G1 X29.428 Y153.544 E39.69308
G1 X28.907 Y153.418 E39.71727
G1 X28.41 Y153.216 E39.74147
G1 X27.949 Y152.943 E39.76564
G1 X27.533 Y152.604 E39.78985
G1 X27.172 Y152.208 E39.81403
G1 X26.874 Y151.762 E39.83823
G1 X26.646 Y151.276 E39.86245
G1 X26.493 Y150.762 E39.88665
G1 X26.41 Y150.088 E39.91728
G1 X26.4 Y149.658 E39.93669
G1 X26.4 Y30.625 E45.30707
G1 X26.409 Y29.96 E45.33707
G1 X26.457 Y29.426 E45.36126
G1 X26.583 Y28.905 E45.38545
G1 X26.785 Y28.408 E45.40965
G1 X27.058 Y27.947 E45.43382
G1 X27.397 Y27.531 E45.45803
G0 F3000 X27.454 Y28.082
G1 F1500 X27.789 Y27.704 E45.48082
G1 X28.18 Y27.383 E45.50364
G1 X28.617 Y27.128 E45.52647
G1 X29.088 Y26.944 E45.54929
G1 X29.582 Y26.838 E45.57208
G1 X30.24 Y26.801 E45.60181
G1 X149.339 Y26.8 E50.97517
G1 X150.037 Y26.81 E51.00666
G1 X150.54 Y26.857 E51.02946
G1 X151.03 Y26.983 E51.05228
G1 X151.494 Y27.185 E51.07512
G1 X151.92 Y27.457 E51.09792
G1 X152.298 Y27.792 E51.12071
G1 X152.618 Y28.183 E51.1435
G1 X152.873 Y28.62 E51.16633
G1 X153.056 Y29.091 E51.18913
G1 X153.163 Y29.585 E51.21193
G1 X153.199 Y30.24 E51.24153
G1 X153.2 Y149.304 E56.6133
G1 X153.191 Y150.031 E56.6461
G1 X153.145 Y150.534 E56.66889
G1 X153.02 Y151.024 E56.69171
G1 X152.819 Y151.488 E56.71452
G1 X152.548 Y151.915 E56.73734
G1 X152.213 Y152.294 E56.76016
G1 X151.823 Y152.615 E56.78295
G1 X151.387 Y152.871 E56.80576
G1 X150.916 Y153.054 E56.82856
G1 X150.422 Y153.162 E56.85137
G1 X149.76 Y153.199 E56.88129
G1 X30.666 Y153.2 E62.25442
G1 X29.968 Y153.191 E62.28591
G1 X29.464 Y153.144 E62.30875
G1 X28.974 Y153.019 E62.33156
G1 X28.51 Y152.818 E62.35438
G1 X28.084 Y152.547 E62.37716
G1 X27.705 Y152.212 E62.39998
G1 X27.384 Y151.821 E62.4228
G1 X27.129 Y151.385 E62.44559
G1 X26.945 Y150.914 E62.4684
G1 X26.838 Y150.42 E62.49121
G1 X26.801 Y149.744 E62.52175
G1 X26.8 Y30.631 E67.89574
G1 X26.809 Y29.966 E67.92574
G1 X26.856 Y29.462 E67.94858
G1 X26.982 Y28.973 E67.97136
G1 X27.183 Y28.509 E67.99418
G1 X27.454 Y28.082 E68.017
G1 F2400 E66.817
;MESH:clip_grid_2cm_type_b2.stl
G0 F3000 X35.2 Y36.01
;TYPE:WALL-INNER
G1 F2400 E68.017
G1 F1500 X35.2 Y43.99 E68.37703
G1 X44.25 Y43.99 E68.78533
G1 X44.8 Y43.99 E68.81015
G1 X44.8 Y36.01 E69.17018
G1 X35.2 Y36.01 E69.6033
G0 F3000 X35.6 Y36.41
G1 F1500 X35.6 Y43.59 E69.92724
G1 X44.4 Y43.59 E70.32426
G1 X44.4 Y36.41 E70.6482
G1 X35.6 Y36.41 E71.04523
G0 F3000 X36 Y36.81
;TYPE:WALL-OUTER
G1 F1500 X36 Y43.19 E71.33307
G1 X44 Y43.19 E71.69401
G1 X44 Y36.81 E71.98185
G1 X36 Y36.81 E72.34279
G0 F3000 X36 Y37.01
G0 X35.56 Y37.01
G1 F2400 E71.14279
G0 F3000 X44.8 Y44.25
;TYPE:WALL-INNER
G1 F2400 E72.34279
G1 F1500 X44.25 Y44.25 E72.35895
G1 X44.25 Y56.01 E72.88953
G1 X35.2 Y56.01 E73.29783
G1 X35.2 Y63.99 E73.65786
G1 X44.25 Y63.99 E74.06617
G1 X44.25 Y75.75 E74.59674
G1 X44.8 Y75.75 E74.62156
G1 X55.2 Y75.75 E75.09077
G1 X64.8 Y75.75 E75.52389
G1 X75.2 Y75.75 E75.99311
G1 X75.75 Y75.75 E76.01792
G1 X75.75 Y63.99 E76.54849
G1 X84.8 Y63.99 E76.9568
G1 X84.8 Y56.01 E77.31683
G1 X75.75 Y56.01 E77.72514
G1 X75.75 Y44.25 E78.25571
G1 X75.2 Y44.25 E78.28052
G1 X64.8 Y44.25 E78.74974
G1 X55.2 Y44.25 E79.18286
G1 X44.8 Y44.25 E79.65207
G0 F3000 X44.65 Y44.65
G1 F1500 X44.65 Y56.41 E80.18264
G1 X44.65 Y63.59 E80.50658
G1 X44.65 Y75.35 E81.03715
G1 X75.35 Y75.35 E82.42224
G1 X75.35 Y63.59 E82.95281
G1 X75.35 Y56.41 E83.27675
G1 X75.35 Y44.65 E83.80732
G1 X44.65 Y44.65 E85.1924
G0 F3000 X45.05 Y45.05
;TYPE:WALL-OUTER
G1 F1500 X45.05 Y74.95 E86.54139
G1 X74.95 Y74.95 E87.89038
G1 X74.95 Y45.05 E89.23937
G1 X45.05 Y45.05 E90.58836
G0 F3000 X45.05 Y45.25
G0 X44.61 Y45.25
G1 F2400 E89.38836
G0 F3000 X55.2 Y36.01
;TYPE:WALL-INNER
G1 F2400 E90.58836
G1 F1500 X55.2 Y43.99 E90.94839
G1 X64.8 Y43.99 E91.23063
G1 X64.8 Y36.01 E91.59066
G1 X55.2 Y36.01 E92.02378
G0 F3000 X55.6 Y36.41
G1 F1500 X55.6 Y43.59 E92.34772
G1 X64.4 Y43.59 E92.74474
G1 X64.4 Y36.41 E93.06868
G1 X55.6 Y36.41 E93.46571
G0 F3000 X56 Y36.81
;TYPE:WALL-OUTER
G1 F1500 X56 Y43.19 E93.75355
G1 X64 Y43.19 E94.11449
G1 X64 Y36.81 E94.40233
G1 X56 Y36.81 E94.76326
G0 F3000 X56 Y37.01
G0 X55.56 Y37.01
G1 F2400 E93.56326
G0 F3000 X75.2 Y36.01
;TYPE:WALL-INNER
G1 F2400 E94.76326
G1 F1500 X75.2 Y43.99 E95.1233
G1 X75.75 Y43.99 E95.13947
G1 X84.8 Y43.99 E95.54777
G1 X84.8 Y36.01 E95.9078
G1 X75.2 Y36.01 E96.34092
G0 F3000 X75.6 Y36.41
G1 F1500 X75.6 Y43.59 E96.66486
G1 X84.4 Y43.59 E97.06189
G1 X84.4 Y36.41 E97.38583
G1 X75.6 Y36.41 E97.78285
G0 F3000 X76 Y36.81
;TYPE:WALL-OUTER
G1 F1500 X76 Y43.19 E98.0707
G1 X84 Y43.19 E98.43163
G1 X84 Y36.81 E98.71948
G1 X76 Y36.81 E99.08041
G0 F3000 X76 Y37.01
G0 X75.56 Y37.01
G1 F2400 E97.88041
G0 F3000 X84.5 Y44.5
;TYPE:WALL-INNER
G1 F2400 E99.08041
G1 F1500 X84.5 Y55.5 E99.57669
G1 X95.5 Y55.5 E100.07298
G1 X95.5 Y44.5 E100.56926
G1 X84.5 Y44.5 E101.06554
G0 F3000 X84.9 Y44.9
G1 F1500 X84.9 Y55.1 E101.52574
G1 X95.1 Y55.1 E101.98593
G1 X95.1 Y44.9 E102.44612
G1 X84.9 Y44.9 E102.90631
G0 F3000 X85.3 Y45.3
;TYPE:WALL-OUTER
G1 F1500 X85.3 Y54.7 E103.3304
G1 X94.7 Y54.7 E103.7545
G1 X94.7 Y45.3 E104.1786
G1 X85.3 Y45.3 E104.60269
G0 F3000 X85.3 Y45.5
G0 X84.86 Y45.5
G1 F2400 E103.40269
G0 F3000 X95.2 Y36.01
;TYPE:WALL-INNER
G1 F2400 E104.60269
G1 F1500 X95.2 Y43.99 E104.96273
G1 X104.25 Y43.99 E105.37103
G1 X104.8 Y43.99 E105.39585
G1 X104.8 Y36.01 E105.75588
G1 X95.2 Y36.01 E106.189
G0 F3000 X95.6 Y36.41
G1 F1500 X95.6 Y43.59 E106.51294
G1 X104.4 Y43.59 E106.90996
G1 X104.4 Y36.41 E107.2339
G1 X95.6 Y36.41 E107.63093
G0 F3000 X96 Y36.81
;TYPE:WALL-OUTER
G1 F1500 X96 Y43.19 E107.91877
G1 X104 Y43.19 E108.27971
G1 X104 Y36.81 E108.56755
G1 X96 Y36.81 E108.92848
G0 F3000 X96 Y37.01
G0 X95.56 Y37.01
G1 F2400 E107.72848
G0 F3000 X104.8 Y44.25
;TYPE:WALL-INNER
G1 F2400 E108.92848
G1 F1500 X104.25 Y44.25 E108.94465
G1 X104.25 Y56.01 E109.47523
G1 X95.2 Y56.01 E109.88353
G1 X95.2 Y63.99 E110.24356
G1 X104.25 Y63.99 E110.65187
G1 X104.25 Y75.75 E111.18244
G1 X104.8 Y75.75 E111.20726
G1 X115.2 Y75.75 E111.67647
G1 X124.8 Y75.75 E112.10959
G1 X135.2 Y75.75 E112.57881
G1 X135.75 Y75.75 E112.60362
G1 X135.75 Y63.99 E113.13419
G1 X144.8 Y63.99 E113.5425
G1 X144.8 Y56.01 E113.90253
G1 X135.75 Y56.01 E114.31084
G1 X135.75 Y44.25 E114.84141
G1 X135.2 Y44.25 E114.86622
G1 X124.8 Y44.25 E115.33544
G1 X115.2 Y44.25 E115.76856
G1 X104.8 Y44.25 E116.23777
G0 F3000 X104.65 Y44.65
G1 F1500 X104.65 Y56.41 E116.76834
G1 X104.65 Y63.59 E117.09228
G1 X104.65 Y75.35 E117.62285
G1 X135.35 Y75.35 E119.00794
G1 X135.35 Y63.59 E119.53851
G1 X135.35 Y56.41 E119.86245
G1 X135.35 Y44.65 E120.39302
G1 X104.65 Y44.65 E121.7781
G0 F3000 X105.05 Y45.05
;TYPE:WALL-OUTER
G1 F1500 X105.05 Y74.95 E123.12709
G1 X134.95 Y74.95 E124.47608
G1 X134.95 Y45.05 E125.82507
G1 X105.05 Y45.05 E127.17406
G0 F3000 X105.05 Y45.25
G0 X104.61 Y45.25
G1 F2400 E125.97406
G0 F3000 X115.2 Y36.01
;TYPE:WALL-INNER
G1 F2400 E127.17406
G1 F1500 X115.2 Y43.99 E127.53409
G1 X124.8 Y43.99 E127.81633
G1 X124.8 Y36.01 E128.17636
G1 X115.2 Y36.01 E128.60948
G0 F3000 X115.6 Y36.41
G1 F1500 X115.6 Y43.59 E128.93342
G1 X124.4 Y43.59 E129.33044
G1 X124.4 Y36.41 E129.65438
G1 X115.6 Y36.41 E130.05141
G0 F3000 X116 Y36.81
;TYPE:WALL-OUTER
G1 F1500 X116 Y43.19 E130.33925
G1 X124 Y43.19 E130.70019
G1 X124 Y36.81 E130.98803
G1 X116 Y36.81 E131.34896
G0 F3000 X116 Y37.01
G0 X115.56 Y37.01
G1 F2400 E130.14896
G0 F3000 X135.2 Y36.01
;TYPE:WALL-INNER
G1 F2400 E131.34896
G1 F1500 X135.2 Y43.99 E131.70899
G1 X135.75 Y43.99 E131.72516
G1 X144.8 Y43.99 E132.13347
G1 X144.8 Y36.01 E132.4935
G1 X135.2 Y36.01 E132.92662
G0 F3000 X135.6 Y36.41
G1 F1500 X135.6 Y43.59 E133.25056
G1 X144.4 Y43.59 E133.64759
G1 X144.4 Y36.41 E133.97153
G1 X135.6 Y36.41 E134.36855
G0 F3000 X136 Y36.81
;TYPE:WALL-OUTER
G1 F1500 X136 Y43.19 E134.6564
G1 X144 Y43.19 E135.01733
G1 X144 Y36.81 E135.30518
G1 X136 Y36.81 E135.66611
G0 F3000 X136 Y37.01
G0 X135.56 Y37.01
G1 F2400 E134.46611
G0 F3000 X135.6 Y56.41
;TYPE:WALL-INNER
G1 F2400 E135.66611
G1 F1500 X135.6 Y63.59 E135.86908
G1 X144.4 Y63.59 E136.2661
G1 X144.4 Y56.41 E136.59004
G1 X135.6 Y56.41 E136.98707
G0 F3000 X136 Y56.81
;TYPE:WALL-OUTER
G1 F1500 X136 Y63.19 E137.27491
G1 X144 Y63.19 E137.63585
G1 X144 Y56.81 E137.92369
G1 X136 Y56.81 E138.28463
G0 F3000 X136 Y57.01
G0 X135.56 Y57.01
G1 F2400 E137.08463
G0 F3000 X135.75 Y76.01
;TYPE:WALL-INNER
G1 F2400 E138.28463
G1 F1500 X135.2 Y76.01 E138.3008
G1 X135.2 Y83.99 E138.66083
G1 X144.8 Y83.99 E139.09395
G1 X144.8 Y76.01 E139.45398
G1 X135.75 Y76.01 E139.86229
G0 F3000 X135.6 Y76.41
G1 F1500 X135.6 Y83.59 E140.18622
G1 X144.4 Y83.59 E140.58325
G1 X144.4 Y76.41 E140.90719
G1 X135.6 Y76.41 E141.30422
G0 F3000 X136 Y76.81
;TYPE:WALL-OUTER
G1 F1500 X136 Y83.19 E141.59206
G1 X144 Y83.19 E141.95299
G1 X144 Y76.81 E142.24084
G1 X136 Y76.81 E142.60177
G0 F3000 X136 Y77.01
G0 X135.56 Y77.01
G1 F2400 E141.40177
G0 F3000 X124.5 Y84.5
;TYPE:WALL-INNER
G1 F2400 E142.60177
G1 F1500 X124.5 Y95.5 E143.09806
G1 X135.5 Y95.5 E143.59434
G1 X135.5 Y84.5 E144.09062
G1 X124.5 Y84.5 E144.58691
G0 F3000 X124.9 Y84.9
G1 F1500 X124.9 Y95.1 E145.0471
G1 X135.1 Y95.1 E145.50729
G1 X135.1 Y84.9 E145.96748
G1 X124.9 Y84.9 E146.42767
G0 F3000 X125.3 Y85.3
;TYPE:WALL-OUTER
G1 F1500 X125.3 Y94.7 E146.85177
G1 X134.7 Y94.7 E147.27586
G1 X134.7 Y85.3 E147.69996
G1 X125.3 Y85.3 E148.12406
G0 F3000 X125.3 Y85.5
G0 X124.86 Y85.5
G1 F2400 E146.92406
G0 F3000 X115.2 Y76.01
;TYPE:WALL-INNER
G1 F2400 E148.12406
G1 F1500 X115.2 Y83.99 E148.48409
G1 X124.8 Y83.99 E148.91721
G1 X124.8 Y76.01 E149.27724
G1 X115.2 Y76.01 E149.55947
G0 F3000 X115.6 Y76.41
G1 F1500 X115.6 Y83.59 E149.88341
G1 X124.4 Y83.59 E150.28044
G1 X124.4 Y76.41 E150.60438
G1 X115.6 Y76.41 E151.0014
G0 F3000 X116 Y76.81
;TYPE:WALL-OUTER
G1 F1500 X116 Y83.19 E151.28925
G1 X124 Y83.19 E151.65018
G1 X124 Y76.81 E151.93803
G1 X116 Y76.81 E152.29896
G0 F3000 X116 Y77.01
G0 X115.56 Y77.01
G1 F2400 E151.09896
G0 F3000 X104.5 Y84.5
;TYPE:WALL-INNER
G1 F2400 E152.29896
G1 F1500 X104.5 Y95.5 E152.79524
G1 X115.5 Y95.5 E153.29153
G1 X115.5 Y84.5 E153.78781
G1 X104.5 Y84.5 E154.2841
G0 F3000 X104.9 Y84.9
G1 F1500 X104.9 Y95.1 E154.74429
G1 X115.1 Y95.1 E155.20448
G1 X115.1 Y84.9 E155.66467
G1 X104.9 Y84.9 E156.12486
G0 F3000 X105.3 Y85.3
;TYPE:WALL-OUTER
G1 F1500 X105.3 Y94.7 E156.54895
G1 X114.7 Y94.7 E156.97305
G1 X114.7 Y85.3 E157.39715
G1 X105.3 Y85.3 E157.82125
G0 F3000 X105.3 Y85.5
G0 X104.86 Y85.5
G1 F2400 E156.62125
G0 F3000 X95.2 Y76.01
;TYPE:WALL-INNER
G1 F2400 E157.82125
G1 F1500 X95.2 Y83.99 E158.18128
G1 X104.8 Y83.99 E158.6144
G1 X104.8 Y76.01 E158.97443
G1 X104.25 Y76.01 E158.9906
G1 X95.2 Y76.01 E159.3989
G0 F3000 X95.6 Y76.41
G1 F1500 X95.6 Y83.59 E159.72284
G1 X104.4 Y83.59 E160.11987
G1 X104.4 Y76.41 E160.44381
G1 X95.6 Y76.41 E160.84083
G0 F3000 X96 Y76.81
;TYPE:WALL-OUTER
G1 F1500 X96 Y83.19 E161.12868
G1 X104 Y83.19 E161.48961
G1 X104 Y76.81 E161.77746
G1 X96 Y76.81 E162.13839
G0 F3000 X96 Y77.01
G0 X95.56 Y77.01
G1 F2400 E160.93839
G0 F3000 X84.5 Y84.5
;TYPE:WALL-INNER
G1 F2400 E162.13839
G1 F1500 X84.5 Y95.5 E162.63467
G1 X95.5 Y95.5 E163.13096
G1 X95.5 Y84.5 E163.62724
G1 X84.5 Y84.5 E164.12353
G0 F3000 X84.9 Y84.9
G1 F1500 X84.9 Y95.1 E164.58372
G1 X95.1 Y95.1 E165.04391
G1 X95.1 Y84.9 E165.5041
G1 X84.9 Y84.9 E165.96429
G0 F3000 X85.3 Y85.3
;TYPE:WALL-OUTER
G1 F1500 X85.3 Y94.7 E166.38838
G1 X94.7 Y94.7 E166.81248
G1 X94.7 Y85.3 E167.23658
G1 X85.3 Y85.3 E167.66068
G0 F3000 X85.3 Y85.5
G0 X84.86 Y85.5
G1 F2400 E166.46068
G0 F3000 X75.75 Y76.01
;TYPE:WALL-INNER
G1 F2400 E167.66068
G1 F1500 X75.2 Y76.01 E167.67685
G1 X75.2 Y83.99 E168.03688
G1 X84.8 Y83.99 E168.47
G1 X84.8 Y76.01 E168.83003
G1 X75.75 Y76.01 E169.23833
G0 F3000 X75.6 Y76.41
G1 F1500 X75.6 Y83.59 E169.56227
G1 X84.4 Y83.59 E169.9593
G1 X84.4 Y76.41 E170.28324
G1 X75.6 Y76.41 E170.68026
G0 F3000 X76 Y76.81
;TYPE:WALL-OUTER
G1 F1500 X76 Y83.19 E170.96811
G1 X84 Y83.19 E171.32904
G1 X84 Y76.81 E171.61689
G1 X76 Y76.81 E171.97782
G0 F3000 X76 Y77.01
G0 X75.56 Y77.01
G1 F2400 E170.77782
G0 F3000 X64.5 Y84.5
;TYPE:WALL-INNER
G1 F2400 E171.97782
G1 F1500 X64.5 Y95.5 E172.4741
G1 X75.5 Y95.5 E172.97039
G1 X75.5 Y84.5 E173.46667
G1 X64.5 Y84.5 E173.96296
G0 F3000 X64.9 Y84.9
G1 F1500 X64.9 Y95.1 E174.42315
G1 X75.1 Y95.1 E174.88334
G1 X75.1 Y84.9 E175.34353
G1 X64.9 Y84.9 E175.80372
G0 F3000 X65.3 Y85.3
;TYPE:WALL-OUTER
G1 F1500 X65.3 Y94.7 E176.22781
G1 X74.7 Y94.7 E176.65191
G1 X74.7 Y85.3 E177.07601
G1 X65.3 Y85.3 E177.50011
G0 F3000 X65.3 Y85.5
G0 X64.86 Y85.5
G1 F2400 E176.30011
G0 F3000 X55.2 Y76.01
;TYPE:WALL-INNER
