;FLAVOR:Marlin
;TIME:569
;Filament used: 0.75747m
;Layer height: 0.3
;MINX:66.01
;MINY:65.011
;MINZ:0.3
;MAXX:113.99
;MAXY:108.79
;MAXZ:5.1
;Generated with Cura_SteamEngine 4.12.1
M82 ;absolute extrusion mode
G21 ;metric values
G90 ;absolute positioning
M82 ;set extruder to absolute mode
M107 ;start with the fan off

M104 S200 T0 ; start heating T0 to what is set in Cura
M140 S60 ; start heating the bed to what is set in Cura
M190 S60 ; start heating the bed to what is set in Cura
M109 S200 T0 ; start heating T0 to what is set in Cura

G28 X0 Y0 ;move X/Y to min endstops
G28 Z0 ;move Z to min endstops
G1 Z15.0 F2400 ;move the platform down 15mm
G92 E0 ;zero the extruded length
G1 F200 E3 ;extrude 3mm of feed stock
G92 E0 ;zero the extruded length again
G1 F2400
G0 Y20 F2400
M117 Printing...
G5
G92 E0
G92 E0
G1 F2400 E-1.2
;LAYER_COUNT:17
;LAYER:0
M107
G0 F3000 X68.225 Y80.453 Z0.3
;TYPE:SKIRT
G1 F2400 E0
G1 F1500 X68.682 Y80.119 E0.02554
G1 X68.961 Y79.959 E0.04005
G1 X69.968 Y79.435 E0.09126
G1 X70.027 Y79.406 E0.09423
G1 X72.467 Y78.1 E0.21909
G1 X74.784 Y76.773 E0.33956
G1 X77.097 Y75.361 E0.46182
G1 X79.402 Y73.863 E0.58585
G1 X80.926 Y72.82 E0.66917
G1 X81.918 Y72.129 E0.72371
G1 X82.403 Y71.839 E0.7492
G1 X82.81 Y71.661 E0.76925
G1 X83.503 Y71.404 E0.80259
G1 X84.8 Y70.944 E0.86468
G1 X87.317 Y69.97 E0.98644
G1 X89.844 Y68.911 E1.11006
G1 X92.315 Y67.79 E1.23248
G1 X95.811 Y66.058 E1.4085
G1 X96.931 Y65.475 E1.46547
G1 X97.449 Y65.25 E1.49095
G1 X97.994 Y65.101 E1.51644
G1 X98.692 Y65.024 E1.54812
G1 X99.252 Y65.012 E1.5734
G1 X99.394 Y65.011 E1.5798
G1 X100.381 Y65.025 E1.62434
G1 X103.745 Y65.015 E1.77611
G1 X103.905 Y65.012 E1.78333
G1 X104.469 Y65.041 E1.80881
G1 X105.024 Y65.149 E1.83432
G1 X105.558 Y65.335 E1.85983
G1 X106.061 Y65.594 E1.88536
G1 X106.522 Y65.921 E1.91086
G1 X106.961 Y66.343 E1.93833
G1 X107.423 Y66.859 E1.96958
G1 X107.68 Y67.166 E1.98764
G1 X108.008 Y67.627 E2.01317
G1 X108.267 Y68.129 E2.03865
G1 X108.45 Y68.651 E2.06361
G1 X108.516 Y68.891 E2.07484
G1 X109.266 Y71.458 E2.1955
G1 X110.12 Y74.106 E2.32102
G1 X111.017 Y76.629 E2.44183
G1 X111.991 Y79.146 E2.5636
G1 X113.045 Y81.663 E2.68671
G1 X113.455 Y82.603 E2.73298
G1 X113.644 Y83.136 E2.75849
G1 X113.756 Y83.69 E2.78399
G1 X113.789 Y84.142 E2.80444
G1 X113.798 Y84.74 E2.83142
G1 X113.875 Y87.455 E2.95397
G1 X113.986 Y89.521 E3.04731
G1 X113.99 Y90.359 E3.08512
G1 X113.957 Y91.153 E3.12097
G1 X113.875 Y92.589 E3.18587
G1 X113.797 Y95.355 E3.31071
G1 X113.79 Y95.852 E3.33313
G1 X113.742 Y96.416 E3.35867
G1 X113.615 Y96.967 E3.38418
G1 X113.412 Y97.494 E3.40966
G1 X113.136 Y97.988 E3.43519
G1 X112.551 Y98.731 E3.47786
G1 X112.179 Y99.152 E3.5032
G1 X111.775 Y99.547 E3.5287
G1 X111.318 Y99.881 E3.55423
G1 X111.039 Y100.041 E3.56874
G1 X110.032 Y100.565 E3.61996
G1 X109.973 Y100.594 E3.62293
G1 X107.533 Y101.9 E3.74779
G1 X105.216 Y103.227 E3.86825
G1 X102.903 Y104.639 E3.99052
G1 X100.598 Y106.137 E4.11454
G1 X99.074 Y107.18 E4.19786
G1 X98.1 Y107.861 E4.25148
G1 X97.728 Y108.095 E4.27131
G1 X97.215 Y108.331 E4.29678
G1 X96.673 Y108.493 E4.32231
G1 X95.862 Y108.589 E4.35915
G1 X95.26 Y108.598 E4.38632
G1 X92.545 Y108.675 E4.50886
G1 X90.479 Y108.786 E4.6022
G1 X89.641 Y108.79 E4.64001
G1 X88.847 Y108.757 E4.67586
G1 X87.394 Y108.675 E4.74152
G1 X84.644 Y108.597 E4.86564
G1 X84.149 Y108.59 E4.88798
G1 X83.586 Y108.542 E4.91347
G1 X83.035 Y108.415 E4.93898
G1 X82.508 Y108.212 E4.96446
G1 X81.922 Y107.874 E4.99498
G1 X80.852 Y107.13 E5.05378
G1 X80.791 Y107.093 E5.057
G1 X79.06 Y105.908 E5.15164
G1 X76.759 Y104.423 E5.2752
G1 X74.447 Y103.023 E5.39714
G1 X72.096 Y101.69 E5.51908
G1 X68.969 Y100.044 E5.67851
G1 X68.489 Y99.746 E5.704
G1 X68.055 Y99.383 E5.72952
G1 X67.851 Y99.171 E5.7428
G1 X67.376 Y98.64 E5.77494
G1 X67.132 Y98.351 E5.79201
G1 X66.803 Y97.891 E5.81752
G1 X66.542 Y97.39 E5.84301
G1 X66.354 Y96.857 E5.86851
G1 X66.243 Y96.302 E5.89404
G1 X66.211 Y95.857 E5.91417
G1 X66.202 Y95.26 E5.94111
G1 X66.125 Y92.545 E6.06365
G1 X66.014 Y90.479 E6.157
G1 X66.01 Y89.64 E6.19485
G1 X66.043 Y88.847 E6.23066
G1 X66.125 Y87.394 E6.29632
G1 X66.203 Y84.645 E6.42039
G1 X66.21 Y84.148 E6.44282
G1 X66.258 Y83.584 E6.46836
G1 X66.385 Y83.033 E6.49387
G1 X66.588 Y82.506 E6.51935
G1 X66.864 Y82.012 E6.54488
G1 X67.449 Y81.269 E6.58754
G1 X67.821 Y80.848 E6.61289
G1 X68.225 Y80.453 E6.63838
G0 F3000 X68.505 Y80.741
G1 F1500 X69.146 Y80.314 E6.67313
G1 X70.146 Y79.793 E6.724
G1 X70.228 Y79.752 E6.72814
G1 X72.633 Y78.465 E6.8512
G1 X74.984 Y77.119 E6.97343
G1 X77.343 Y75.679 E7.09812
G1 X79.605 Y74.209 E7.21983
G1 X81.152 Y73.15 E7.30441
G1 X82.146 Y72.457 E7.35908
G1 X82.608 Y72.184 E7.38329
G1 X82.949 Y72.036 E7.40006
G1 X83.637 Y71.781 E7.43317
G1 X84.942 Y71.319 E7.49563
G1 X87.468 Y70.341 E7.61783
G1 X90.014 Y69.273 E7.7424
G1 X92.455 Y68.166 E7.86332
G1 X96.014 Y66.404 E8.0425
G1 X97.115 Y65.83 E8.09851
G1 X97.608 Y65.618 E8.12273
G1 X98.127 Y65.482 E8.14693
G1 X98.701 Y65.424 E8.17296
G1 X99.388 Y65.411 E8.20396
G1 X100.377 Y65.425 E8.24859
G1 X103.753 Y65.415 E8.4009
G1 X103.912 Y65.412 E8.40808
G1 X104.448 Y65.441 E8.43229
G1 X104.973 Y65.55 E8.45649
G1 X105.476 Y65.736 E8.48068
G1 X105.946 Y65.995 E8.50489
G1 X106.372 Y66.32 E8.52907
G1 X106.663 Y66.61 E8.5476
G1 X107.125 Y67.126 E8.57885
G1 X107.371 Y67.42 E8.59615
G1 X107.68 Y67.858 E8.62033
G1 X107.921 Y68.338 E8.64456
G1 X108.114 Y68.939 E8.67304
G1 X108.898 Y71.621 E8.79911
G1 X109.738 Y74.226 E8.9226
G1 X110.638 Y76.759 E9.04388
G1 X111.62 Y79.296 E9.16661
G1 X112.679 Y81.823 E9.29023
G1 X113.089 Y82.763 E9.3365
G1 X113.266 Y83.269 E9.36068
G1 X113.366 Y83.796 E9.38488
G1 X113.389 Y84.148 E9.4008
G1 X113.397 Y84.697 E9.42557
G1 X113.477 Y87.488 E9.55154
G1 X113.583 Y89.45 E9.64019
G1 X113.596 Y89.959 E9.66316
G1 X113.587 Y90.453 E9.68545
G1 X113.557 Y91.13 E9.71603
G1 X113.477 Y92.536 E9.77956
G1 X113.396 Y95.401 E9.90888
G1 X113.39 Y95.847 E9.929
G1 X113.342 Y96.381 E9.95319
G1 X113.216 Y96.902 E9.97737
G1 X113.014 Y97.399 E10.00158
G1 X112.74 Y97.86 E10.02577
G1 X112.244 Y98.474 E10.06138
G1 X111.88 Y98.886 E10.08619
G1 X111.495 Y99.259 E10.11037
G1 X110.854 Y99.686 E10.14512
G1 X109.854 Y100.207 E10.19599
G1 X109.772 Y100.248 E10.20013
G1 X107.367 Y101.535 E10.32319
G1 X105.016 Y102.881 E10.44542
G1 X102.657 Y104.321 E10.57011
G1 X100.395 Y105.791 E10.69182
G1 X98.848 Y106.85 E10.7764
G1 X97.871 Y107.533 E10.83019
G1 X97.487 Y107.77 E10.85054
G1 X96.996 Y107.985 E10.87473
G1 X96.478 Y108.125 E10.89894
G1 X95.856 Y108.189 E10.92715
G1 X95.283 Y108.198 E10.953
G1 X92.512 Y108.277 E11.07807
G1 X90.55 Y108.383 E11.16672
G1 X90.041 Y108.396 E11.18969
G1 X89.547 Y108.387 E11.21198
G1 X88.87 Y108.357 E11.24256
G1 X87.464 Y108.277 E11.30609
G1 X84.619 Y108.197 E11.4345
G1 X84.155 Y108.19 E11.45544
G1 X83.621 Y108.142 E11.47963
G1 X83.1 Y108.016 E11.50381
G1 X82.603 Y107.813 E11.52803
G1 X82.151 Y107.546 E11.55172
G1 X81.057 Y106.785 E11.61184
G1 X81.017 Y106.763 E11.6139
G1 X79.281 Y105.574 E11.70883
G1 X76.977 Y104.088 E11.83253
G1 X74.63 Y102.667 E11.95631
G1 X72.302 Y101.346 E12.07708
G1 X69.155 Y99.69 E12.23752
G1 X68.701 Y99.405 E12.2617
G1 X68.149 Y98.904 E12.29533
G1 X67.674 Y98.373 E12.32748
G1 X67.44 Y98.095 E12.34387
G1 X67.13 Y97.658 E12.36804
G1 X66.887 Y97.18 E12.39224
G1 X66.719 Y96.671 E12.41642
G1 X66.628 Y96.142 E12.44064
G1 X66.611 Y95.851 E12.45379
G1 X66.602 Y95.254 E12.48072
G1 X66.523 Y92.508 E12.60467
G1 X66.417 Y90.55 E12.69313
G1 X66.404 Y90.041 E12.71611
G1 X66.413 Y89.546 E12.73844
G1 X66.443 Y88.87 E12.76897
G1 X66.523 Y87.464 E12.83251
G1 X66.604 Y84.599 E12.96182
G1 X66.61 Y84.153 E12.98194
G1 X66.658 Y83.619 E13.00613
G1 X66.784 Y83.098 E13.03032
G1 X66.986 Y82.601 E13.05452
G1 X67.26 Y82.14 E13.07872
G1 X67.756 Y81.526 E13.11433
G1 X68.12 Y81.114 E13.13913
G1 X68.505 Y80.741 E13.16332
G0 F3000 X68.783 Y81.029
G1 F1500 X69.331 Y80.668 E13.19292
G1 X70.267 Y80.18 E13.24055
G1 X70.403 Y80.113 E13.24739
G1 X72.815 Y78.822 E13.37081
G1 X75.213 Y77.449 E13.49548
G1 X77.523 Y76.039 E13.61758
G1 X79.837 Y74.535 E13.7421
G1 X81.378 Y73.48 E13.82636
G1 X82.375 Y72.785 E13.88119
G1 X82.811 Y72.529 E13.904
G1 X83.089 Y72.411 E13.91762
G1 X83.77 Y72.158 E13.9504
G1 X85.083 Y71.693 E14.01324
G1 X87.631 Y70.707 E14.13651
G1 X90.156 Y69.648 E14.26004
G1 X92.63 Y68.526 E14.3826
G1 X96.225 Y66.745 E14.56361
G1 X97.3 Y66.185 E14.6183
G1 X97.765 Y65.987 E14.6411
G1 X98.256 Y65.866 E14.66391
G1 X98.709 Y65.824 E14.68444
G1 X99.383 Y65.811 E14.71485
G1 X100.373 Y65.825 E14.75952
G1 X103.762 Y65.815 E14.91242
G1 X103.92 Y65.812 E14.91955
G1 X104.425 Y65.842 E14.94238
G1 X104.918 Y65.951 E14.96516
G1 X105.388 Y66.137 E14.98796
G1 X105.824 Y66.395 E15.01082
G1 X106.365 Y66.876 E15.04348
G1 X106.827 Y67.392 E15.07473
G1 X107.063 Y67.674 E15.09132
G1 X107.352 Y68.089 E15.11413
G1 X107.573 Y68.544 E15.13696
G1 X107.73 Y69.052 E15.16095
G1 X108.516 Y71.741 E15.28734
G1 X109.356 Y74.346 E15.41083
G1 X110.264 Y76.901 E15.53316
G1 X111.237 Y79.415 E15.65479
G1 X112.331 Y82.026 E15.78251
G1 X112.722 Y82.923 E15.82666
G1 X112.887 Y83.401 E15.84947
G1 X112.975 Y83.899 E15.87229
G1 X112.989 Y84.154 E15.88381
G1 X112.997 Y84.708 E15.90881
G1 X113.077 Y87.503 E16.03496
G1 X113.186 Y89.546 E16.12726
G1 X113.19 Y90.347 E16.1634
G1 X113.158 Y91.107 E16.19772
G1 X113.077 Y92.536 E16.2623
G1 X112.996 Y95.39 E16.39111
G1 X112.99 Y95.841 E16.41146
G1 X112.943 Y96.344 E16.43425
G1 X112.817 Y96.834 E16.45708
G1 X112.616 Y97.298 E16.47989
G1 X112.248 Y97.845 E16.50964
G1 X111.87 Y98.295 E16.53615
G1 X111.581 Y98.62 E16.55577
G1 X111.217 Y98.971 E16.57859
G1 X110.669 Y99.332 E16.6082
G1 X109.733 Y99.82 E16.65582
G1 X109.597 Y99.887 E16.66266
G1 X107.185 Y101.178 E16.78609
G1 X104.787 Y102.551 E16.91076
G1 X102.477 Y103.961 E17.03286
G1 X100.163 Y105.465 E17.15737
G1 X98.649 Y106.502 E17.24016
G1 X97.642 Y107.206 E17.2956
G1 X97.249 Y107.443 E17.3163
G1 X96.781 Y107.636 E17.33914
G1 X96.289 Y107.752 E17.36195
G1 X95.85 Y107.789 E17.38183
G1 X95.267 Y107.798 E17.40813
G1 X92.48 Y107.878 E17.53392
G1 X90.454 Y107.986 E17.62546
G1 X89.653 Y107.99 E17.6616
G1 X88.893 Y107.958 E17.69592
G1 X87.464 Y107.877 E17.76049
G1 X84.635 Y107.797 E17.88818
G1 X84.161 Y107.79 E17.90957
G1 X83.657 Y107.743 E17.93241
G1 X83.168 Y107.617 E17.95519
G1 X82.704 Y107.416 E17.978
G1 X82.379 Y107.217 E17.9952
G1 X81.312 Y106.475 E18.05383
G1 X81.243 Y106.433 E18.05748
G1 X79.502 Y105.241 E18.15267
G1 X77.171 Y103.737 E18.27783
G1 X74.855 Y102.335 E18.39997
G1 X72.481 Y100.988 E18.52312
G1 X69.342 Y99.336 E18.68316
G1 X68.914 Y99.066 E18.70599
G1 X68.447 Y98.637 E18.7346
G1 X67.972 Y98.106 E18.76674
G1 X67.748 Y97.84 E18.78243
G1 X67.457 Y97.427 E18.80522
G1 X67.235 Y96.973 E18.82802
G1 X67.087 Y96.489 E18.85086
G1 X67.011 Y95.845 E18.88012
G1 X67.002 Y95.248 E18.90705
G1 X66.922 Y92.465 E19.03267
G1 X66.814 Y90.454 E19.12353
G1 X66.81 Y89.652 E19.15971
G1 X66.842 Y88.893 E19.19398
G1 X66.923 Y87.464 E19.25856
G1 X67.004 Y84.61 E19.38737
G1 X67.01 Y84.159 E19.40772
G1 X67.057 Y83.656 E19.43052
G1 X67.183 Y83.166 E19.45334
G1 X67.384 Y82.702 E19.47616
G1 X67.752 Y82.155 E19.5059
G1 X68.13 Y81.705 E19.53242
G1 X68.419 Y81.38 E19.55204
G1 X68.783 Y81.029 E19.57485
G1 F2400 E18.37485
;MESH:clip-clip.stl(5)
G0 F3000 X71.4 Y86.351
;TYPE:WALL-INNER
G1 F2400 E19.57485
G1 F1500 X70.8 Y85.752 E19.6131
G1 X70.8 Y84.422 E19.67311
G1 X71.075 Y84.101 E19.69218
G1 X71.5 Y84.474 E19.71769
G1 X71.5 Y86.351 E19.80237
G1 X71.5 Y89.4 E19.93993
G1 X75.3 Y89.4 E20.11138
G1 X75.3 Y86.351 E20.24894
G1 X75.3 Y84.474 E20.33362
G1 X75.725 Y84.101 E20.35913
G1 X76 Y84.422 E20.3782
G1 X76 Y85.752 E20.43821
G1 X75.4 Y86.351 E20.47646
G1 X75.4 Y89.4 E20.51094
G1 X76.2 Y90 E20.55605
G1 X75.4 Y90.6 E20.60117
G1 X75.4 Y93.649 E20.73873
G1 X76 Y94.248 E20.77698
G1 X76 Y95.578 E20.83699
G1 X75.725 Y95.899 E20.85606
G1 X75.3 Y95.528 E20.88151
G1 X75.3 Y93.649 E20.96629
G1 X75.3 Y90.6 E21.00076
G1 X71.5 Y90.6 E21.1722
G1 X71.5 Y93.649 E21.30977
G1 X71.5 Y95.528 E21.39454
G1 X71.075 Y95.899 E21.41999
G1 X70.8 Y95.578 E21.43906
G1 X70.8 Y94.248 E21.49907
G1 X71.4 Y93.649 E21.53732
G1 X71.4 Y90.6 E21.5718
G1 X70.6 Y90 E21.61691
G1 X71.4 Y89.4 E21.66203
G1 X71.4 Y86.351 E21.69651
G0 F3000 X71 Y86.517
;TYPE:WALL-OUTER
G1 F1500 X70.4 Y85.918 E21.73476
G1 X70.4 Y84.274 E21.80893
G1 X70.892 Y83.7 E21.84304
G1 X71.224 Y83.7 E21.85802
G1 X71.9 Y84.292 E21.89856
G1 X71.9 Y89 E22.11097
G1 X74.9 Y89 E22.24632
G1 X74.9 Y84.292 E22.45873
G1 X75.576 Y83.7 E22.49927
G1 X75.908 Y83.7 E22.51424
G1 X76.4 Y84.274 E22.54835
G1 X76.4 Y85.918 E22.62252
G1 X75.8 Y86.517 E22.66078
G1 X75.8 Y89.2 E22.78182
G1 X76.6 Y89.8 E22.82694
G1 X76.6 Y90.2 E22.84499
G1 X75.8 Y90.8 E22.8901
G1 X75.8 Y93.483 E23.01115
G1 X76.4 Y94.082 E23.0494
G1 X76.4 Y95.726 E23.12357
G1 X75.908 Y96.3 E23.15768
G1 X75.576 Y96.3 E23.17266
G1 X74.9 Y95.709 E23.21317
G1 X74.9 Y91 E23.42563
G1 X71.9 Y91 E23.56098
G1 X71.9 Y95.709 E23.77343
G1 X71.224 Y96.3 E23.81394
G1 X70.892 Y96.3 E23.82892
G1 X70.4 Y95.726 E23.86303
G1 X70.4 Y94.082 E23.9372
G1 X71 Y93.483 E23.97545
G1 X71 Y90.8 E24.0965
G1 X70.2 Y90.2 E24.14162
G1 X70.2 Y89.8 E24.15966
G1 X71 Y89.2 E24.20478
G1 X71 Y86.517 E24.32583
G0 F3000 X70.859 Y86.376
G0 X71.17 Y86.066
G0 X71.32 Y85.462
;TYPE:SKIN
G1 F1500 X70.98 Y85.122 E24.34794
G0 F3000 X71.32 Y84.896
G1 F1500 X70.98 Y84.556 E24.37005
G1 F2400 E23.17005
G0 F3000 X71.53 Y89.79
G1 F2400 E24.37005
G1 F1500 X75.27 Y89.79 E24.54201
G1 X75.55 Y90 E24.5581
G1 X75.27 Y90.21 E24.57419
G1 X71.53 Y90.21 E24.74615
G1 X71.25 Y90 E24.76225
G1 X71.53 Y89.79 E24.77834
G0 F3000 X71.867 Y89.969
G1 F1500 X71.927 Y90.029 E24.78224
G0 F3000 X72.433 Y89.969
G1 F1500 X72.493 Y90.029 E24.78614
G0 F3000 X72.998 Y89.969
G1 F1500 X73.058 Y90.029 E24.79004
G0 F3000 X73.564 Y89.969
G1 F1500 X73.624 Y90.029 E24.79394
G0 F3000 X74.13 Y89.969
G1 F1500 X74.19 Y90.029 E24.79785
G0 F3000 X74.695 Y89.969
G1 F1500 X74.756 Y90.029 E24.80178
G1 F2400 E23.60178
G0 F3000 X71.054 Y94.247
G1 F2400 E24.80178
G1 F1500 X71.32 Y94.513 E24.81908
G0 F3000 X70.979 Y94.738
G1 F1500 X71.32 Y95.078 E24.84122
G0 F3000 X70.979 Y95.303
G1 F1500 X71.212 Y95.537 E24.8564
G1 F2400 E23.6564
G0 F3000 X75.479 Y95.278
G1 F2400 E24.8564
G1 F1500 X75.77 Y95.569 E24.87532
G0 F3000 X75.82 Y95.053
G1 F1500 X75.479 Y94.712 E24.89749
G0 F3000 X75.82 Y94.487
G1 F1500 X75.479 Y94.147 E24.91963
G1 F2400 E23.71963
G0 F3000 X75.656 Y85.839
G1 F2400 E24.91963
G1 F1500 X75.48 Y85.662 E24.93111
G0 F3000 X75.82 Y85.436
G1 F1500 X75.48 Y85.096 E24.95322
G0 F3000 X75.82 Y84.871
G1 F1500 X75.492 Y84.543 E24.97455
G1 F2400 E23.77455
;MESH:clip-clip.stl(1)
G0 F3000 X79.8 Y89.4
;TYPE:WALL-INNER
G1 F2400 E24.97455
G1 F1500 X83.6 Y89.4 E25.14599
G1 X83.6 Y86.351 E25.28355
G1 X83.6 Y84.474 E25.36824
G1 X84.025 Y84.101 E25.39375
G1 X84.3 Y84.422 E25.41282
G1 X84.3 Y85.752 E25.47282
G1 X83.7 Y86.351 E25.51107
G1 X83.7 Y89.4 E25.54555
G1 X84.5 Y90 E25.59067
G1 X83.7 Y90.6 E25.63578
G1 X83.7 Y93.649 E25.77335
G1 X84.3 Y94.248 E25.8116
G1 X84.3 Y95.578 E25.8716
G1 X84.025 Y95.899 E25.89067
G1 X83.6 Y95.528 E25.91612
G1 X83.6 Y93.649 E26.0009
G1 X83.6 Y90.6 E26.03537
G1 X79.8 Y90.6 E26.20682
G1 X79.8 Y93.649 E26.34438
G1 X79.8 Y95.528 E26.42915
G1 X79.375 Y95.899 E26.45461
G1 X79.1 Y95.578 E26.47368
G1 X79.1 Y94.248 E26.53368
G1 X79.7 Y93.649 E26.57193
G1 X79.7 Y90.6 E26.60641
G1 X78.9 Y90 E26.65153
G1 X79.7 Y89.4 E26.69664
G1 X79.7 Y86.351 E26.8342
G1 X79.1 Y85.752 E26.87245
G1 X79.1 Y84.422 E26.93246
G1 X79.375 Y84.101 E26.95153
G1 X79.8 Y84.474 E26.97704
G1 X79.8 Y86.351 E27.06173
G1 X79.8 Y89.4 E27.0962
G0 F3000 X80.2 Y89
;TYPE:WALL-OUTER
G1 F1500 X83.2 Y89 E27.23155
G1 X83.2 Y84.292 E27.44396
G1 X83.876 Y83.7 E27.4845
G1 X84.208 Y83.7 E27.49948
G1 X84.7 Y84.274 E27.53359
G1 X84.7 Y85.918 E27.60776
G1 X84.1 Y86.517 E27.64601
G1 X84.1 Y89.2 E27.76706
G1 X84.9 Y89.8 E27.81218
G1 X84.9 Y90.2 E27.83022
G1 X84.1 Y90.8 E27.87534
G1 X84.1 Y93.483 E27.99639
G1 X84.7 Y94.082 E28.03464
G1 X84.7 Y95.726 E28.10881
G1 X84.208 Y96.3 E28.14292
G1 X83.876 Y96.3 E28.1579
