;FLAVOR:Marlin
;TIME:7575
;Filament used: 13.4846m
;Layer height: 0.3
;MINX:26
;MINY:26
;MINZ:0.3
;MAXX:154
;MAXY:154
;MAXZ:9.9
;Generated with Cura_SteamEngine 4.12.1
M82 ;absolute extrusion mode
G21 ;metric values
G90 ;absolute positioning
M82 ;set extruder to absolute mode
M107 ;start with the fan off

M104 S200 T0 ; start heating T0 to what is set in Cura
M140 S60 ; start heating the bed to what is set in Cura
M190 S60 ; start heating the bed to what is set in Cura
M109 S200 T0 ; start heating T0 to what is set in Cura

G28 X0 Y0 ;move X/Y to min endstops
G28 Z0 ;move Z to min endstops
G1 Z15.0 F2400 ;move the platform down 15mm
G92 E0 ;zero the extruded length
G1 F200 E3 ;extrude 3mm of feed stock
G92 E0 ;zero the extruded length again
G1 F2400
G0 Y20 F2400
M117 Printing...
G5
G92 E0
G92 E0
G1 F2400 E-1.2
;LAYER_COUNT:33
;LAYER:0
M107
G0 F3000 X27.004 Y27.369 Z0.3
;TYPE:SKIRT
G1 F2400 E0
G1 F1500 X27.406 Y26.972 E0.02549
G1 X27.86 Y26.635 E0.051
G1 X28.357 Y26.366 E0.0765
G1 X28.887 Y26.169 E0.10201
G1 X29.44 Y26.05 E0.12753
G1 X30.218 Y26.002 E0.16269
G1 X30.33 Y26 E0.16775
G1 X149.35 Y26 E5.53754
G1 X150.048 Y26.01 E5.56903
G1 X150.612 Y26.058 E5.59457
G1 X151.162 Y26.185 E5.62004
G1 X151.69 Y26.389 E5.64558
G1 X152.184 Y26.664 E5.67109
G1 X152.633 Y27.007 E5.69658
G1 X153.03 Y27.409 E5.72207
G1 X153.367 Y27.864 E5.74761
G1 X153.635 Y28.361 E5.77309
G1 X153.831 Y28.891 E5.79858
G1 X153.951 Y29.444 E5.82411
G1 X153.998 Y30.218 E5.8591
G1 X154 Y30.33 E5.86415
G1 X154 Y149.314 E11.23232
G1 X153.991 Y150.041 E11.26512
G1 X153.944 Y150.604 E11.29061
G1 X153.818 Y151.155 E11.31611
G1 X153.616 Y151.683 E11.34162
G1 X153.341 Y152.177 E11.36712
G1 X152.999 Y152.627 E11.39262
G1 X152.597 Y153.025 E11.41815
G1 X152.144 Y153.362 E11.44362
G1 X151.647 Y153.632 E11.46914
G1 X151.117 Y153.829 E11.49465
G1 X150.565 Y153.95 E11.52014
G1 X149.782 Y153.998 E11.55554
G1 X149.67 Y154 E11.56059
G1 X30.655 Y154 E16.93016
G1 X29.957 Y153.991 E16.96165
G1 X29.394 Y153.943 E16.98714
G1 X28.843 Y153.817 E17.01264
G1 X28.315 Y153.615 E17.03815
G1 X27.821 Y153.34 E17.06366
G1 X27.371 Y152.998 E17.08916
G1 X26.973 Y152.596 E17.11468
G1 X26.637 Y152.142 E17.14016
G1 X26.367 Y151.645 E17.16568
G1 X26.17 Y151.115 E17.19119
G1 X26.05 Y150.563 E17.21668
G1 X26.001 Y149.766 E17.2527
G1 X26 Y30.62 E22.62818
G1 X26.009 Y29.955 E22.65818
G1 X26.057 Y29.392 E22.68368
G1 X26.183 Y28.841 E22.70918
G1 X26.386 Y28.313 E22.7347
G1 X26.662 Y27.819 E22.76023
G1 X27.004 Y27.369 E22.78573
G0 F3000 X27.397 Y27.531
G1 F1500 X27.794 Y27.171 E22.80991
G1 X28.241 Y26.873 E22.83415
G1 X28.726 Y26.645 E22.85833
G1 X29.24 Y26.492 E22.88252
G1 X29.908 Y26.41 E22.91289
G1 X30.33 Y26.4 E22.93193
G1 X149.345 Y26.4 E28.3015
G1 X150.043 Y26.41 E28.33299
G1 X150.577 Y26.458 E28.35718
G1 X151.098 Y26.584 E28.38136
G1 X151.595 Y26.787 E28.40558
G1 X152.056 Y27.061 E28.42978
G1 X152.471 Y27.4 E28.45396
G1 X152.831 Y27.798 E28.47817
G1 X153.128 Y28.244 E28.50234
G1 X153.356 Y28.73 E28.52656
G1 X153.508 Y29.244 E28.55075
G1 X153.59 Y29.909 E28.58098
G1 X153.6 Y30.33 E28.59997
G1 X153.6 Y149.309 E33.96792
G1 X153.591 Y150.036 E34.00072
G1 X153.544 Y150.57 E34.0249
G1 X153.419 Y151.091 E34.04908
G1 X153.217 Y151.588 E34.07328
G1 X152.944 Y152.05 E34.09749
G1 X152.606 Y152.466 E34.12167
G1 X152.209 Y152.827 E34.14588
G1 X151.763 Y153.125 E34.17008
G1 X151.278 Y153.353 E34.19426
G1 X150.764 Y153.507 E34.21847
G1 X150.092 Y153.59 E34.24902
G1 X149.67 Y153.6 E34.26806
G1 X30.661 Y153.6 E39.63736
G1 X29.963 Y153.591 E39.66885
G1 X29.428 Y153.544 E39.69308
G1 X28.907 Y153.418 E39.71727
G1 X28.41 Y153.216 E39.74147
G1 X27.949 Y152.943 E39.76564
G1 X27.533 Y152.604 E39.78985
G1 X27.172 Y152.208 E39.81403
G1 X26.874 Y151.762 E39.83823
G1 X26.646 Y151.276 E39.86245
G1 X26.493 Y150.762 E39.88665
G1 X26.41 Y150.088 E39.91728
G1 X26.4 Y149.658 E39.93669
G1 X26.4 Y30.625 E45.30707
G1 X26.409 Y29.96 E45.33707
G1 X26.457 Y29.426 E45.36126
G1 X26.583 Y28.905 E45.38545
G1 X26.785 Y28.408 E45.40965
G1 X27.058 Y27.947 E45.43382
G1 X27.397 Y27.531 E45.45803
G0 F3000 X27.454 Y28.082
G1 F1500 X27.789 Y27.704 E45.48082
G1 X28.18 Y27.383 E45.50364
G1 X28.617 Y27.128 E45.52647
G1 X29.088 Y26.944 E45.54929
G1 X29.582 Y26.838 E45.57208
G1 X30.24 Y26.801 E45.60181
G1 X149.339 Y26.8 E50.97517
G1 X150.037 Y26.81 E51.00666
G1 X150.54 Y26.857 E51.02946
G1 X151.03 Y26.983 E51.05228
G1 X151.494 Y27.185 E51.07512
G1 X151.92 Y27.457 E51.09792
G1 X152.298 Y27.792 E51.12071
G1 X152.618 Y28.183 E51.1435
G1 X152.873 Y28.62 E51.16633
G1 X153.056 Y29.091 E51.18913
G1 X153.163 Y29.585 E51.21193
G1 X153.199 Y30.24 E51.24153
G1 X153.2 Y149.304 E56.6133
G1 X153.191 Y150.031 E56.6461
G1 X153.145 Y150.534 E56.66889
G1 X153.02 Y151.024 E56.69171
G1 X152.819 Y151.488 E56.71452
G1 X152.548 Y151.915 E56.73734
G1 X152.213 Y152.294 E56.76016
G1 X151.823 Y152.615 E56.78295
G1 X151.387 Y152.871 E56.80576
G1 X150.916 Y153.054 E56.82856
G1 X150.422 Y153.162 E56.85137
G1 X149.76 Y153.199 E56.88129
G1 X30.666 Y153.2 E62.25442
G1 X29.968 Y153.191 E62.28591
G1 X29.464 Y153.144 E62.30875
G1 X28.974 Y153.019 E62.33156
G1 X28.51 Y152.818 E62.35438
G1 X28.084 Y152.547 E62.37716
G1 X27.705 Y152.212 E62.39998
G1 X27.384 Y151.821 E62.4228
G1 X27.129 Y151.385 E62.44559
G1 X26.945 Y150.914 E62.4684
G1 X26.838 Y150.42 E62.49121
G1 X26.801 Y149.744 E62.52175
G1 X26.8 Y30.631 E67.89574
G1 X26.809 Y29.966 E67.92574
G1 X26.856 Y29.462 E67.94858
G1 X26.982 Y28.973 E67.97136
G1 X27.183 Y28.509 E67.99418
G1 X27.454 Y28.082 E68.017
G1 F2400 E66.817
;MESH:clip_grid_2cm_type_c2.stl
G0 F3000 X35.2 Y36.01
;TYPE:WALL-INNER
G1 F2400 E68.017
G1 F1500 X35.2 Y43.99 E68.37703
G1 X44.25 Y43.99 E68.78533
G1 X44.8 Y43.99 E68.81015
G1 X44.8 Y36.01 E69.17018
G1 X35.2 Y36.01 E69.6033
G0 F3000 X35.6 Y36.41
G1 F1500 X35.6 Y43.59 E69.92724
G1 X44.4 Y43.59 E70.32426
G1 X44.4 Y36.41 E70.6482
G1 X35.6 Y36.41 E71.04523
G0 F3000 X36 Y36.81
;TYPE:WALL-OUTER
G1 F1500 X36 Y43.19 E71.33307
G1 X44 Y43.19 E71.69401
G1 X44 Y36.81 E71.98185
G1 X36 Y36.81 E72.34279
G0 F3000 X36 Y37.01
G0 X35.56 Y37.01
G1 F2400 E71.14279
G0 F3000 X44.8 Y44.25
;TYPE:WALL-INNER
G1 F2400 E72.34279
G1 F1500 X44.25 Y44.25 E72.35895
G1 X44.25 Y56.01 E72.88953
G1 X35.2 Y56.01 E73.29783
G1 X35.2 Y63.99 E73.65786
G1 X44.25 Y63.99 E74.06617
G1 X44.25 Y76.01 E74.60847
G1 X35.2 Y76.01 E75.01678
G1 X35.2 Y83.99 E75.37681
G1 X44.25 Y83.99 E75.78512
G1 X44.25 Y96.01 E76.32742
G1 X35.2 Y96.01 E76.73573
G1 X35.2 Y103.99 E77.09576
G1 X44.25 Y103.99 E77.50406
G1 X44.25 Y116.01 E78.04637
G1 X35.2 Y116.01 E78.45467
G1 X35.2 Y123.99 E78.8147
G1 X44.25 Y123.99 E79.22301
G1 X44.25 Y135.75 E79.75358
G1 X44.8 Y135.75 E79.7784
G1 X55.2 Y135.75 E80.24761
G1 X64.8 Y135.75 E80.68073
G1 X75.2 Y135.75 E81.14995
G1 X75.75 Y135.75 E81.17476
G1 X75.75 Y123.99 E81.70533
G1 X84.8 Y123.99 E82.11364
G1 X84.8 Y116.01 E82.47367
G1 X75.75 Y116.01 E82.88198
G1 X75.75 Y103.99 E83.42428
G1 X84.8 Y103.99 E83.83258
G1 X84.8 Y96.01 E84.19262
G1 X75.75 Y96.01 E84.60092
G1 X75.75 Y83.99 E85.14323
G1 X84.8 Y83.99 E85.55153
G1 X84.8 Y76.01 E85.91156
G1 X75.75 Y76.01 E86.31987
G1 X75.75 Y63.99 E86.86217
G1 X84.8 Y63.99 E87.27048
G1 X84.8 Y56.01 E87.63051
G1 X75.75 Y56.01 E88.03882
G1 X75.75 Y44.25 E88.56939
G1 X75.2 Y44.25 E88.5942
G1 X64.8 Y44.25 E89.06342
G1 X55.2 Y44.25 E89.49654
G1 X44.8 Y44.25 E89.96575
G0 F3000 X44.65 Y44.65
G1 F1500 X44.65 Y56.41 E90.49632
G1 X44.65 Y63.59 E90.82026
G1 X44.65 Y76.41 E91.39866
G1 X44.65 Y83.59 E91.72259
G1 X44.65 Y96.41 E92.30099
G1 X44.65 Y103.59 E92.62493
G1 X44.65 Y116.41 E93.20333
G1 X44.65 Y123.59 E93.52726
G1 X44.65 Y135.35 E94.05784
G1 X75.35 Y135.35 E95.44292
G1 X75.35 Y123.59 E95.97349
G1 X75.35 Y116.41 E96.29743
G1 X75.35 Y103.59 E96.87583
G1 X75.35 Y96.41 E97.19976
G1 X75.35 Y83.59 E97.77816
G1 X75.35 Y76.41 E98.1021
G1 X75.35 Y63.59 E98.68049
G1 X75.35 Y56.41 E99.00443
G1 X75.35 Y44.65 E99.535
G1 X44.65 Y44.65 E100.92009
G0 F3000 X45.05 Y45.05
;TYPE:WALL-OUTER
G1 F1500 X45.05 Y134.95 E104.97608
G1 X74.95 Y134.95 E106.32507
G1 X74.95 Y45.05 E110.38106
G1 X45.05 Y45.05 E111.73005
G0 F3000 X45.05 Y45.25
G0 X44.61 Y45.25
G1 F2400 E110.53005
G0 F3000 X55.2 Y36.01
;TYPE:WALL-INNER
G1 F2400 E111.73005
G1 F1500 X55.2 Y43.99 E112.09008
G1 X64.8 Y43.99 E112.37232
G1 X64.8 Y36.01 E112.73235
G1 X55.2 Y36.01 E113.16547
G0 F3000 X55.6 Y36.41
G1 F1500 X55.6 Y43.59 E113.48941
G1 X64.4 Y43.59 E113.88643
G1 X64.4 Y36.41 E114.21037
G1 X55.6 Y36.41 E114.6074
G0 F3000 X56 Y36.81
;TYPE:WALL-OUTER
G1 F1500 X56 Y43.19 E114.89524
G1 X64 Y43.19 E115.25618
G1 X64 Y36.81 E115.54402
G1 X56 Y36.81 E115.90495
G0 F3000 X56 Y37.01
G0 X55.56 Y37.01
G1 F2400 E114.70495
G0 F3000 X75.2 Y36.01
;TYPE:WALL-INNER
G1 F2400 E115.90495
G1 F1500 X75.2 Y43.99 E116.26498
G1 X75.75 Y43.99 E116.28115
G1 X84.8 Y43.99 E116.68946
G1 X84.8 Y36.01 E117.04949
G1 X75.2 Y36.01 E117.48261
G0 F3000 X75.6 Y36.41
G1 F1500 X75.6 Y43.59 E117.80655
G1 X84.4 Y43.59 E118.20358
G1 X84.4 Y36.41 E118.52752
G1 X75.6 Y36.41 E118.92454
G0 F3000 X76 Y36.81
;TYPE:WALL-OUTER
G1 F1500 X76 Y43.19 E119.21239
G1 X84 Y43.19 E119.57332
G1 X84 Y36.81 E119.86117
G1 X76 Y36.81 E120.2221
G0 F3000 X76 Y37.01
G0 X75.56 Y37.01
G1 F2400 E119.0221
G0 F3000 X84.5 Y44.5
;TYPE:WALL-INNER
G1 F2400 E120.2221
G1 F1500 X84.5 Y55.5 E120.71838
G1 X95.5 Y55.5 E121.21467
G1 X95.5 Y44.5 E121.71095
G1 X84.5 Y44.5 E122.20723
G0 F3000 X84.9 Y44.9
G1 F1500 X84.9 Y55.1 E122.66742
G1 X95.1 Y55.1 E123.12762
G1 X95.1 Y44.9 E123.58781
G1 X84.9 Y44.9 E124.048
G0 F3000 X85.3 Y45.3
;TYPE:WALL-OUTER
G1 F1500 X85.3 Y54.7 E124.47209
G1 X94.7 Y54.7 E124.89619
G1 X94.7 Y45.3 E125.32029
G1 X85.3 Y45.3 E125.74438
G0 F3000 X85.3 Y45.5
G0 X84.86 Y45.5
G1 F2400 E124.54438
G0 F3000 X95.2 Y36.01
;TYPE:WALL-INNER
G1 F2400 E125.74438
G1 F1500 X95.2 Y43.99 E126.10442
G1 X104.25 Y43.99 E126.51272
G1 X104.8 Y43.99 E126.53754
G1 X104.8 Y36.01 E126.89757
G1 X95.2 Y36.01 E127.33069
G0 F3000 X95.6 Y36.41
G1 F1500 X95.6 Y43.59 E127.65463
G1 X104.4 Y43.59 E128.05165
G1 X104.4 Y36.41 E128.37559
G1 X95.6 Y36.41 E128.77262
G0 F3000 X96 Y36.81
;TYPE:WALL-OUTER
G1 F1500 X96 Y43.19 E129.06046
G1 X104 Y43.19 E129.4214
G1 X104 Y36.81 E129.70924
G1 X96 Y36.81 E130.07017
G0 F3000 X96 Y37.01
G0 X95.56 Y37.01
G1 F2400 E128.87017
G0 F3000 X104.8 Y44.25
;TYPE:WALL-INNER
G1 F2400 E130.07017
G1 F1500 X104.25 Y44.25 E130.08634
G1 X104.25 Y56.01 E130.61692
G1 X95.2 Y56.01 E131.02522
G1 X95.2 Y63.99 E131.38525
G1 X104.25 Y63.99 E131.79356
G1 X104.25 Y76.01 E132.33586
G1 X95.2 Y76.01 E132.74417
G1 X95.2 Y83.99 E133.1042
G1 X104.25 Y83.99 E133.51251
G1 X104.25 Y96.01 E134.05481
G1 X95.2 Y96.01 E134.46312
G1 X95.2 Y103.99 E134.82315
G1 X104.25 Y103.99 E135.23145
G1 X104.25 Y116.01 E135.77376
G1 X95.2 Y116.01 E136.18206
G1 X95.2 Y123.99 E136.54209
G1 X104.25 Y123.99 E136.9504
G1 X104.25 Y135.75 E137.48097
G1 X104.8 Y135.75 E137.50579
G1 X115.2 Y135.75 E137.975
G1 X124.8 Y135.75 E138.40812
G1 X135.2 Y135.75 E138.87733
G1 X135.75 Y135.75 E138.90215
G1 X135.75 Y123.99 E139.43272
G1 X144.8 Y123.99 E139.84103
G1 X144.8 Y116.01 E140.20106
G1 X135.75 Y116.01 E140.60936
G1 X135.75 Y103.99 E141.15167
G1 X144.8 Y103.99 E141.55997
G1 X144.8 Y96.01 E141.92001
G1 X135.75 Y96.01 E142.32831
G1 X135.75 Y83.99 E142.87061
G1 X144.8 Y83.99 E143.27892
G1 X144.8 Y76.01 E143.63895
G1 X135.75 Y76.01 E144.04726
G1 X135.75 Y63.99 E144.58956
G1 X144.8 Y63.99 E144.99787
G1 X144.8 Y56.01 E145.3579
G1 X135.75 Y56.01 E145.7662
G1 X135.75 Y44.25 E146.29678
G1 X135.2 Y44.25 E146.32159
G1 X124.8 Y44.25 E146.7908
G1 X115.2 Y44.25 E147.22393
G1 X104.8 Y44.25 E147.69314
G0 F3000 X104.65 Y44.65
G1 F1500 X104.65 Y56.41 E148.22371
G1 X104.65 Y63.59 E148.54765
G1 X104.65 Y76.41 E149.12605
G1 X104.65 Y83.59 E149.44998
G1 X104.65 Y96.41 E150.02838
G1 X104.65 Y103.59 E150.35232
G1 X104.65 Y116.41 E150.93071
G1 X104.65 Y123.59 E151.25465
G1 X104.65 Y135.35 E151.78522
G1 X135.35 Y135.35 E153.17031
G1 X135.35 Y123.59 E153.70088
G1 X135.35 Y116.41 E154.02482
G1 X135.35 Y103.59 E154.60321
G1 X135.35 Y96.41 E154.92715
G1 X135.35 Y83.59 E155.50555
G1 X135.35 Y76.41 E155.82949
G1 X135.35 Y63.59 E156.40788
G1 X135.35 Y56.41 E156.73182
G1 X135.35 Y44.65 E157.26239
G1 X104.65 Y44.65 E158.64748
G0 F3000 X105.05 Y45.05
;TYPE:WALL-OUTER
G1 F1500 X105.05 Y134.95 E162.70347
G1 X134.95 Y134.95 E164.05246
G1 X134.95 Y45.05 E168.10845
G1 X105.05 Y45.05 E169.45744
G0 F3000 X105.05 Y45.25
G0 X104.61 Y45.25
G1 F2400 E168.25744
G0 F3000 X115.2 Y36.01
;TYPE:WALL-INNER
G1 F2400 E169.45744
G1 F1500 X115.2 Y43.99 E169.81747
G1 X124.8 Y43.99 E170.0997
G1 X124.8 Y36.01 E170.45974
G1 X115.2 Y36.01 E170.89286
G0 F3000 X115.6 Y36.41
G1 F1500 X115.6 Y43.59 E171.21679
G1 X124.4 Y43.59 E171.61382
G1 X124.4 Y36.41 E171.93776
G1 X115.6 Y36.41 E172.33479
G0 F3000 X116 Y36.81
;TYPE:WALL-OUTER
G1 F1500 X116 Y43.19 E172.62263
G1 X124 Y43.19 E172.98356
G1 X124 Y36.81 E173.27141
G1 X116 Y36.81 E173.63234
G0 F3000 X116 Y37.01
G0 X115.56 Y37.01
G1 F2400 E172.43234
G0 F3000 X135.2 Y36.01
;TYPE:WALL-INNER
G1 F2400 E173.63234
G1 F1500 X135.2 Y43.99 E173.99237
G1 X135.75 Y43.99 E174.00854
G1 X144.8 Y43.99 E174.41685
G1 X144.8 Y36.01 E174.77688
G1 X135.2 Y36.01 E175.21
G0 F3000 X135.6 Y36.41
G1 F1500 X135.6 Y43.59 E175.53394
G1 X144.4 Y43.59 E175.93097
G1 X144.4 Y36.41 E176.2549
G1 X135.6 Y36.41 E176.65193
G0 F3000 X136 Y36.81
;TYPE:WALL-OUTER
G1 F1500 X136 Y43.19 E176.93978
G1 X144 Y43.19 E177.30071
G1 X144 Y36.81 E177.58855
G1 X136 Y36.81 E177.94949
G0 F3000 X136 Y37.01
G0 X135.56 Y37.01
G1 F2400 E176.74949
G0 F3000 X135.6 Y56.41
;TYPE:WALL-INNER
G1 F2400 E177.94949
G1 F1500 X135.6 Y63.59 E178.15246
G1 X144.4 Y63.59 E178.54948
G1 X144.4 Y56.41 E178.87342
G1 X135.6 Y56.41 E179.27045
G0 F3000 X136 Y56.81
;TYPE:WALL-OUTER
G1 F1500 X136 Y63.19 E179.55829
G1 X144 Y63.19 E179.91923
G1 X144 Y56.81 E180.20707
G1 X136 Y56.81 E180.568
G0 F3000 X136 Y57.01
G0 X135.56 Y57.01
G1 F2400 E179.368
G0 F3000 X135.6 Y76.41
;TYPE:WALL-INNER
G1 F2400 E180.568
G1 F1500 X135.6 Y83.59 E180.77097
G1 X144.4 Y83.59 E181.168
G1 X144.4 Y76.41 E181.49194
G1 X135.6 Y76.41 E181.88897
G0 F3000 X136 Y76.81
;TYPE:WALL-OUTER
G1 F1500 X136 Y83.19 E182.17681
G1 X144 Y83.19 E182.53774
G1 X144 Y76.81 E182.82559
G1 X136 Y76.81 E183.18652
G0 F3000 X136 Y77.01
G0 X135.56 Y77.01
G1 F2400 E181.98652
G0 F3000 X135.6 Y96.41
;TYPE:WALL-INNER
G1 F2400 E183.18652
G1 F1500 X135.6 Y103.59 E183.38949
G1 X144.4 Y103.59 E183.78652
G1 X144.4 Y96.41 E184.11046
G1 X135.6 Y96.41 E184.50748
G0 F3000 X136 Y96.81
;TYPE:WALL-OUTER
G1 F1500 X136 Y103.19 E184.79533
G1 X144 Y103.19 E185.15626
G1 X144 Y96.81 E185.44411
G1 X136 Y96.81 E185.80504
G0 F3000 X136 Y97.01
G0 X135.56 Y97.01
G1 F2400 E184.60504
G0 F3000 X135.6 Y116.41
;TYPE:WALL-INNER
G1 F2400 E185.80504
G1 F1500 X135.6 Y123.59 E186.00801
G1 X144.4 Y123.59 E186.40503
G1 X144.4 Y116.41 E186.72897
G1 X135.6 Y116.41 E187.126
G0 F3000 X136 Y116.81
;TYPE:WALL-OUTER
G1 F1500 X136 Y123.19 E187.41384
G1 X144 Y123.19 E187.77478
G1 X144 Y116.81 E188.06262
G1 X136 Y116.81 E188.42356
G0 F3000 X136 Y117.01
G0 X135.56 Y117.01
G1 F2400 E187.22356
G0 F3000 X135.75 Y136.01
;TYPE:WALL-INNER
G1 F2400 E188.42356
G1 F1500 X135.2 Y136.01 E188.43973
G1 X135.2 Y143.99 E188.79976
G1 X144.8 Y143.99 E189.23288
G1 X144.8 Y136.01 E189.59291
G1 X135.75 Y136.01 E190.00122
G0 F3000 X135.6 Y136.41
G1 F1500 X135.6 Y143.59 E190.32515
G1 X144.4 Y143.59 E190.72218
G1 X144.4 Y136.41 E191.04612
G1 X135.6 Y136.41 E191.44315
G0 F3000 X136 Y136.81
;TYPE:WALL-OUTER
G1 F1500 X136 Y143.19 E191.73099
G1 X144 Y143.19 E192.09192
G1 X144 Y136.81 E192.37977
G1 X136 Y136.81 E192.7407
G0 F3000 X136 Y137.01
G0 X135.56 Y137.01
G1 F2400 E191.5407
G0 F3000 X115.2 Y136.01
;TYPE:WALL-INNER
G1 F2400 E192.7407
G1 F1500 X115.2 Y143.99 E193.10073
G1 X124.8 Y143.99 E193.53385
G1 X124.8 Y136.01 E193.89388
G1 X115.2 Y136.01 E194.17612
G0 F3000 X115.6 Y136.41
G1 F1500 X115.6 Y143.59 E194.50006
G1 X124.4 Y143.59 E194.89708
G1 X124.4 Y136.41 E195.22102
G1 X115.6 Y136.41 E195.61805
G0 F3000 X116 Y136.81
;TYPE:WALL-OUTER
G1 F1500 X116 Y143.19 E195.90589
G1 X124 Y143.19 E196.26683
G1 X124 Y136.81 E196.55467
