;FLAVOR:Marlin
;TIME:7902
;Filament used: 14.5625m
;Layer height: 0.3
;MINX:25.9
;MINY:25.9
;MINZ:0.3
;MAXX:154.1
;MAXY:154.1
;MAXZ:9.9
;Generated with Cura_SteamEngine 4.13.1
M82 ;absolute extrusion mode
G21 ;metric values
G90 ;absolute positioning
M82 ;set extruder to absolute mode
M107 ;start with the fan off

M104 S205.0 T0 ; start heating T0 to what is set in Cura
M140 S55 ; start heating the bed to what is set in Cura
M190 S55 ; start heating the bed to what is set in Cura
M109 S205.0 T0 ; start heating T0 to what is set in Cura

G28 X0 Y0 ;move X/Y to min endstops
G28 Z0 ;move Z to min endstops
G1 Z15.0 F2400 ;move the platform down 15mm
G92 E0 ;zero the extruded length
G1 F200 E3 ;extrude 3mm of feed stock
G92 E0 ;zero the extruded length again
G1 F2400
G0 Y20 F2400
M117 Printing...
G5
G92 E0
G92 E0
G1 F3600 E-1.2
;LAYER_COUNT:33
;LAYER:0
M107
G0 F3000 X27.309 Y26.924 Z0.3
;TYPE:SKIRT
G1 F3600 E0
G1 F1500 X27.765 Y26.578 E0.02841
G1 X28.264 Y26.299 E0.05678
G1 X28.798 Y26.092 E0.0852
G1 X29.355 Y25.961 E0.1136
G1 X29.894 Y25.911 E0.14047
G1 X30.33 Y25.9 E0.16211
G1 X149.352 Y25.9 E6.06898
G1 X150.05 Y25.91 E6.10362
G1 X150.62 Y25.959 E6.13202
G1 X151.178 Y26.086 E6.16042
G1 X151.713 Y26.289 E6.18881
G1 X152.214 Y26.565 E6.2172
G1 X152.673 Y26.908 E6.24564
G1 X153.078 Y27.312 E6.27403
G1 X153.424 Y27.768 E6.30244
G1 X153.703 Y28.268 E6.33085
G1 X153.909 Y28.802 E6.35926
G1 X154.039 Y29.36 E6.38769
G1 X154.089 Y29.895 E6.41436
G1 X154.1 Y30.33 E6.43595
G1 X154.1 Y149.315 E12.34099
G1 X154.091 Y150.042 E12.37707
G1 X154.044 Y150.612 E12.40545
G1 X153.918 Y151.171 E12.43389
G1 X153.715 Y151.706 E12.46229
G1 X153.44 Y152.208 E12.4907
G1 X153.098 Y152.666 E12.51906
G1 X152.695 Y153.073 E12.54749
G1 X152.239 Y153.42 E12.57593
G1 X151.74 Y153.699 E12.6043
G1 X151.206 Y153.907 E12.63274
G1 X150.649 Y154.038 E12.66114
G1 X150.106 Y154.089 E12.68821
G1 X149.67 Y154.1 E12.70985
G1 X30.654 Y154.1 E18.61642
G1 X29.956 Y154.091 E18.65106
G1 X29.386 Y154.043 E18.67945
G1 X28.827 Y153.917 E18.70789
G1 X28.292 Y153.714 E18.73629
G1 X27.79 Y153.439 E18.7647
G1 X27.332 Y153.096 E18.79309
G1 X26.926 Y152.693 E18.82148
G1 X26.579 Y152.238 E18.84988
G1 X26.3 Y151.738 E18.8783
G1 X26.093 Y151.204 E18.90672
G1 X25.962 Y150.647 E18.93512
G1 X25.91 Y150.102 E18.96229
G1 X25.9 Y149.658 E18.98433
G1 X25.9 Y30.619 E24.89204
G1 X25.909 Y29.954 E24.92505
G1 X25.957 Y29.383 E24.95349
G1 X26.084 Y28.825 E24.98189
G1 X26.287 Y28.29 E25.01028
G1 X26.563 Y27.788 E25.03871
G1 X26.905 Y27.33 E25.06708
G1 X27.309 Y26.924 E25.09551
G0 F3000 X27.736 Y27.14
G1 F1500 X28.184 Y26.837 E25.12235
G1 X28.671 Y26.602 E25.14918
G1 X29.188 Y26.442 E25.17604
G1 X29.906 Y26.35 E25.21197
G1 X30.33 Y26.34 E25.23302
G1 X149.345 Y26.34 E31.13954
G1 X150.043 Y26.35 E31.17418
G1 X150.582 Y26.398 E31.20104
G1 X151.108 Y26.525 E31.22789
G1 X151.609 Y26.727 E31.2547
G1 X152.075 Y27.001 E31.28153
G1 X152.496 Y27.341 E31.30839
G1 X152.862 Y27.739 E31.33522
G1 X153.165 Y28.187 E31.36206
G1 X153.399 Y28.675 E31.38892
G1 X153.558 Y29.191 E31.41572
G1 X153.65 Y29.907 E31.45154
G1 X153.66 Y30.33 E31.47254
G1 X153.66 Y149.309 E37.37728
G1 X153.651 Y150.036 E37.41336
G1 X153.604 Y150.575 E37.44021
G1 X153.479 Y151.101 E37.46704
G1 X153.277 Y151.603 E37.4939
G1 X153.004 Y152.069 E37.5207
G1 X152.665 Y152.491 E37.54756
G1 X152.267 Y152.857 E37.5744
G1 X151.82 Y153.161 E37.60122
G1 X151.333 Y153.396 E37.62806
G1 X150.817 Y153.557 E37.65489
G1 X150.094 Y153.65 E37.69106
G1 X149.67 Y153.66 E37.71211
G1 X30.66 Y153.66 E43.61839
G1 X29.962 Y153.651 E43.65303
G1 X29.423 Y153.604 E43.67988
G1 X28.897 Y153.478 E43.70672
G1 X28.396 Y153.276 E43.73353
G1 X27.929 Y153.003 E43.76038
G1 X27.508 Y152.663 E43.78723
G1 X27.142 Y152.266 E43.81403
G1 X26.838 Y151.818 E43.8409
G1 X26.603 Y151.331 E43.86774
G1 X26.443 Y150.815 E43.89455
G1 X26.35 Y150.09 E43.93082
G1 X26.34 Y149.658 E43.95227
G1 X26.34 Y30.624 E49.85973
G1 X26.349 Y29.959 E49.89274
G1 X26.397 Y29.421 E49.91954
G1 X26.523 Y28.895 E49.94639
G1 X26.725 Y28.393 E49.97324
G1 X26.999 Y27.927 E50.00007
G1 X27.338 Y27.506 E50.0269
G1 X27.736 Y27.14 E50.05373
G0 F3000 X27.77 Y27.695
G1 F1500 X28.161 Y27.372 E50.0789
G1 X28.598 Y27.115 E50.10406
G1 X29.07 Y26.929 E50.12924
G1 X29.565 Y26.82 E50.15439
G1 X30.24 Y26.781 E50.18795
G1 X149.339 Y26.78 E56.09864
G1 X150.037 Y26.79 E56.13328
G1 X150.542 Y26.838 E56.15846
G1 X151.033 Y26.963 E56.1836
G1 X151.499 Y27.165 E56.20881
G1 X151.927 Y27.437 E56.23398
G1 X152.307 Y27.773 E56.25915
G1 X152.629 Y28.164 E56.28429
G1 X152.886 Y28.601 E56.30945
G1 X153.072 Y29.073 E56.33462
G1 X153.181 Y29.569 E56.35983
G1 X153.219 Y30.239 E56.39313
G1 X153.22 Y149.304 E62.30214
G1 X153.211 Y150.031 E62.33822
G1 X153.165 Y150.536 E62.36338
G1 X153.04 Y151.027 E62.38853
G1 X152.839 Y151.493 E62.41372
G1 X152.568 Y151.922 E62.4389
G1 X152.233 Y152.302 E62.46404
G1 X151.842 Y152.626 E62.48924
G1 X151.405 Y152.884 E62.51442
G1 X150.934 Y153.07 E62.53956
G1 X150.439 Y153.18 E62.56472
G1 X149.76 Y153.219 E62.59848
G1 X30.665 Y153.22 E68.50897
G1 X29.967 Y153.211 E68.54361
G1 X29.462 Y153.164 E68.56878
G1 X28.971 Y153.039 E68.59393
G1 X28.505 Y152.838 E68.61911
G1 X28.077 Y152.567 E68.64425
G1 X27.696 Y152.232 E68.66943
G1 X27.373 Y151.841 E68.6946
G1 X27.116 Y151.404 E68.71976
G1 X26.93 Y150.932 E68.74494
G1 X26.82 Y150.437 E68.7701
G1 X26.781 Y149.745 E68.8045
G1 X26.78 Y30.63 E74.71599
G1 X26.789 Y29.965 E74.74899
G1 X26.836 Y29.46 E74.77416
G1 X26.962 Y28.969 E74.79932
G1 X27.163 Y28.503 E74.82451
G1 X27.434 Y28.075 E74.84965
G1 X27.77 Y27.695 E74.87482
G1 F3600 E73.67482
;MESH:clip_grid_2cm_type_d.stl
G0 F3000 X63.677 Y63.956
;TYPE:WALL-INNER
G1 F3600 E74.87482
G1 F1500 X64.33 Y63.303 E74.92065
G1 X64.33 Y63.832 E74.93015
G1 X64.33 Y64.33 E74.95487
G1 X63.832 Y64.33 E74.97958
G1 X63.303 Y64.33 E75.00584
G1 X63.677 Y63.956 E75.01994
G1 F3600 E73.81994
G0 F3000 X63.303 Y115.67
G1 F3600 E75.01994
G1 F1500 X63.832 Y115.67 E75.0462
G1 X64.33 Y115.67 E75.07091
G1 X64.33 Y116.168 E75.09563
G1 X64.33 Y116.697 E75.12188
G1 X63.677 Y116.044 E75.15095
G1 X63.303 Y115.67 E75.16506
G1 F3600 E73.96506
G0 F3000 X115.67 Y115.67
G1 F3600 E75.16506
G1 F1500 X116.168 Y115.67 E75.18978
G1 X116.697 Y115.67 E75.21603
G1 X116.044 Y116.323 E75.2451
G1 X115.67 Y116.697 E75.27135
G1 X115.67 Y116.168 E75.28548
G1 X115.67 Y115.67 E75.3102
G1 F3600 E74.1102
G0 F3000 X115.67 Y63.303
G1 F3600 E75.3102
G1 F1500 X116.323 Y63.956 E75.35603
G1 X116.697 Y64.33 E75.38228
G1 X116.168 Y64.33 E75.39641
G1 X115.67 Y64.33 E75.42112
G1 X115.67 Y63.832 E75.44584
G1 X115.67 Y63.303 E75.45534
G1 F3600 E74.25534
G0 F3000 X136.645 Y44.9
G1 F3600 E75.45534
G1 F1500 X143.355 Y44.9 E75.78835
G1 X144.9 Y43.355 E75.89679
G1 X144.9 Y36.645 E76.22979
G1 X143.355 Y35.1 E76.33823
G1 X136.645 Y35.1 E76.67123
G1 X135.1 Y36.645 E76.77967
G1 X135.1 Y43.355 E77.11268
G1 X136.645 Y44.9 E77.22111
G0 F3000 X136.827 Y44.46
G1 F1500 X143.173 Y44.46 E77.53605
G1 X144.46 Y43.173 E77.62638
G1 X144.46 Y36.827 E77.94132
G1 X143.173 Y35.54 E78.03165
G1 X136.827 Y35.54 E78.34659
G1 X135.54 Y36.827 E78.43692
G1 X135.54 Y43.173 E78.75186
G1 X136.827 Y44.46 E78.84219
G0 F3000 X137.009 Y44.02
;TYPE:WALL-OUTER
G1 F1500 X142.991 Y44.02 E79.13907
G1 X144.02 Y42.991 E79.21129
G1 X144.02 Y37.009 E79.50817
G1 X142.991 Y35.98 E79.58039
G1 X137.009 Y35.98 E79.87726
G1 X135.98 Y37.009 E79.94949
G1 X135.98 Y42.991 E80.24636
G1 X137.009 Y44.02 E80.31858
G0 F3000 X137.209 Y44.02
G0 X137.209 Y44.504
G1 F3600 E79.11858
G0 F3000 X43.355 Y44.9
;TYPE:WALL-INNER
G1 F3600 E80.31858
G1 F1500 X44.9 Y43.355 E80.42702
G1 X44.9 Y36.645 E80.76002
G1 X43.355 Y35.1 E80.86846
G1 X36.645 Y35.1 E81.20147
G1 X35.1 Y36.645 E81.3099
G1 X35.1 Y43.355 E81.64291
G1 X36.645 Y44.9 E81.75135
G1 X43.355 Y44.9 E82.08435
G0 F3000 X43.173 Y44.46
G1 F1500 X44.46 Y43.173 E82.17468
G1 X44.46 Y36.827 E82.48962
G1 X43.173 Y35.54 E82.57995
G1 X36.827 Y35.54 E82.89489
G1 X35.54 Y36.827 E82.98522
G1 X35.54 Y43.173 E83.30016
G1 X36.827 Y44.46 E83.39049
G1 X43.173 Y44.46 E83.70543
G0 F3000 X42.991 Y44.02
;TYPE:WALL-OUTER
G1 F1500 X44.02 Y42.991 E83.77765
G1 X44.02 Y37.009 E84.07453
G1 X42.991 Y35.98 E84.14675
G1 X37.009 Y35.98 E84.44363
G1 X35.98 Y37.009 E84.51585
G1 X35.98 Y42.991 E84.81272
G1 X37.009 Y44.02 E84.88494
G1 X42.991 Y44.02 E85.18182
G0 F3000 X43.132 Y43.879
G0 X43.474 Y44.221
G1 F3600 E83.98182
G0 F3000 X63.355 Y124.9
;TYPE:WALL-INNER
G1 F3600 E85.18182
G1 F1500 X63.89 Y124.365 E85.21937
G1 X63.89 Y124.894 E85.23086
G1 X63.891 Y135.107 E85.73771
G1 X63.891 Y135.636 E85.76397
G1 X63.355 Y135.1 E85.7868
G1 X56.645 Y135.1 E86.1198
G1 X55.1 Y136.645 E86.22824
G1 X55.1 Y143.355 E86.56125
G1 X56.645 Y144.9 E86.66968
G1 X63.355 Y144.9 E87.00269
G1 X64.9 Y143.355 E87.11112
G1 X64.9 Y136.645 E87.44413
G1 X64.365 Y136.11 E87.48168
G1 X64.894 Y136.11 E87.49317
G1 X75.106 Y136.11 E87.99997
G1 X75.635 Y136.11 E88.02623
G1 X75.1 Y136.645 E88.049
G1 X75.1 Y143.355 E88.38201
G1 X76.645 Y144.9 E88.49044
G1 X83.355 Y144.9 E88.82345
G1 X84.9 Y143.355 E88.93189
G1 X84.9 Y136.645 E89.26489
G1 X84.365 Y136.11 E89.30244
G1 X84.894 Y136.11 E89.31393
G1 X95.107 Y136.109 E89.82078
G1 X95.636 Y136.109 E89.84704
G1 X95.1 Y136.645 E89.86987
G1 X95.1 Y143.355 E90.20287
G1 X96.645 Y144.9 E90.31131
G1 X103.355 Y144.9 E90.64432
G1 X104.9 Y143.355 E90.75275
G1 X104.9 Y136.645 E91.08576
G1 X104.364 Y136.109 E91.12338
G1 X104.893 Y136.109 E91.13484
G1 X115.107 Y136.109 E91.64175
G1 X115.636 Y136.109 E91.668
G1 X115.1 Y136.645 E91.69083
G1 X115.1 Y143.355 E92.02384
G1 X116.645 Y144.9 E92.13227
G1 X123.355 Y144.9 E92.46528
G1 X124.9 Y143.355 E92.57371
G1 X124.9 Y136.645 E92.90672
G1 X123.355 Y135.1 E93.01516
G1 X116.645 Y135.1 E93.34816
G1 X116.11 Y135.635 E93.38571
G1 X116.11 Y135.106 E93.3972
G1 X116.11 Y124.894 E93.90401
G1 X116.11 Y124.365 E93.93026
G1 X116.645 Y124.9 E93.95303
G1 X123.355 Y124.9 E94.28604
G1 X124.9 Y123.355 E94.39448
G1 X124.9 Y116.645 E94.72748
G1 X124.365 Y116.11 E94.76503
G1 X124.894 Y116.11 E94.77652
G1 X135.107 Y116.109 E95.28337
G1 X135.636 Y116.109 E95.30963
G1 X135.1 Y116.645 E95.33246
G1 X135.1 Y123.355 E95.66546
G1 X136.645 Y124.9 E95.7739
G1 X143.355 Y124.9 E96.10691
G1 X144.9 Y123.355 E96.21534
G1 X144.9 Y116.645 E96.54835
G1 X143.355 Y115.1 E96.65678
G1 X136.645 Y115.1 E96.98979
G1 X136.11 Y115.635 E97.02734
G1 X136.11 Y115.106 E97.03883
G1 X136.11 Y104.894 E97.54563
G1 X136.11 Y104.365 E97.57189
G1 X136.645 Y104.9 E97.59466
G1 X143.355 Y104.9 E97.92767
G1 X144.9 Y103.355 E98.0361
G1 X144.9 Y96.645 E98.36911
G1 X143.355 Y95.1 E98.47755
G1 X136.645 Y95.1 E98.81055
G1 X136.11 Y95.635 E98.8481
G1 X136.11 Y95.106 E98.85959
G1 X136.109 Y84.893 E99.36644
G1 X136.109 Y84.364 E99.3927
G1 X136.645 Y84.9 E99.41553
G1 X143.355 Y84.9 E99.74853
G1 X144.9 Y83.355 E99.85697
G1 X144.9 Y76.645 E100.18998
G1 X143.355 Y75.1 E100.29841
G1 X136.645 Y75.1 E100.63142
G1 X136.109 Y75.636 E100.66904
G1 X136.109 Y75.107 E100.6805
G1 X136.109 Y64.893 E101.18741
G1 X136.109 Y64.364 E101.21366
G1 X136.645 Y64.9 E101.23649
G1 X143.355 Y64.9 E101.5695
G1 X144.9 Y63.355 E101.67793
G1 X144.9 Y56.645 E102.01094
G1 X143.355 Y55.1 E102.11937
G1 X136.645 Y55.1 E102.45238
G1 X135.1 Y56.645 E102.56082
G1 X135.1 Y63.355 E102.89382
G1 X135.635 Y63.89 E102.93137
G1 X135.106 Y63.89 E102.94286
G1 X124.894 Y63.89 E103.44967
G1 X124.365 Y63.89 E103.47592
G1 X124.9 Y63.355 E103.49869
G1 X124.9 Y56.645 E103.8317
G1 X123.355 Y55.1 E103.94013
G1 X116.645 Y55.1 E104.27314
G1 X116.11 Y55.635 E104.31069
G1 X116.11 Y55.106 E104.32218
G1 X116.109 Y44.893 E104.82903
G1 X116.109 Y44.364 E104.85529
G1 X116.645 Y44.9 E104.87812
G1 X123.355 Y44.9 E105.21112
G1 X124.9 Y43.355 E105.31956
G1 X124.9 Y36.645 E105.65257
G1 X123.355 Y35.1 E105.761
G1 X116.645 Y35.1 E106.09401
G1 X115.1 Y36.645 E106.20244
G1 X115.1 Y43.355 E106.53545
G1 X115.635 Y43.89 E106.573
G1 X115.106 Y43.89 E106.58449
G1 X104.894 Y43.89 E107.09129
G1 X104.365 Y43.89 E107.11755
G1 X104.9 Y43.355 E107.14032
G1 X104.9 Y36.645 E107.47333
G1 X103.355 Y35.1 E107.58176
G1 X96.645 Y35.1 E107.91477
G1 X95.1 Y36.645 E108.02321
G1 X95.1 Y43.355 E108.35621
G1 X95.635 Y43.89 E108.39376
G1 X95.106 Y43.89 E108.40525
G1 X84.893 Y43.891 E108.9121
G1 X84.364 Y43.891 E108.93836
G1 X84.9 Y43.355 E108.96119
G1 X84.9 Y36.645 E109.29419
G1 X83.355 Y35.1 E109.40263
G1 X76.645 Y35.1 E109.73564
G1 X75.1 Y36.645 E109.84407
G1 X75.1 Y43.355 E110.17708
G1 X75.636 Y43.891 E110.2147
G1 X75.107 Y43.891 E110.22616
G1 X64.893 Y43.891 E110.73307
G1 X64.364 Y43.891 E110.75932
G1 X64.9 Y43.355 E110.78215
G1 X64.9 Y36.645 E111.11516
G1 X63.355 Y35.1 E111.22359
G1 X56.645 Y35.1 E111.5566
G1 X55.1 Y36.645 E111.66503
G1 X55.1 Y43.355 E111.99804
G1 X56.645 Y44.9 E112.10648
G1 X63.355 Y44.9 E112.43948
G1 X63.89 Y44.365 E112.47703
G1 X63.89 Y44.894 E112.48852
G1 X63.89 Y55.106 E112.99533
G1 X63.89 Y55.635 E113.02158
G1 X63.355 Y55.1 E113.04435
G1 X56.645 Y55.1 E113.37736
G1 X55.1 Y56.645 E113.48579
G1 X55.1 Y63.355 E113.8188
G1 X55.635 Y63.89 E113.85635
G1 X55.106 Y63.89 E113.86784
G1 X44.893 Y63.891 E114.37469
G1 X44.364 Y63.891 E114.40095
G1 X44.9 Y63.355 E114.42378
G1 X44.9 Y56.645 E114.75678
G1 X43.355 Y55.1 E114.86522
G1 X36.645 Y55.1 E115.19823
G1 X35.1 Y56.645 E115.30666
G1 X35.1 Y63.355 E115.63967
G1 X36.645 Y64.9 E115.7481
G1 X43.355 Y64.9 E116.08111
G1 X43.89 Y64.365 E116.11866
G1 X43.89 Y64.894 E116.13015
G1 X43.89 Y75.106 E116.63695
G1 X43.89 Y75.635 E116.66321
G1 X43.355 Y75.1 E116.68598
G1 X36.645 Y75.1 E117.01899
G1 X35.1 Y76.645 E117.12742
G1 X35.1 Y83.355 E117.46043
G1 X36.645 Y84.9 E117.56886
G1 X43.355 Y84.9 E117.90187
G1 X43.89 Y84.365 E117.93942
G1 X43.89 Y84.894 E117.95091
G1 X43.891 Y95.107 E118.45776
G1 X43.891 Y95.636 E118.48402
G1 X43.355 Y95.1 E118.50685
G1 X36.645 Y95.1 E118.83985
G1 X35.1 Y96.645 E118.94829
G1 X35.1 Y103.355 E119.2813
G1 X36.645 Y104.9 E119.38973
G1 X43.355 Y104.9 E119.72274
G1 X43.891 Y104.364 E119.76036
G1 X43.891 Y104.893 E119.77182
G1 X43.891 Y115.107 E120.27873
G1 X43.891 Y115.636 E120.30498
G1 X43.355 Y115.1 E120.32781
G1 X36.645 Y115.1 E120.66082
G1 X35.1 Y116.645 E120.76925
G1 X35.1 Y123.355 E121.10226
G1 X36.645 Y124.9 E121.21069
G1 X43.355 Y124.9 E121.5437
G1 X44.9 Y123.355 E121.65214
G1 X44.9 Y116.645 E121.98514
G1 X44.365 Y116.11 E122.02269
G1 X44.894 Y116.11 E122.03418
G1 X55.106 Y116.11 E122.54099
G1 X55.635 Y116.11 E122.56724
G1 X55.1 Y116.645 E122.59001
G1 X55.1 Y123.355 E122.92302
G1 X56.645 Y124.9 E123.03145
G1 X63.355 Y124.9 E123.36446
G0 F3000 X63.173 Y124.46
G1 F1500 X63.956 Y123.677 E123.41942
G1 X64.33 Y123.303 E123.44567
G1 X64.33 Y123.832 E123.4598
G1 X64.331 Y135.67 E124.0473
G1 X76.168 Y135.67 E124.63475
G1 X76.697 Y135.67 E124.661
G1 X76.323 Y136.044 E124.67511
G1 X75.54 Y136.827 E124.73006
G1 X75.54 Y143.173 E125.04501
G1 X76.827 Y144.46 E125.13533
G1 X83.173 Y144.46 E125.45028
G1 X84.46 Y143.173 E125.5406
G1 X84.46 Y136.827 E125.85555
G1 X83.677 Y136.044 E125.9105
G1 X83.303 Y135.67 E125.93675
G1 X83.832 Y135.67 E125.95088
G1 X96.169 Y135.669 E126.56315
G1 X96.698 Y135.669 E126.5894
G1 X96.324 Y136.043 E126.60351
G1 X95.54 Y136.827 E126.65853
G1 X95.54 Y143.173 E126.97347
G1 X96.827 Y144.46 E127.0638
G1 X103.173 Y144.46 E127.37874
G1 X104.46 Y143.173 E127.46907
G1 X104.46 Y136.827 E127.78401
G1 X103.676 Y136.043 E127.83904
G1 X103.302 Y135.669 E127.86529
G1 X103.831 Y135.669 E127.87942
G1 X115.67 Y135.669 E128.46697
G1 X115.67 Y123.832 E129.05442
G1 X115.67 Y123.303 E129.08067
G1 X116.044 Y123.677 E129.09478
G1 X116.827 Y124.46 E129.14974
G1 X123.173 Y124.46 E129.46468
G1 X124.46 Y123.173 E129.55501
G1 X124.46 Y116.827 E129.86995
G1 X123.677 Y116.044 E129.9249
G1 X123.303 Y115.67 E129.95115
G1 X123.832 Y115.67 E129.96528
G1 X135.67 Y115.669 E130.55278
G1 X135.67 Y103.832 E131.14024
G1 X135.67 Y103.303 E131.16649
G1 X136.044 Y103.677 E131.1806
G1 X136.827 Y104.46 E131.23555
G1 X143.173 Y104.46 E131.55049
G1 X144.46 Y103.173 E131.64082
G1 X144.46 Y96.827 E131.95576
G1 X143.173 Y95.54 E132.04609
G1 X136.827 Y95.54 E132.36103
G1 X136.044 Y96.323 E132.41599
