;FLAVOR:Marlin
;TIME:6034
;Filament used: 10.8109m
;Layer height: 0.3
;MINX:26
;MINY:26
;MINZ:0.3
;MAXX:154
;MAXY:154
;MAXZ:9.9
;Generated with Cura_SteamEngine 4.12.1
M82 ;absolute extrusion mode
G21 ;metric values
G90 ;absolute positioning
M82 ;set extruder to absolute mode
M107 ;start with the fan off

M104 S200 T0 ; start heating T0 to what is set in Cura
M140 S60 ; start heating the bed to what is set in Cura
M190 S60 ; start heating the bed to what is set in Cura
M109 S200 T0 ; start heating T0 to what is set in Cura

G28 X0 Y0 ;move X/Y to min endstops
G28 Z0 ;move Z to min endstops
G1 Z15.0 F2400 ;move the platform down 15mm
G92 E0 ;zero the extruded length
G1 F200 E3 ;extrude 3mm of feed stock
G92 E0 ;zero the extruded length again
G1 F2400
G0 Y20 F2400
M117 Printing...
G5
G92 E0
G92 E0
G1 F2400 E-1.2
;LAYER_COUNT:33
;LAYER:0
M107
G0 F3000 X27.004 Y27.369 Z0.3
;TYPE:SKIRT
G1 F2400 E0
G1 F1500 X27.406 Y26.972 E0.02549
G1 X27.86 Y26.635 E0.051
G1 X28.357 Y26.366 E0.0765
G1 X28.887 Y26.169 E0.10201
G1 X29.44 Y26.05 E0.12753
G1 X30.218 Y26.002 E0.16269
G1 X30.33 Y26 E0.16775
G1 X149.35 Y26 E5.53754
G1 X150.048 Y26.01 E5.56903
G1 X150.612 Y26.058 E5.59457
G1 X151.162 Y26.185 E5.62004
G1 X151.69 Y26.389 E5.64558
G1 X152.184 Y26.664 E5.67109
G1 X152.633 Y27.007 E5.69658
G1 X153.03 Y27.409 E5.72207
G1 X153.367 Y27.864 E5.74761
G1 X153.635 Y28.361 E5.77309
G1 X153.831 Y28.891 E5.79858
G1 X153.951 Y29.444 E5.82411
G1 X153.998 Y30.218 E5.8591
G1 X154 Y30.33 E5.86415
G1 X154 Y149.314 E11.23232
G1 X153.991 Y150.041 E11.26512
G1 X153.944 Y150.604 E11.29061
G1 X153.818 Y151.155 E11.31611
G1 X153.616 Y151.683 E11.34162
G1 X153.341 Y152.177 E11.36712
G1 X152.999 Y152.627 E11.39262
G1 X152.597 Y153.025 E11.41815
G1 X152.144 Y153.362 E11.44362
G1 X151.647 Y153.632 E11.46914
G1 X151.117 Y153.829 E11.49465
G1 X150.565 Y153.95 E11.52014
G1 X149.782 Y153.998 E11.55554
G1 X149.67 Y154 E11.56059
G1 X30.655 Y154 E16.93016
G1 X29.957 Y153.991 E16.96165
G1 X29.394 Y153.943 E16.98714
G1 X28.843 Y153.817 E17.01264
G1 X28.315 Y153.615 E17.03815
G1 X27.821 Y153.34 E17.06366
G1 X27.371 Y152.998 E17.08916
G1 X26.973 Y152.596 E17.11468
G1 X26.637 Y152.142 E17.14016
G1 X26.367 Y151.645 E17.16568
G1 X26.17 Y151.115 E17.19119
G1 X26.05 Y150.563 E17.21668
G1 X26.001 Y149.766 E17.2527
G1 X26 Y30.62 E22.62818
G1 X26.009 Y29.955 E22.65818
G1 X26.057 Y29.392 E22.68368
G1 X26.183 Y28.841 E22.70918
G1 X26.386 Y28.313 E22.7347
G1 X26.662 Y27.819 E22.76023
G1 X27.004 Y27.369 E22.78573
G0 F3000 X27.397 Y27.531
G1 F1500 X27.794 Y27.171 E22.80991
G1 X28.241 Y26.873 E22.83415
G1 X28.726 Y26.645 E22.85833
G1 X29.24 Y26.492 E22.88252
G1 X29.908 Y26.41 E22.91289
G1 X30.33 Y26.4 E22.93193
G1 X149.345 Y26.4 E28.3015
G1 X150.043 Y26.41 E28.33299
G1 X150.577 Y26.458 E28.35718
G1 X151.098 Y26.584 E28.38136
G1 X151.595 Y26.787 E28.40558
G1 X152.056 Y27.061 E28.42978
G1 X152.471 Y27.4 E28.45396
G1 X152.831 Y27.798 E28.47817
G1 X153.128 Y28.244 E28.50234
G1 X153.356 Y28.73 E28.52656
G1 X153.508 Y29.244 E28.55075
G1 X153.59 Y29.909 E28.58098
G1 X153.6 Y30.33 E28.59997
G1 X153.6 Y149.309 E33.96792
G1 X153.591 Y150.036 E34.00072
G1 X153.544 Y150.57 E34.0249
G1 X153.419 Y151.091 E34.04908
G1 X153.217 Y151.588 E34.07328
G1 X152.944 Y152.05 E34.09749
G1 X152.606 Y152.466 E34.12167
G1 X152.209 Y152.827 E34.14588
G1 X151.763 Y153.125 E34.17008
G1 X151.278 Y153.353 E34.19426
G1 X150.764 Y153.507 E34.21847
G1 X150.092 Y153.59 E34.24902
G1 X149.67 Y153.6 E34.26806
G1 X30.661 Y153.6 E39.63736
G1 X29.963 Y153.591 E39.66885
G1 X29.428 Y153.544 E39.69308
G1 X28.907 Y153.418 E39.71727
G1 X28.41 Y153.216 E39.74147
G1 X27.949 Y152.943 E39.76564
G1 X27.533 Y152.604 E39.78985
G1 X27.172 Y152.208 E39.81403
G1 X26.874 Y151.762 E39.83823
G1 X26.646 Y151.276 E39.86245
G1 X26.493 Y150.762 E39.88665
G1 X26.41 Y150.088 E39.91728
G1 X26.4 Y149.658 E39.93669
G1 X26.4 Y30.625 E45.30707
G1 X26.409 Y29.96 E45.33707
G1 X26.457 Y29.426 E45.36126
G1 X26.583 Y28.905 E45.38545
G1 X26.785 Y28.408 E45.40965
G1 X27.058 Y27.947 E45.43382
G1 X27.397 Y27.531 E45.45803
G0 F3000 X27.454 Y28.082
G1 F1500 X27.789 Y27.704 E45.48082
G1 X28.18 Y27.383 E45.50364
G1 X28.617 Y27.128 E45.52647
G1 X29.088 Y26.944 E45.54929
G1 X29.582 Y26.838 E45.57208
G1 X30.24 Y26.801 E45.60181
G1 X149.339 Y26.8 E50.97517
G1 X150.037 Y26.81 E51.00666
G1 X150.54 Y26.857 E51.02946
G1 X151.03 Y26.983 E51.05228
G1 X151.494 Y27.185 E51.07512
G1 X151.92 Y27.457 E51.09792
G1 X152.298 Y27.792 E51.12071
G1 X152.618 Y28.183 E51.1435
G1 X152.873 Y28.62 E51.16633
G1 X153.056 Y29.091 E51.18913
G1 X153.163 Y29.585 E51.21193
G1 X153.199 Y30.24 E51.24153
G1 X153.2 Y149.304 E56.6133
G1 X153.191 Y150.031 E56.6461
G1 X153.145 Y150.534 E56.66889
G1 X153.02 Y151.024 E56.69171
G1 X152.819 Y151.488 E56.71452
G1 X152.548 Y151.915 E56.73734
G1 X152.213 Y152.294 E56.76016
G1 X151.823 Y152.615 E56.78295
G1 X151.387 Y152.871 E56.80576
G1 X150.916 Y153.054 E56.82856
G1 X150.422 Y153.162 E56.85137
G1 X149.76 Y153.199 E56.88129
G1 X30.666 Y153.2 E62.25442
G1 X29.968 Y153.191 E62.28591
G1 X29.464 Y153.144 E62.30875
G1 X28.974 Y153.019 E62.33156
G1 X28.51 Y152.818 E62.35438
G1 X28.084 Y152.547 E62.37716
G1 X27.705 Y152.212 E62.39998
G1 X27.384 Y151.821 E62.4228
G1 X27.129 Y151.385 E62.44559
G1 X26.945 Y150.914 E62.4684
G1 X26.838 Y150.42 E62.49121
G1 X26.801 Y149.744 E62.52175
G1 X26.8 Y30.631 E67.89574
G1 X26.809 Y29.966 E67.92574
G1 X26.856 Y29.462 E67.94858
G1 X26.982 Y28.973 E67.97136
G1 X27.183 Y28.509 E67.99418
G1 X27.454 Y28.082 E68.017
G1 F2400 E66.817
;MESH:clip_grid_2cm_type_d2.stl
G0 F3000 X36.41 Y35.6
;TYPE:WALL-INNER
G1 F2400 E68.017
G1 F1500 X36.41 Y44.4 E68.41402
G1 X43.59 Y44.4 E68.73796
G1 X43.59 Y35.6 E69.13499
G1 X36.41 Y35.6 E69.45893
G0 F3000 X36.81 Y36
;TYPE:WALL-OUTER
G1 F1500 X36.81 Y44 E69.81986
G1 X43.19 Y44 E70.1077
G1 X43.19 Y36 E70.46864
G1 X36.81 Y36 E70.75648
G0 F3000 X36.81 Y36.2
G0 X36.37 Y36.2
G1 F2400 E69.55648
G0 F3000 X44.9 Y44.9
;TYPE:WALL-INNER
G1 F2400 E70.75648
G1 F1500 X44.9 Y55.1 E71.21667
G1 X55.1 Y55.1 E71.67686
G1 X55.1 Y44.9 E72.13705
G1 X44.9 Y44.9 E72.59724
G0 F3000 X45.3 Y45.3
;TYPE:WALL-OUTER
G1 F1500 X45.3 Y54.7 E73.02134
G1 X54.7 Y54.7 E73.44544
G1 X54.7 Y45.3 E73.86953
G1 X45.3 Y45.3 E74.29363
G0 F3000 X45.3 Y45.5
G0 X44.86 Y45.5
G1 F2400 E73.09363
G0 F3000 X36.41 Y55.6
;TYPE:WALL-INNER
G1 F2400 E74.29363
G1 F1500 X36.41 Y64.4 E74.69066
G1 X43.59 Y64.4 E75.0146
G1 X43.59 Y55.6 E75.41162
G1 X36.41 Y55.6 E75.73556
G0 F3000 X36.81 Y56
;TYPE:WALL-OUTER
G1 F1500 X36.81 Y64 E76.0965
G1 X43.19 Y64 E76.38434
G1 X43.19 Y56 E76.74527
G1 X36.81 Y56 E77.03312
G0 F3000 X36.81 Y56.2
G0 X36.37 Y56.2
G1 F2400 E75.83312
G0 F3000 X44.65 Y64.85
;TYPE:WALL-INNER
G1 F2400 E77.03312
G1 F1500 X44.65 Y115.15 E79.30249
G1 X64.8 Y115.15 E80.21159
G1 X64.8 Y135.35 E81.12295
G1 X76.41 Y135.35 E81.64675
G1 X83.59 Y135.35 E81.97069
G1 X96.41 Y135.35 E82.54909
G1 X103.59 Y135.35 E82.87302
G1 X115.2 Y135.35 E83.39683
G1 X115.2 Y115.15 E84.30819
G1 X135.35 Y115.15 E85.21729
G1 X135.35 Y64.85 E87.48666
G1 X115.2 Y64.85 E88.39576
G1 X115.2 Y44.65 E89.30712
G1 X103.59 Y44.65 E89.83092
G1 X96.41 Y44.65 E90.15486
G1 X83.59 Y44.65 E90.73326
G1 X76.41 Y44.65 E91.0572
G1 X64.8 Y44.65 E91.581
G1 X64.8 Y64.85 E92.49236
G1 X44.65 Y64.85 E93.40146
G0 F3000 X45.05 Y65.25
;TYPE:WALL-OUTER
G1 F1500 X45.05 Y114.75 E95.63474
G1 X65.2 Y114.75 E96.54384
G1 X65.2 Y134.95 E97.4552
G1 X114.8 Y134.95 E99.69298
G1 X114.8 Y114.75 E100.60434
G1 X134.95 Y114.75 E101.51344
G1 X134.95 Y65.25 E103.74672
G1 X114.8 Y65.25 E104.65582
G1 X114.8 Y45.05 E105.56718
G1 X65.2 Y45.05 E107.80497
G1 X65.2 Y65.25 E108.71633
G1 X45.05 Y65.25 E109.62543
G0 F3000 X45.05 Y65.45
G0 X44.61 Y65.45
G1 F2400 E108.42543
G0 F3000 X36.41 Y75.6
;TYPE:WALL-INNER
G1 F2400 E109.62543
G1 F1500 X36.41 Y84.4 E110.02246
G1 X43.59 Y84.4 E110.34639
G1 X43.59 Y75.6 E110.74342
G1 X36.41 Y75.6 E111.06736
G0 F3000 X36.81 Y76
;TYPE:WALL-OUTER
G1 F1500 X36.81 Y84 E111.42829
G1 X43.19 Y84 E111.71614
G1 X43.19 Y76 E112.07707
G1 X36.81 Y76 E112.36491
G0 F3000 X36.81 Y76.2
G0 X36.37 Y76.2
G1 F2400 E111.16491
G0 F3000 X36.41 Y95.6
;TYPE:WALL-INNER
G1 F2400 E112.36491
G1 F1500 X36.41 Y104.4 E112.76194
G1 X43.59 Y104.4 E113.08588
G1 X43.59 Y95.6 E113.48291
G1 X36.41 Y95.6 E113.80684
G0 F3000 X36.81 Y96
;TYPE:WALL-OUTER
G1 F1500 X36.81 Y104 E114.16778
G1 X43.19 Y104 E114.45562
G1 X43.19 Y96 E114.81656
G1 X36.81 Y96 E115.1044
G0 F3000 X36.81 Y96.2
G0 X36.37 Y96.2
G1 F2400 E113.9044
G0 F3000 X36.41 Y115.6
;TYPE:WALL-INNER
G1 F2400 E115.1044
G1 F1500 X36.41 Y124.4 E115.50143
G1 X43.59 Y124.4 E115.82537
G1 X43.59 Y115.6 E116.22239
G1 X36.41 Y115.6 E116.54633
G0 F3000 X36.81 Y116
;TYPE:WALL-OUTER
G1 F1500 X36.81 Y124 E116.90726
G1 X43.19 Y124 E117.19511
G1 X43.19 Y116 E117.55604
G1 X36.81 Y116 E117.84389
G0 F3000 X36.81 Y116.2
G0 X36.37 Y116.2
G1 F2400 E116.64389
G0 F3000 X44.9 Y124.9
;TYPE:WALL-INNER
G1 F2400 E117.84389
G1 F1500 X44.9 Y135.1 E118.30408
G1 X55.1 Y135.1 E118.76427
G1 X55.1 Y124.9 E119.22446
G1 X44.9 Y124.9 E119.68465
G0 F3000 X45.3 Y125.3
;TYPE:WALL-OUTER
G1 F1500 X45.3 Y134.7 E120.10875
G1 X54.7 Y134.7 E120.53284
G1 X54.7 Y125.3 E120.95694
G1 X45.3 Y125.3 E121.38104
G0 F3000 X45.3 Y125.5
G0 X44.86 Y125.5
G1 F2400 E120.18104
G0 F3000 X36.41 Y135.6
;TYPE:WALL-INNER
G1 F2400 E121.38104
G1 F1500 X36.41 Y144.4 E121.77806
G1 X43.59 Y144.4 E122.102
G1 X43.59 Y135.6 E122.49903
G1 X36.41 Y135.6 E122.82297
G0 F3000 X36.81 Y136
;TYPE:WALL-OUTER
G1 F1500 X36.81 Y144 E123.1839
G1 X43.19 Y144 E123.47175
G1 X43.19 Y136 E123.83268
G1 X36.81 Y136 E124.12052
G0 F3000 X36.81 Y136.2
G0 X36.37 Y136.2
G1 F2400 E122.92052
G0 F3000 X56.41 Y135.6
;TYPE:WALL-INNER
G1 F2400 E124.12052
G1 F1500 X56.41 Y144.4 E124.51755
G1 X63.59 Y144.4 E124.84149
G1 X63.59 Y135.6 E125.23852
G1 X56.41 Y135.6 E125.56245
G0 F3000 X56.81 Y136
;TYPE:WALL-OUTER
G1 F1500 X56.81 Y144 E125.92339
G1 X63.19 Y144 E126.21123
G1 X63.19 Y136 E126.57217
G1 X56.81 Y136 E126.86001
G0 F3000 X56.81 Y136.2
G0 X56.37 Y136.2
G1 F2400 E125.66001
G0 F3000 X76.41 Y135.6
;TYPE:WALL-INNER
G1 F2400 E126.86001
G1 F1500 X76.41 Y144.4 E127.25704
G1 X83.59 Y144.4 E127.58098
G1 X83.59 Y135.6 E127.978
G1 X76.41 Y135.6 E128.18097
G0 F3000 X76.81 Y136
;TYPE:WALL-OUTER
G1 F1500 X76.81 Y144 E128.5419
G1 X83.19 Y144 E128.82975
G1 X83.19 Y136 E129.19068
G1 X76.81 Y136 E129.47853
G0 F3000 X76.81 Y136.2
G0 X76.37 Y136.2
G1 F2400 E128.27853
G0 F3000 X96.41 Y135.6
;TYPE:WALL-INNER
G1 F2400 E129.47853
G1 F1500 X96.41 Y144.4 E129.87555
G1 X103.59 Y144.4 E130.19949
G1 X103.59 Y135.6 E130.59652
G1 X96.41 Y135.6 E130.79949
G0 F3000 X96.81 Y136
;TYPE:WALL-OUTER
G1 F1500 X96.81 Y144 E131.16042
G1 X103.19 Y144 E131.44827
G1 X103.19 Y136 E131.8092
G1 X96.81 Y136 E132.09704
G0 F3000 X96.81 Y136.2
G0 X96.37 Y136.2
G1 F2400 E130.89704
G0 F3000 X116.41 Y135.6
;TYPE:WALL-INNER
G1 F2400 E132.09704
G1 F1500 X116.41 Y144.4 E132.49407
G1 X123.59 Y144.4 E132.81801
G1 X123.59 Y135.6 E133.21504
G1 X116.41 Y135.6 E133.53897
G0 F3000 X116.81 Y136
;TYPE:WALL-OUTER
G1 F1500 X116.81 Y144 E133.89991
G1 X123.19 Y144 E134.18775
G1 X123.19 Y136 E134.54869
G1 X116.81 Y136 E134.83653
G0 F3000 X116.81 Y136.2
G0 X116.37 Y136.2
G1 F2400 E133.63653
G0 F3000 X124.9 Y124.9
;TYPE:WALL-INNER
G1 F2400 E134.83653
G1 F1500 X124.9 Y135.1 E135.29672
G1 X135.1 Y135.1 E135.75691
G1 X135.1 Y124.9 E136.2171
G1 X124.9 Y124.9 E136.67729
G0 F3000 X125.3 Y125.3
;TYPE:WALL-OUTER
G1 F1500 X125.3 Y134.7 E137.10139
G1 X134.7 Y134.7 E137.52549
G1 X134.7 Y125.3 E137.94958
G1 X125.3 Y125.3 E138.37368
G0 F3000 X125.3 Y125.5
G0 X124.86 Y125.5
G1 F2400 E137.17368
G0 F3000 X116.41 Y115.6
;TYPE:WALL-INNER
G1 F2400 E138.37368
G1 F1500 X116.41 Y124.4 E138.77071
G1 X123.59 Y124.4 E139.09465
G1 X123.59 Y115.6 E139.49167
G1 X116.41 Y115.6 E139.81561
G0 F3000 X116.81 Y116
;TYPE:WALL-OUTER
G1 F1500 X116.81 Y124 E140.17655
G1 X123.19 Y124 E140.46439
G1 X123.19 Y116 E140.82532
G1 X116.81 Y116 E141.11317
G0 F3000 X116.81 Y116.2
G0 X116.37 Y116.2
G1 F2400 E139.91317
G0 F3000 X136.41 Y115.6
;TYPE:WALL-INNER
G1 F2400 E141.11317
G1 F1500 X136.41 Y124.4 E141.51019
G1 X143.59 Y124.4 E141.83413
G1 X143.59 Y115.6 E142.23116
G1 X136.41 Y115.6 E142.5551
G0 F3000 X136.81 Y116
;TYPE:WALL-OUTER
G1 F1500 X136.81 Y124 E142.91603
G1 X143.19 Y124 E143.20388
G1 X143.19 Y116 E143.56481
G1 X136.81 Y116 E143.85265
G0 F3000 X136.81 Y116.2
G0 X136.37 Y116.2
G1 F2400 E142.65265
G0 F3000 X136.41 Y135.6
;TYPE:WALL-INNER
G1 F2400 E143.85265
G1 F1500 X136.41 Y144.4 E144.24968
G1 X143.59 Y144.4 E144.57362
G1 X143.59 Y135.6 E144.97065
G1 X136.41 Y135.6 E145.29458
G0 F3000 X136.81 Y136
;TYPE:WALL-OUTER
G1 F1500 X136.81 Y144 E145.65552
G1 X143.19 Y144 E145.94336
G1 X143.19 Y136 E146.3043
G1 X136.81 Y136 E146.59214
G0 F3000 X136.81 Y136.2
G0 X136.37 Y136.2
G1 F2400 E145.39214
G0 F3000 X136.41 Y95.6
;TYPE:WALL-INNER
G1 F2400 E146.59214
G1 F1500 X136.41 Y104.4 E146.98917
G1 X143.59 Y104.4 E147.31311
G1 X143.59 Y95.6 E147.71013
G1 X136.41 Y95.6 E148.03407
G0 F3000 X136.81 Y96
;TYPE:WALL-OUTER
G1 F1500 X136.81 Y104 E148.395
G1 X143.19 Y104 E148.68285
G1 X143.19 Y96 E149.04378
G1 X136.81 Y96 E149.33163
G0 F3000 X136.81 Y96.2
G0 X136.37 Y96.2
G1 F2400 E148.13163
G0 F3000 X136.41 Y75.6
;TYPE:WALL-INNER
G1 F2400 E149.33163
G1 F1500 X136.41 Y84.4 E149.72865
G1 X143.59 Y84.4 E150.05259
G1 X143.59 Y75.6 E150.44962
G1 X136.41 Y75.6 E150.77356
G0 F3000 X136.81 Y76
;TYPE:WALL-OUTER
G1 F1500 X136.81 Y84 E151.13449
G1 X143.19 Y84 E151.42234
G1 X143.19 Y76 E151.78327
G1 X136.81 Y76 E152.07111
G0 F3000 X136.81 Y76.2
G0 X136.37 Y76.2
G1 F2400 E150.87111
G0 F3000 X136.41 Y55.6
;TYPE:WALL-INNER
G1 F2400 E152.07111
G1 F1500 X136.41 Y64.4 E152.46814
G1 X143.59 Y64.4 E152.79208
G1 X143.59 Y55.6 E153.18911
G1 X136.41 Y55.6 E153.51304
G0 F3000 X136.81 Y56
;TYPE:WALL-OUTER
G1 F1500 X136.81 Y64 E153.87398
G1 X143.19 Y64 E154.16182
G1 X143.19 Y56 E154.52276
G1 X136.81 Y56 E154.8106
G0 F3000 X136.81 Y56.2
G0 X136.37 Y56.2
G1 F2400 E153.6106
G0 F3000 X124.9 Y44.9
;TYPE:WALL-INNER
G1 F2400 E154.8106
G1 F1500 X124.9 Y55.1 E155.27079
G1 X135.1 Y55.1 E155.73098
G1 X135.1 Y44.9 E156.19117
G1 X124.9 Y44.9 E156.65136
G0 F3000 X125.3 Y45.3
;TYPE:WALL-OUTER
G1 F1500 X125.3 Y54.7 E157.07546
G1 X134.7 Y54.7 E157.49956
G1 X134.7 Y45.3 E157.92365
G1 X125.3 Y45.3 E158.34775
G0 F3000 X125.3 Y45.5
G0 X124.86 Y45.5
G1 F2400 E157.14775
G0 F3000 X116.41 Y35.6
;TYPE:WALL-INNER
G1 F2400 E158.34775
G1 F1500 X116.41 Y44.4 E158.74478
G1 X123.59 Y44.4 E159.06872
G1 X123.59 Y35.6 E159.46574
G1 X116.41 Y35.6 E159.78968
G0 F3000 X116.81 Y36
;TYPE:WALL-OUTER
G1 F1500 X116.81 Y44 E160.15061
G1 X123.19 Y44 E160.43846
G1 X123.19 Y36 E160.79939
G1 X116.81 Y36 E161.08724
G0 F3000 X116.81 Y36.2
G0 X116.37 Y36.2
G1 F2400 E159.88724
G0 F3000 X116.41 Y55.6
;TYPE:WALL-INNER
G1 F2400 E161.08724
G1 F1500 X116.41 Y64.4 E161.48426
G1 X123.59 Y64.4 E161.8082
G1 X123.59 Y55.6 E162.20523
G1 X116.41 Y55.6 E162.52917
G0 F3000 X116.81 Y56
;TYPE:WALL-OUTER
G1 F1500 X116.81 Y64 E162.8901
G1 X123.19 Y64 E163.17795
G1 X123.19 Y56 E163.53888
G1 X116.81 Y56 E163.82672
G0 F3000 X116.81 Y56.2
G0 X116.37 Y56.2
G1 F2400 E162.62672
G0 F3000 X136.41 Y35.6
;TYPE:WALL-INNER
G1 F2400 E163.82672
G1 F1500 X136.41 Y44.4 E164.22375
G1 X143.59 Y44.4 E164.54769
G1 X143.59 Y35.6 E164.94472
G1 X136.41 Y35.6 E165.26865
G0 F3000 X136.81 Y36
;TYPE:WALL-OUTER
G1 F1500 X136.81 Y44 E165.62959
G1 X143.19 Y44 E165.91743
G1 X143.19 Y36 E166.27837
G1 X136.81 Y36 E166.56621
G0 F3000 X136.81 Y36.2
G0 X136.37 Y36.2
G1 F2400 E165.36621
G0 F3000 X96.41 Y35.6
;TYPE:WALL-INNER
G1 F2400 E166.56621
G1 F1500 X96.41 Y44.4 E166.96324
G1 X103.59 Y44.4 E167.16621
G1 X103.59 Y35.6 E167.56323
G1 X96.41 Y35.6 E167.88717
G0 F3000 X96.81 Y36
;TYPE:WALL-OUTER
G1 F1500 X96.81 Y44 E168.2481
G1 X103.19 Y44 E168.53595
G1 X103.19 Y36 E168.89688
G1 X96.81 Y36 E169.18473
G0 F3000 X96.81 Y36.2
G0 X96.37 Y36.2
G1 F2400 E167.98473
G0 F3000 X76.41 Y35.6
;TYPE:WALL-INNER
G1 F2400 E169.18473
G1 F1500 X76.41 Y44.4 E169.58175
G1 X83.59 Y44.4 E169.78472
G1 X83.59 Y35.6 E170.18175
G1 X76.41 Y35.6 E170.50569
G0 F3000 X76.81 Y36
