;FLAVOR:Marlin
;TIME:9378
;Filament used: 15.5715m
;Layer height: 0.3
;MINX:26
;MINY:23.933
;MINZ:0.3
;MAXX:154
;MAXY:151.933
;MAXZ:9.9
;Generated with Cura_SteamEngine 4.12.1
M82 ;absolute extrusion mode
G21 ;metric values
G90 ;absolute positioning
M82 ;set extruder to absolute mode
M107 ;start with the fan off

M104 S200 T0 ; start heating T0 to what is set in Cura
M140 S60 ; start heating the bed to what is set in Cura
M190 S60 ; start heating the bed to what is set in Cura
M109 S200 T0 ; start heating T0 to what is set in Cura

G28 X0 Y0 ;move X/Y to min endstops
G28 Z0 ;move Z to min endstops
G1 Z15.0 F2400 ;move the platform down 15mm
G92 E0 ;zero the extruded length
G1 F200 E3 ;extrude 3mm of feed stock
G92 E0 ;zero the extruded length again
G1 F2400
G0 Y20 F2400
M117 Printing...
G5
G92 E0
G92 E0
G1 F2400 E-1.2
;LAYER_COUNT:33
;LAYER:0
M107
G0 F3000 X27.004 Y25.302 Z0.3
;TYPE:SKIRT
G1 F2400 E0
G1 F1500 X27.406 Y24.905 E0.02549
G1 X27.86 Y24.568 E0.051
G1 X28.357 Y24.299 E0.0765
G1 X28.887 Y24.102 E0.10201
G1 X29.44 Y23.983 E0.12753
G1 X30.218 Y23.935 E0.16269
G1 X30.33 Y23.933 E0.16775
G1 X149.35 Y23.933 E5.53754
G1 X150.048 Y23.943 E5.56903
G1 X150.612 Y23.991 E5.59457
G1 X151.162 Y24.118 E5.62004
G1 X151.69 Y24.322 E5.64558
G1 X152.184 Y24.597 E5.67109
G1 X152.633 Y24.94 E5.69658
G1 X153.03 Y25.342 E5.72207
G1 X153.367 Y25.797 E5.74761
G1 X153.635 Y26.294 E5.77309
G1 X153.831 Y26.824 E5.79858
G1 X153.951 Y27.377 E5.82411
G1 X153.998 Y28.151 E5.8591
G1 X154 Y28.263 E5.86415
G1 X154 Y147.247 E11.23232
G1 X153.991 Y147.974 E11.26512
G1 X153.944 Y148.537 E11.29061
G1 X153.818 Y149.088 E11.31611
G1 X153.616 Y149.616 E11.34162
G1 X153.341 Y150.11 E11.36712
G1 X152.999 Y150.56 E11.39262
G1 X152.597 Y150.958 E11.41815
G1 X152.144 Y151.295 E11.44362
G1 X151.647 Y151.565 E11.46914
G1 X151.117 Y151.762 E11.49465
G1 X150.565 Y151.883 E11.52014
G1 X149.782 Y151.931 E11.55554
G1 X149.67 Y151.933 E11.56059
G1 X30.655 Y151.933 E16.93016
G1 X29.957 Y151.924 E16.96165
G1 X29.394 Y151.876 E16.98714
G1 X28.843 Y151.75 E17.01264
G1 X28.315 Y151.548 E17.03815
G1 X27.821 Y151.273 E17.06366
G1 X27.371 Y150.931 E17.08916
G1 X26.973 Y150.529 E17.11468
G1 X26.637 Y150.075 E17.14016
G1 X26.367 Y149.578 E17.16568
G1 X26.17 Y149.048 E17.19119
G1 X26.05 Y148.496 E17.21668
G1 X26.001 Y147.699 E17.2527
G1 X26 Y28.553 E22.62818
G1 X26.009 Y27.888 E22.65818
G1 X26.057 Y27.325 E22.68368
G1 X26.183 Y26.774 E22.70918
G1 X26.386 Y26.246 E22.7347
G1 X26.662 Y25.752 E22.76023
G1 X27.004 Y25.302 E22.78573
G0 F3000 X27.397 Y25.464
G1 F1500 X27.794 Y25.104 E22.80991
G1 X28.241 Y24.806 E22.83415
G1 X28.726 Y24.578 E22.85833
G1 X29.24 Y24.425 E22.88252
G1 X29.908 Y24.343 E22.91289
G1 X30.33 Y24.333 E22.93193
G1 X149.345 Y24.333 E28.3015
G1 X150.043 Y24.343 E28.33299
G1 X150.577 Y24.391 E28.35718
G1 X151.098 Y24.517 E28.38136
G1 X151.595 Y24.72 E28.40558
G1 X152.056 Y24.994 E28.42978
G1 X152.471 Y25.333 E28.45396
G1 X152.831 Y25.731 E28.47817
G1 X153.128 Y26.177 E28.50234
G1 X153.356 Y26.663 E28.52656
G1 X153.508 Y27.177 E28.55075
G1 X153.59 Y27.842 E28.58098
G1 X153.6 Y28.263 E28.59997
G1 X153.6 Y147.242 E33.96792
G1 X153.591 Y147.969 E34.00072
G1 X153.544 Y148.503 E34.0249
G1 X153.419 Y149.024 E34.04908
G1 X153.217 Y149.521 E34.07328
G1 X152.944 Y149.983 E34.09749
G1 X152.606 Y150.399 E34.12167
G1 X152.209 Y150.76 E34.14588
G1 X151.763 Y151.058 E34.17008
G1 X151.278 Y151.286 E34.19426
G1 X150.764 Y151.44 E34.21847
G1 X150.092 Y151.523 E34.24902
G1 X149.67 Y151.533 E34.26806
G1 X30.661 Y151.533 E39.63736
G1 X29.963 Y151.524 E39.66885
G1 X29.428 Y151.477 E39.69308
G1 X28.907 Y151.351 E39.71727
G1 X28.41 Y151.149 E39.74147
G1 X27.949 Y150.876 E39.76564
G1 X27.533 Y150.537 E39.78985
G1 X27.172 Y150.141 E39.81403
G1 X26.874 Y149.695 E39.83823
G1 X26.646 Y149.209 E39.86245
G1 X26.493 Y148.695 E39.88665
G1 X26.41 Y148.021 E39.91728
G1 X26.4 Y147.591 E39.93669
G1 X26.4 Y28.558 E45.30707
G1 X26.409 Y27.893 E45.33707
G1 X26.457 Y27.359 E45.36126
G1 X26.583 Y26.838 E45.38545
G1 X26.785 Y26.341 E45.40965
G1 X27.058 Y25.88 E45.43382
G1 X27.397 Y25.464 E45.45803
G0 F3000 X27.454 Y26.015
G1 F1500 X27.789 Y25.637 E45.48082
G1 X28.18 Y25.316 E45.50364
G1 X28.617 Y25.061 E45.52647
G1 X29.088 Y24.877 E45.54929
G1 X29.582 Y24.771 E45.57208
G1 X30.24 Y24.734 E45.60181
G1 X149.339 Y24.733 E50.97517
G1 X150.037 Y24.743 E51.00666
G1 X150.54 Y24.79 E51.02946
G1 X151.03 Y24.916 E51.05228
G1 X151.494 Y25.118 E51.07512
G1 X151.92 Y25.39 E51.09792
G1 X152.298 Y25.725 E51.12071
G1 X152.618 Y26.116 E51.1435
G1 X152.873 Y26.553 E51.16633
G1 X153.056 Y27.024 E51.18913
G1 X153.163 Y27.518 E51.21193
G1 X153.199 Y28.173 E51.24153
G1 X153.2 Y147.237 E56.6133
G1 X153.191 Y147.964 E56.6461
G1 X153.145 Y148.467 E56.66889
G1 X153.02 Y148.957 E56.69171
G1 X152.819 Y149.421 E56.71452
G1 X152.548 Y149.848 E56.73734
G1 X152.213 Y150.227 E56.76016
G1 X151.823 Y150.548 E56.78295
G1 X151.387 Y150.804 E56.80576
G1 X150.916 Y150.987 E56.82856
G1 X150.422 Y151.095 E56.85137
G1 X149.76 Y151.132 E56.88129
G1 X30.666 Y151.133 E62.25442
G1 X29.968 Y151.124 E62.28591
G1 X29.464 Y151.077 E62.30875
G1 X28.974 Y150.952 E62.33156
G1 X28.51 Y150.751 E62.35438
G1 X28.084 Y150.48 E62.37716
G1 X27.705 Y150.145 E62.39998
G1 X27.384 Y149.754 E62.4228
G1 X27.129 Y149.318 E62.44559
G1 X26.945 Y148.847 E62.4684
G1 X26.838 Y148.353 E62.49121
G1 X26.801 Y147.677 E62.52175
G1 X26.8 Y28.564 E67.89574
G1 X26.809 Y27.899 E67.92574
G1 X26.856 Y27.395 E67.94858
G1 X26.982 Y26.906 E67.97136
G1 X27.183 Y26.442 E67.99418
G1 X27.454 Y26.015 E68.017
G1 F2400 E66.817
;MESH:clip_grid_2cm_type_b.stl
G0 F3000 X35.6 Y34.784
;TYPE:WALL-INNER
G1 F2400 E68.017
G1 F1500 X35.6 Y41.082 E68.30114
G1 X36.851 Y42.333 E68.38096
G1 X43.149 Y42.333 E68.66511
G1 X44.4 Y41.082 E68.74492
G1 X44.4 Y34.784 E69.02907
G1 X43.149 Y33.533 E69.10889
G1 X36.851 Y33.533 E69.39303
G1 X35.6 Y34.784 E69.47285
G0 F3000 X36 Y34.95
;TYPE:WALL-OUTER
G1 F1500 X36 Y40.916 E69.74202
G1 X37.017 Y41.933 E69.80691
G1 X42.983 Y41.933 E70.07608
G1 X44 Y40.916 E70.14097
G1 X44 Y34.95 E70.41013
G1 X42.983 Y33.933 E70.47502
G1 X37.017 Y33.933 E70.74419
G1 X36 Y34.95 E70.80908
G0 F3000 X36 Y35.15
G0 X35.56 Y35.15
G1 F2400 E69.60908
G0 F3000 X44.39 Y42.324
;TYPE:WALL-INNER
G1 F2400 E70.80908
G1 F1500 X44.39 Y54.293 E71.34908
G1 X44.39 Y54.774 E71.37078
G1 X44.05 Y54.434 E71.38244
G1 X43.149 Y53.533 E71.43993
G1 X36.851 Y53.533 E71.72407
G1 X35.6 Y54.784 E71.80389
G1 X35.6 Y61.082 E72.08804
G1 X36.851 Y62.333 E72.16786
G1 X43.149 Y62.333 E72.452
G1 X44.051 Y61.431 E72.50955
G1 X44.391 Y61.091 E72.53125
G1 X44.391 Y61.572 E72.54293
G1 X44.391 Y73.543 E73.08302
G1 X56.36 Y73.543 E73.62303
G1 X56.841 Y73.543 E73.64473
G1 X56.501 Y73.883 E73.65639
G1 X55.6 Y74.784 E73.71388
G1 X55.6 Y81.082 E73.99802
G1 X56.851 Y82.333 E74.07784
G1 X63.149 Y82.333 E74.36199
G1 X64.4 Y81.082 E74.44181
G1 X64.4 Y74.784 E74.72595
G1 X63.498 Y73.882 E74.7835
G1 X63.158 Y73.542 E74.8052
G1 X63.639 Y73.542 E74.81688
G1 X75.61 Y73.542 E75.35697
G1 X75.61 Y61.573 E75.89698
G1 X75.61 Y61.092 E75.91868
G1 X75.95 Y61.432 E75.93034
G1 X76.851 Y62.333 E75.98782
G1 X83.149 Y62.333 E76.27197
G1 X84.4 Y61.082 E76.35179
G1 X84.4 Y54.784 E76.63593
G1 X83.149 Y53.533 E76.71575
G1 X76.851 Y53.533 E76.9999
G1 X75.95 Y54.434 E77.05739
G1 X75.61 Y54.774 E77.07908
G1 X75.61 Y54.293 E77.09077
G1 X75.61 Y42.323 E77.63081
G1 X63.64 Y42.323 E78.17086
G1 X63.159 Y42.323 E78.19256
G1 X63.499 Y41.983 E78.20422
G1 X64.4 Y41.082 E78.26171
G1 X64.4 Y34.784 E78.54585
G1 X63.149 Y33.533 E78.62567
G1 X56.851 Y33.533 E78.90982
G1 X55.6 Y34.784 E78.98964
G1 X55.6 Y41.082 E79.27378
G1 X56.502 Y41.984 E79.33134
G1 X56.842 Y42.324 E79.35303
G1 X56.361 Y42.324 E79.36471
G1 X44.39 Y42.324 E79.90481
G0 F3000 X44.79 Y42.724
;TYPE:WALL-OUTER
G1 F1500 X44.791 Y73.143 E81.27721
G1 X75.21 Y73.142 E82.64962
G1 X75.21 Y42.723 E84.02202
G1 X44.79 Y42.724 E85.39447
G0 F3000 X44.79 Y42.924
G0 X44.35 Y42.923
G1 F2400 E84.19447
G0 F3000 X42.983 Y53.933
G1 F2400 E85.39447
G1 F1500 X37.017 Y53.933 E85.66364
G1 X36 Y54.95 E85.72853
G1 X36 Y60.916 E85.99769
G1 X37.017 Y61.933 E86.06258
G1 X42.983 Y61.933 E86.33175
G1 X44 Y60.916 E86.39664
G1 X44 Y54.95 E86.66581
G1 X42.983 Y53.933 E86.73069
G0 F3000 X42.783 Y53.933
G0 X42.783 Y53.493
G1 F2400 E85.53069
G0 F3000 X36.851 Y73.533
;TYPE:WALL-INNER
G1 F2400 E86.73069
G1 F1500 X35.6 Y74.784 E86.81051
G1 X35.6 Y81.082 E87.09466
G1 X36.851 Y82.333 E87.17448
G1 X43.149 Y82.333 E87.45862
G1 X44.4 Y81.082 E87.53844
G1 X44.4 Y74.784 E87.82259
G1 X43.149 Y73.533 E87.90241
G1 X36.851 Y73.533 E88.18655
G0 F3000 X37.017 Y73.933
;TYPE:WALL-OUTER
G1 F1500 X36 Y74.95 E88.25144
G1 X36 Y80.916 E88.52061
G1 X37.017 Y81.933 E88.5855
G1 X42.983 Y81.933 E88.85466
G1 X44 Y80.916 E88.91955
G1 X44 Y74.95 E89.18872
G1 X42.983 Y73.933 E89.25361
G1 X37.017 Y73.933 E89.52278
G0 F3000 X36.876 Y74.074
G0 X36.565 Y73.763
G1 F2400 E88.32278
G0 F3000 X46.751 Y82.833
;TYPE:WALL-INNER
G1 F2400 E89.52278
G1 F1500 X44.9 Y84.684 E89.64088
G1 X44.9 Y86.682 E89.73102
G1 X45.9 Y87.681 E89.79479
G1 X45.9 Y88.185 E89.81753
G1 X44.9 Y89.184 E89.88131
G1 X44.9 Y91.182 E89.97145
G1 X46.751 Y93.033 E90.08955
G1 X48.749 Y93.033 E90.17969
G1 X49.748 Y92.033 E90.24347
G1 X50.252 Y92.033 E90.26621
G1 X51.251 Y93.033 E90.32998
G1 X53.249 Y93.033 E90.42012
G1 X55.1 Y91.182 E90.53822
G1 X55.1 Y89.184 E90.62837
G1 X54.1 Y88.185 E90.69214
G1 X54.1 Y87.681 E90.71488
G1 X55.1 Y86.682 E90.77865
G1 X55.1 Y84.684 E90.86879
G1 X53.249 Y82.833 E90.9869
G1 X51.251 Y82.833 E91.07704
G1 X50.252 Y83.833 E91.14081
G1 X49.748 Y83.833 E91.16355
G1 X48.749 Y82.833 E91.22732
G1 X46.751 Y82.833 E91.31747
G0 F3000 X46.917 Y83.233
;TYPE:WALL-OUTER
G1 F1500 X45.3 Y84.85 E91.42064
G1 X45.3 Y86.516 E91.4958
G1 X46.3 Y87.515 E91.55958
G1 X46.3 Y88.351 E91.59729
G1 X45.3 Y89.35 E91.66107
G1 X45.3 Y91.016 E91.73623
G1 X46.917 Y92.633 E91.8394
G1 X48.583 Y92.633 E91.91457
G1 X49.582 Y91.633 E91.97834
G1 X50.418 Y91.633 E92.01606
G1 X51.417 Y92.633 E92.07983
G1 X53.083 Y92.633 E92.155
G1 X54.7 Y91.016 E92.25817
G1 X54.7 Y89.35 E92.33333
G1 X53.7 Y88.351 E92.39711
G1 X53.7 Y87.515 E92.43482
G1 X54.7 Y86.516 E92.4986
G1 X54.7 Y84.85 E92.57376
G1 X53.083 Y83.233 E92.67693
G1 X51.417 Y83.233 E92.7521
G1 X50.418 Y84.233 E92.81587
G1 X49.582 Y84.233 E92.85359
G1 X48.583 Y83.233 E92.91736
G1 X46.917 Y83.233 E92.99252
G0 F3000 X46.776 Y83.374
G0 X46.465 Y83.063
G1 F2400 E91.79252
G0 F3000 X56 Y80.916
G1 F2400 E92.99252
G1 F1500 X57.017 Y81.933 E93.05741
G1 X62.983 Y81.933 E93.32658
G1 X64 Y80.916 E93.39147
G1 X64 Y74.95 E93.66064
G1 X62.983 Y73.933 E93.72553
G1 X57.017 Y73.933 E93.99469
G1 X56 Y74.95 E94.05958
G1 X56 Y80.916 E94.32875
G0 F3000 X56.141 Y81.057
G0 X55.83 Y81.368
G1 F2400 E93.12875
G0 F3000 X66.751 Y82.833
;TYPE:WALL-INNER
G1 F2400 E94.32875
G1 F1500 X64.9 Y84.684 E94.44685
G1 X64.9 Y86.682 E94.53699
G1 X65.9 Y87.681 E94.60077
G1 X65.9 Y88.185 E94.6235
G1 X64.9 Y89.184 E94.68728
G1 X64.9 Y91.182 E94.77742
G1 X66.751 Y93.033 E94.89552
G1 X68.749 Y93.033 E94.98567
G1 X69.748 Y92.033 E95.04944
G1 X70.252 Y92.033 E95.07218
G1 X71.251 Y93.033 E95.13595
G1 X73.249 Y93.033 E95.22609
G1 X75.1 Y91.182 E95.3442
G1 X75.1 Y89.184 E95.43434
G1 X74.1 Y88.185 E95.49811
G1 X74.1 Y87.681 E95.52085
G1 X75.1 Y86.682 E95.58462
G1 X75.1 Y84.684 E95.67477
G1 X73.249 Y82.833 E95.79287
G1 X71.251 Y82.833 E95.88301
G1 X70.252 Y83.833 E95.94678
G1 X69.748 Y83.833 E95.96952
G1 X68.749 Y82.833 E96.0333
G1 X66.751 Y82.833 E96.12344
G0 F3000 X66.917 Y83.233
;TYPE:WALL-OUTER
G1 F1500 X65.3 Y84.85 E96.22661
G1 X65.3 Y86.516 E96.30178
G1 X66.3 Y87.515 E96.36555
G1 X66.3 Y88.351 E96.40327
G1 X65.3 Y89.35 E96.46704
G1 X65.3 Y91.016 E96.5422
G1 X66.917 Y92.633 E96.64538
G1 X68.583 Y92.633 E96.72054
G1 X69.582 Y91.633 E96.78431
G1 X70.418 Y91.633 E96.82203
G1 X71.417 Y92.633 E96.8858
G1 X73.083 Y92.633 E96.96097
G1 X74.7 Y91.016 E97.06414
G1 X74.7 Y89.35 E97.1393
G1 X73.7 Y88.351 E97.20308
G1 X73.7 Y87.515 E97.24079
G1 X74.7 Y86.516 E97.30457
G1 X74.7 Y84.85 E97.37973
G1 X73.083 Y83.233 E97.4829
G1 X71.417 Y83.233 E97.55807
G1 X70.418 Y84.233 E97.62184
G1 X69.582 Y84.233 E97.65956
G1 X68.583 Y83.233 E97.72333
G1 X66.917 Y83.233 E97.7985
G0 F3000 X66.776 Y83.374
G0 X66.465 Y83.063
G1 F2400 E96.5985
G0 F3000 X75.6 Y74.784
;TYPE:WALL-INNER
G1 F2400 E97.7985
G1 F1500 X75.6 Y81.082 E98.08264
G1 X76.851 Y82.333 E98.16246
G1 X83.149 Y82.333 E98.44661
G1 X84.4 Y81.082 E98.52643
G1 X84.4 Y74.784 E98.81057
G1 X83.149 Y73.533 E98.89039
G1 X76.851 Y73.533 E99.17453
G1 X75.6 Y74.784 E99.25435
G0 F3000 X76 Y74.95
;TYPE:WALL-OUTER
G1 F1500 X76 Y80.916 E99.52352
G1 X77.017 Y81.933 E99.58841
G1 X82.983 Y81.933 E99.85758
G1 X84 Y80.916 E99.92247
G1 X84 Y74.95 E100.19163
G1 X82.983 Y73.933 E100.25652
G1 X77.017 Y73.933 E100.52569
G1 X76 Y74.95 E100.59058
G0 F3000 X76 Y75.15
G0 X75.56 Y75.15
G1 F2400 E99.39058
G0 F3000 X84.9 Y84.684
;TYPE:WALL-INNER
G1 F2400 E100.59058
G1 F1500 X84.9 Y86.682 E100.68072
G1 X85.9 Y87.681 E100.74449
G1 X85.9 Y88.185 E100.76723
G1 X84.9 Y89.184 E100.831
G1 X84.9 Y91.182 E100.92115
G1 X86.751 Y93.033 E101.03925
G1 X88.749 Y93.033 E101.12939
G1 X89.748 Y92.033 E101.19317
G1 X90.252 Y92.033 E101.2159
G1 X91.251 Y93.033 E101.27968
G1 X93.249 Y93.033 E101.36982
G1 X95.1 Y91.182 E101.48792
G1 X95.1 Y89.184 E101.57807
G1 X94.1 Y88.185 E101.64184
G1 X94.1 Y87.681 E101.66458
G1 X95.1 Y86.682 E101.72835
G1 X95.1 Y84.684 E101.81849
G1 X93.249 Y82.833 E101.9366
G1 X91.251 Y82.833 E102.02674
G1 X90.252 Y83.833 E102.09051
G1 X89.748 Y83.833 E102.11325
G1 X88.749 Y82.833 E102.17702
G1 X86.751 Y82.833 E102.26717
G1 X84.9 Y84.684 E102.38527
G0 F3000 X85.3 Y84.85
;TYPE:WALL-OUTER
G1 F1500 X85.3 Y86.516 E102.46043
G1 X86.3 Y87.515 E102.52421
G1 X86.3 Y88.351 E102.56192
G1 X85.3 Y89.35 E102.6257
G1 X85.3 Y91.016 E102.70086
G1 X86.917 Y92.633 E102.80403
G1 X88.583 Y92.633 E102.8792
G1 X89.582 Y91.633 E102.94297
G1 X90.418 Y91.633 E102.98069
G1 X91.417 Y92.633 E103.04446
G1 X93.083 Y92.633 E103.11963
G1 X94.7 Y91.016 E103.2228
G1 X94.7 Y89.35 E103.29796
G1 X93.7 Y88.351 E103.36174
G1 X93.7 Y87.515 E103.39945
G1 X94.7 Y86.516 E103.46323
G1 X94.7 Y84.85 E103.53839
G1 X93.083 Y83.233 E103.64156
G1 X91.417 Y83.233 E103.71673
G1 X90.418 Y84.233 E103.7805
G1 X89.582 Y84.233 E103.81822
G1 X88.583 Y83.233 E103.88199
G1 X86.917 Y83.233 E103.95715
G1 X85.3 Y84.85 E104.06033
G0 F3000 X85.3 Y85.05
G0 X84.86 Y85.05
G1 F2400 E102.86033
G0 F3000 X76.851 Y93.533
;TYPE:WALL-INNER
G1 F2400 E104.06033
G1 F1500 X75.6 Y94.784 E104.14015
G1 X75.6 Y101.082 E104.42429
G1 X76.851 Y102.333 E104.50411
G1 X83.149 Y102.333 E104.78826
G1 X84.4 Y101.082 E104.86807
G1 X84.4 Y94.784 E105.15222
G1 X83.149 Y93.533 E105.23204
G1 X76.851 Y93.533 E105.51618
G0 F3000 X77.017 Y93.933
;TYPE:WALL-OUTER
G1 F1500 X76 Y94.95 E105.58107
G1 X76 Y100.916 E105.85024
G1 X77.017 Y101.933 E105.91513
G1 X82.983 Y101.933 E106.1843
G1 X84 Y100.916 E106.24919
G1 X84 Y94.95 E106.51835
G1 X82.983 Y93.933 E106.58324
G1 X77.017 Y93.933 E106.85241
G0 F3000 X76.876 Y94.074
G0 X76.565 Y93.763
G1 F2400 E105.65241
G0 F3000 X86.751 Y102.833
;TYPE:WALL-INNER
G1 F2400 E106.85241
G1 F1500 X84.9 Y104.684 E106.97051
G1 X84.9 Y106.682 E107.06065
G1 X85.9 Y107.681 E107.12443
G1 X85.9 Y108.185 E107.14716
G1 X84.9 Y109.184 E107.21094
G1 X84.9 Y111.182 E107.30108
G1 X86.751 Y113.033 E107.41918
G1 X88.749 Y113.033 E107.50933
G1 X89.748 Y112.033 E107.5731
G1 X90.252 Y112.033 E107.59584
G1 X91.251 Y113.033 E107.65961
G1 X93.249 Y113.033 E107.74975
G1 X95.1 Y111.182 E107.86786
G1 X95.1 Y109.184 E107.958
G1 X94.1 Y108.185 E108.02177
G1 X94.1 Y107.681 E108.04451
G1 X95.1 Y106.682 E108.10828
G1 X95.1 Y104.684 E108.19843
G1 X93.249 Y102.833 E108.31653
G1 X91.251 Y102.833 E108.40667
G1 X90.252 Y103.833 E108.47044
G1 X89.748 Y103.833 E108.49318
G1 X88.749 Y102.833 E108.55696
G1 X86.751 Y102.833 E108.6471
G0 F3000 X86.917 Y103.233
;TYPE:WALL-OUTER
G1 F1500 X85.3 Y104.85 E108.75027
G1 X85.3 Y106.516 E108.82544
G1 X86.3 Y107.515 E108.88921
G1 X86.3 Y108.351 E108.92693
G1 X85.3 Y109.35 E108.9907
