;FLAVOR:Marlin
;TIME:1663
;Filament used: 2.61782m
;Layer height: 0.3
;MINX:60.35
;MINY:66.849
;MINZ:0.3
;MAXX:118.587
;MAXY:114.613
;MAXZ:9.9
;Generated with Cura_SteamEngine 4.12.1
M82 ;absolute extrusion mode
G21 ;metric values
G90 ;absolute positioning
M82 ;set extruder to absolute mode
M107 ;start with the fan off

M104 S200 T0 ; start heating T0 to what is set in Cura
M140 S60 ; start heating the bed to what is set in Cura
M190 S60 ; start heating the bed to what is set in Cura
M109 S200 T0 ; start heating T0 to what is set in Cura

G28 X0 Y0 ;move X/Y to min endstops
G28 Z0 ;move Z to min endstops
G1 Z15.0 F2400 ;move the platform down 15mm
G92 E0 ;zero the extruded length
G1 F200 E3 ;extrude 3mm of feed stock
G92 E0 ;zero the extruded length again
G1 F2400
G0 Y20 F2400
M117 Printing...
G5
G92 E0
G92 E0
G1 F2400 E-1.2
;LAYER_COUNT:33
;LAYER:0
M107
G0 F3000 X61.685 Y68.022 Z0.3
;TYPE:SKIRT
G1 F2400 E0
G1 F1500 X62.114 Y67.653 E0.02553
G1 X62.59 Y67.348 E0.05104
G1 X63.104 Y67.113 E0.07653
G1 X63.646 Y66.953 E0.10203
G1 X64.366 Y66.862 E0.13477
G1 X64.962 Y66.85 E0.16167
G1 X81.851 Y66.849 E0.92364
G1 X82.567 Y66.86 E0.95595
G1 X83.125 Y66.908 E0.98122
G1 X83.998 Y67.045 E1.02109
G1 X85.093 Y67.232 E1.07121
G1 X87.728 Y67.606 E1.19128
G1 X90.467 Y67.917 E1.31565
G1 X93.157 Y68.144 E1.43745
G1 X95.9 Y68.298 E1.5614
G1 X98.571 Y68.373 E1.68195
G1 X101.315 Y68.372 E1.80575
G1 X102.82 Y68.35 E1.87366
G1 X105.536 Y68.273 E1.99624
G1 X107.607 Y68.162 E2.08981
G1 X108.446 Y68.158 E2.12767
G1 X109.24 Y68.191 E2.16352
G1 X110.693 Y68.273 E2.22918
G1 X113.442 Y68.351 E2.35326
G1 X113.939 Y68.358 E2.37568
G1 X114.503 Y68.406 E2.40122
G1 X115.054 Y68.533 E2.42673
G1 X115.581 Y68.736 E2.45221
G1 X116.075 Y69.012 E2.47774
G1 X116.818 Y69.597 E2.52041
G1 X117.208 Y69.939 E2.54381
G1 X117.605 Y70.341 E2.5693
G1 X117.941 Y70.796 E2.59482
G1 X118.21 Y71.293 E2.62031
G1 X118.406 Y71.823 E2.64581
G1 X118.525 Y72.376 E2.67133
G1 X118.564 Y72.86 E2.69324
G1 X118.576 Y73.542 E2.72401
G1 X118.562 Y74.541 E2.76909
G1 X118.572 Y77.873 E2.91942
G1 X118.577 Y78.207 E2.93449
G1 X118.563 Y79.16 E2.97749
G1 X118.575 Y82.601 E3.13274
G1 X118.586 Y83.125 E3.15638
G1 X118.587 Y83.267 E3.16279
G1 X118.573 Y84.251 E3.20719
G1 X118.583 Y87.581 E3.35743
G1 X118.587 Y87.768 E3.36587
G1 X118.559 Y88.333 E3.39139
G1 X118.445 Y88.916 E3.41819
G1 X118.242 Y89.652 E3.45263
G1 X117.859 Y90.965 E3.51434
G1 X117.176 Y93.595 E3.63693
G1 X116.563 Y96.256 E3.76013
G1 X116.033 Y98.893 E3.88149
G1 X115.569 Y101.602 E4.00549
G1 X115.187 Y104.285 E4.12776
G1 X114.886 Y106.936 E4.24813
G1 X114.645 Y109.768 E4.37636
G1 X114.576 Y110.74 E4.42033
G1 X114.496 Y111.3 E4.44585
G1 X114.338 Y111.843 E4.47136
G1 X114.105 Y112.358 E4.49686
G1 X113.802 Y112.835 E4.52236
G1 X113.414 Y113.285 E4.54917
G1 X113.269 Y113.43 E4.55842
G1 X112.842 Y113.801 E4.58394
G1 X112.367 Y114.108 E4.60946
G1 X111.854 Y114.344 E4.63493
G1 X111.312 Y114.506 E4.66045
G1 X110.579 Y114.6 E4.6938
G1 X109.983 Y114.612 E4.72069
G1 X93.094 Y114.613 E5.48267
G1 X92.378 Y114.602 E5.51497
G1 X91.82 Y114.554 E5.54024
G1 X90.756 Y114.387 E5.58883
G1 X90.528 Y114.347 E5.59928
G1 X87.87 Y113.961 E5.72046
G1 X85.187 Y113.648 E5.84233
G1 X82.46 Y113.409 E5.96583
G1 X79.748 Y113.248 E6.0884
G1 X77.04 Y113.164 E6.21064
G1 X75.376 Y113.15 E6.28571
G1 X65.151 Y113.151 E6.74703
G1 X64.448 Y113.141 E6.77875
G1 X63.885 Y113.093 E6.80425
G1 X63.334 Y112.966 E6.82976
G1 X62.806 Y112.762 E6.85529
G1 X62.313 Y112.487 E6.88076
G1 X61.667 Y111.96 E6.91838
G1 X61.522 Y111.814 E6.92766
G1 X61.153 Y111.385 E6.95319
G1 X60.848 Y110.909 E6.9787
G1 X60.613 Y110.395 E7.0042
G1 X60.453 Y109.853 E7.02969
G1 X60.362 Y109.134 E7.06239
G1 X60.35 Y108.492 E7.09136
G1 X60.35 Y71.613 E8.75522
G1 X60.361 Y70.938 E8.78568
G1 X60.41 Y70.375 E8.81117
G1 X60.538 Y69.824 E8.83669
G1 X60.742 Y69.297 E8.86219
G1 X61.019 Y68.804 E8.8877
G1 X61.541 Y68.165 E8.92493
G1 X61.685 Y68.022 E8.93409
G0 F3000 X61.967 Y68.306
G1 F1500 X62.375 Y67.957 E8.95831
G1 X62.83 Y67.673 E8.98251
G1 X63.322 Y67.46 E9.0067
G1 X63.84 Y67.322 E9.03088
G1 X64.379 Y67.262 E9.05535
G1 X64.965 Y67.25 E9.08179
G1 X81.845 Y67.249 E9.84336
G1 X82.561 Y67.26 E9.87567
G1 X83.063 Y67.303 E9.8984
G1 X83.93 Y67.44 E9.938
G1 X85.006 Y67.624 E9.98725
G1 X87.694 Y68.005 E10.10974
G1 X90.424 Y68.315 E10.2337
G1 X93.136 Y68.544 E10.35649
G1 X95.83 Y68.696 E10.47823
G1 X98.595 Y68.773 E10.60303
G1 X101.32 Y68.772 E10.72597
G1 X102.794 Y68.75 E10.79248
G1 X105.567 Y68.671 E10.91764
G1 X107.535 Y68.565 E11.00656
G1 X108.046 Y68.552 E11.02962
G1 X108.54 Y68.561 E11.05191
G1 X109.217 Y68.591 E11.08248
G1 X110.623 Y68.671 E11.14602
G1 X113.468 Y68.751 E11.27443
G1 X113.934 Y68.758 E11.29545
G1 X114.468 Y68.806 E11.31964
G1 X114.989 Y68.932 E11.34383
G1 X115.486 Y69.134 E11.36803
G1 X115.947 Y69.408 E11.39223
G1 X116.561 Y69.904 E11.42784
G1 X116.944 Y70.239 E11.4508
G1 X117.319 Y70.622 E11.47498
G1 X117.633 Y71.057 E11.49918
G1 X117.878 Y71.534 E11.52338
G1 X118.051 Y72.041 E11.54755
G1 X118.146 Y72.569 E11.57175
G1 X118.164 Y72.868 E11.58526
G1 X118.176 Y73.536 E11.61541
G1 X118.162 Y74.535 E11.66048
G1 X118.172 Y77.882 E11.81149
G1 X118.177 Y78.201 E11.82588
G1 X118.163 Y79.154 E11.86888
G1 X118.175 Y82.611 E12.02485
G1 X118.187 Y83.261 E12.05418
G1 X118.173 Y84.245 E12.09858
G1 X118.183 Y87.591 E12.24954
G1 X118.187 Y87.777 E12.25794
G1 X118.159 Y88.313 E12.28215
G1 X118.059 Y88.81 E12.30503
G1 X117.858 Y89.54 E12.33919
G1 X117.474 Y90.858 E12.40112
G1 X116.787 Y93.502 E12.52437
G1 X116.175 Y96.16 E12.64743
G1 X115.633 Y98.859 E12.77163
G1 X115.178 Y101.509 E12.89294
G1 X114.792 Y104.22 E13.01649
G1 X114.485 Y106.928 E13.13944
G1 X114.246 Y109.734 E13.2665
G1 X114.177 Y110.712 E13.31073
G1 X114.099 Y111.243 E13.33495
G1 X113.944 Y111.756 E13.35913
G1 X113.713 Y112.24 E13.38332
G1 X113.414 Y112.685 E13.40751
G1 X112.987 Y113.148 E13.43593
G1 X112.58 Y113.497 E13.46012
G1 X112.126 Y113.783 E13.48432
G1 X111.635 Y113.998 E13.50851
G1 X111.117 Y114.138 E13.53272
G1 X110.566 Y114.2 E13.55773
G1 X109.98 Y114.212 E13.58418
G1 X93.1 Y114.213 E14.34575
G1 X92.384 Y114.202 E14.37805
G1 X91.882 Y114.159 E14.40079
G1 X90.824 Y113.992 E14.44911
G1 X90.646 Y113.961 E14.45726
G1 X87.907 Y113.563 E14.58213
G1 X85.197 Y113.247 E14.70523
G1 X82.518 Y113.012 E14.82656
G1 X79.75 Y112.848 E14.95166
G1 X77.055 Y112.764 E15.07331
G1 X75.379 Y112.75 E15.14893
G1 X65.157 Y112.751 E15.61011
G1 X64.454 Y112.741 E15.64183
G1 X63.92 Y112.693 E15.66602
G1 X63.398 Y112.567 E15.69025
G1 X62.902 Y112.364 E15.71443
G1 X62.441 Y112.09 E15.73862
G1 X61.951 Y111.678 E15.76751
G1 X61.806 Y111.532 E15.77679
G1 X61.457 Y111.124 E15.80101
G1 X61.173 Y110.669 E15.82521
G1 X60.96 Y110.177 E15.8494
G1 X60.822 Y109.659 E15.87359
G1 X60.762 Y109.12 E15.89806
G1 X60.75 Y108.489 E15.92653
G1 X60.749 Y71.619 E17.58998
G1 X60.76 Y70.944 E17.62044
G1 X60.809 Y70.41 E17.64463
G1 X60.937 Y69.889 E17.66884
G1 X61.14 Y69.393 E17.69302
G1 X61.415 Y68.933 E17.7172
G1 X61.823 Y68.449 E17.74576
G1 X61.967 Y68.306 E17.75491
G0 F3000 X62.249 Y68.589
G1 F1500 X62.635 Y68.263 E17.77771
G1 X63.067 Y68.001 E17.8005
G1 X63.536 Y67.81 E17.82335
G1 X64.028 Y67.696 E17.84614
G1 X64.624 Y67.654 E17.87309
G1 X64.993 Y67.65 E17.88974
G1 X81.839 Y67.649 E18.64978
G1 X82.555 Y67.66 E18.68208
G1 X83.001 Y67.699 E18.70228
G1 X83.863 Y67.834 E18.74165
G1 X84.954 Y68.021 E18.79159
G1 X87.629 Y68.4 E18.91348
G1 X90.382 Y68.712 E19.03848
G1 X93.114 Y68.943 E19.16218
G1 X95.834 Y69.096 E19.28509
G1 X98.584 Y69.173 E19.40921
G1 X101.326 Y69.172 E19.53292
G1 X102.81 Y69.15 E19.59988
G1 X105.602 Y69.07 E19.7259
G1 X107.631 Y68.961 E19.81757
G1 X108.434 Y68.958 E19.8538
G1 X109.194 Y68.99 E19.88812
G1 X110.623 Y69.071 E19.9527
G1 X113.452 Y69.151 E20.08038
G1 X113.928 Y69.158 E20.10186
G1 X114.431 Y69.205 E20.12465
G1 X114.921 Y69.331 E20.14748
G1 X115.385 Y69.532 E20.17029
G1 X115.932 Y69.9 E20.20004
G1 X116.37 Y70.267 E20.22582
G1 X116.679 Y70.539 E20.24439
G1 X117.031 Y70.902 E20.2672
G1 X117.322 Y71.316 E20.29004
G1 X117.543 Y71.77 E20.31282
G1 X117.69 Y72.254 E20.33564
G1 X117.764 Y72.876 E20.3639
G1 X117.776 Y73.531 E20.39345
G1 X117.762 Y74.53 E20.43853
G1 X117.772 Y77.892 E20.59021
G1 X117.777 Y78.195 E20.60389
G1 X117.763 Y79.148 E20.64689
G1 X117.775 Y82.62 E20.80353
G1 X117.787 Y83.256 E20.83223
G1 X117.773 Y84.24 E20.87663
G1 X117.783 Y87.601 E21.02827
G1 X117.787 Y87.786 E21.03662
G1 X117.758 Y88.291 E21.05944
G1 X117.674 Y88.704 E21.07845
G1 X117.474 Y89.428 E21.11234
G1 X117.089 Y90.75 E21.17446
G1 X116.395 Y93.416 E21.29875
G1 X115.778 Y96.097 E21.42287
G1 X115.247 Y98.744 E21.54468
G1 X114.782 Y101.457 E21.66886
G1 X114.397 Y104.155 E21.79182
G1 X114.082 Y106.933 E21.91796
G1 X113.851 Y109.656 E22.04125
G1 X113.778 Y110.684 E22.08775
G1 X113.702 Y111.184 E22.11057
G1 X113.549 Y111.665 E22.13334
G1 X113.322 Y112.117 E22.15616
G1 X113.026 Y112.527 E22.17897
G1 X112.704 Y112.865 E22.20004
G1 X112.319 Y113.193 E22.22285
G1 X111.888 Y113.456 E22.24563
G1 X111.42 Y113.649 E22.26847
G1 X110.928 Y113.765 E22.29128
G1 X110.321 Y113.808 E22.31873
G1 X109.952 Y113.812 E22.33538
G1 X93.106 Y113.813 E23.09542
G1 X92.39 Y113.802 E23.12773
G1 X91.944 Y113.763 E23.14793
G1 X90.893 Y113.598 E23.19592
G1 X90.701 Y113.565 E23.20471
G1 X87.979 Y113.169 E23.32881
G1 X85.245 Y112.85 E23.453
G1 X82.502 Y112.61 E23.57723
G1 X79.787 Y112.449 E23.69994
G1 X77.07 Y112.364 E23.82258
G1 X75.383 Y112.35 E23.89869
G1 X65.162 Y112.351 E24.35983
G1 X64.459 Y112.341 E24.39155
G1 X63.956 Y112.294 E24.41434
G1 X63.466 Y112.168 E24.43717
G1 X63.003 Y111.966 E24.45996
G1 X62.576 Y111.695 E24.48278
G1 X62.089 Y111.25 E24.51254
G1 X61.763 Y110.864 E24.53533
G1 X61.501 Y110.432 E24.55813
G1 X61.31 Y109.964 E24.58093
G1 X61.196 Y109.471 E24.60376
G1 X61.154 Y108.876 E24.63068
G1 X61.15 Y108.465 E24.64922
G1 X61.149 Y71.626 E26.31127
G1 X61.16 Y70.951 E26.34173
G1 X61.209 Y70.448 E26.36453
G1 X61.335 Y69.958 E26.38736
G1 X61.538 Y69.495 E26.41017
G1 X61.81 Y69.069 E26.43297
G1 X62.249 Y68.589 E26.46232
G1 F2400 E25.26232
;MESH:cube_2x1_s.stl
G0 F3000 X64.949 Y71.45
;TYPE:WALL-INNER
G1 F2400 E26.46232
G1 F1500 X82.05 Y71.449 E27.23386
G1 X82.051 Y108.55 E28.90773
G1 X64.95 Y108.551 E29.67928
G1 X64.949 Y71.45 E31.35315
G0 F3000 X64.583 Y71.05
;TYPE:WALL-OUTER
G1 F1500 X82.417 Y71.049 E32.15776
G1 X82.45 Y71.083 E32.1599
G1 X82.451 Y108.917 E33.86684
G1 X82.417 Y108.95 E33.86898
G1 X64.583 Y108.951 E34.67359
G1 X64.55 Y108.917 E34.67573
G1 X64.549 Y71.083 E36.38268
G1 X64.583 Y71.05 E36.38481
G0 F3000 X64.783 Y71.05
G0 X64.99 Y71.491
G0 X65.339 Y71.84
;TYPE:SKIN
G1 F1500 X81.66 Y71.839 E37.13523
G1 X81.661 Y108.16 E38.80523
G1 X65.34 Y108.161 E39.55565
G1 X65.339 Y71.84 E41.22565
G1 F2400 E40.02565
G0 F3000 X81.479 Y72.428
G1 F2400 E41.22565
G1 F1500 X81.07 Y72.019 E41.25224
G0 F3000 X80.504 Y72.019
G1 F1500 X81.479 Y72.994 E41.31564
G0 F3000 X81.479 Y73.56
G1 F1500 X79.939 Y72.019 E41.41581
G0 F3000 X79.373 Y72.019
G1 F1500 X81.479 Y74.126 E41.55278
G0 F3000 X81.479 Y74.691
G1 F1500 X78.807 Y72.019 E41.72653
G0 F3000 X78.242 Y72.019
G1 F1500 X81.479 Y75.257 E41.93704
G0 F3000 X81.479 Y75.823
G1 F1500 X77.676 Y72.019 E42.18436
G0 F3000 X77.11 Y72.019
G1 F1500 X81.479 Y76.388 E42.46845
G0 F3000 X81.479 Y76.954
G1 F1500 X76.545 Y72.019 E42.78931
G0 F3000 X75.979 Y72.019
G1 F1500 X81.479 Y77.52 E43.14697
G0 F3000 X81.479 Y78.085
G1 F1500 X75.413 Y72.019 E43.54141
G0 F3000 X74.847 Y72.019
G1 F1500 X81.479 Y78.651 E43.97265
G0 F3000 X81.479 Y79.217
G1 F1500 X74.282 Y72.019 E44.44065
G0 F3000 X73.716 Y72.019
G1 F1500 X81.479 Y79.782 E44.94544
G0 F3000 X81.479 Y80.348
G1 F1500 X73.15 Y72.019 E45.48702
G0 F3000 X72.585 Y72.019
G1 F1500 X81.479 Y80.914 E46.06537
G0 F3000 X81.479 Y81.479
G1 F1500 X72.019 Y72.019 E46.6805
G0 F3000 X71.453 Y72.019
G1 F1500 X81.479 Y82.045 E47.33243
G0 F3000 X81.479 Y82.611
G1 F1500 X70.888 Y72.019 E48.02113
G0 F3000 X70.322 Y72.019
G1 F1500 X81.479 Y83.176 E48.7466
G0 F3000 X81.479 Y83.742
G1 F1500 X69.756 Y72.019 E49.50887
G0 F3000 X69.191 Y72.019
G1 F1500 X81.48 Y84.309 E50.30799
G0 F3000 X81.48 Y84.874
G1 F1500 X68.625 Y72.019 E51.14387
G0 F3000 X68.059 Y72.019
G1 F1500 X81.48 Y85.44 E52.01655
G0 F3000 X81.48 Y86.006
G1 F1500 X67.494 Y72.019 E52.92601
G0 F3000 X66.928 Y72.019
G1 F1500 X81.48 Y86.571 E53.87224
G0 F3000 X81.48 Y87.137
G1 F1500 X66.362 Y72.019 E54.85527
G0 F3000 X65.796 Y72.019
G1 F1500 X81.48 Y87.703 E55.8751
G0 F3000 X81.48 Y88.268
G1 F1500 X65.519 Y72.307 E56.91295
G0 F3000 X65.519 Y72.873
G1 F1500 X81.48 Y88.834 E57.95079
G0 F3000 X81.48 Y89.4
G1 F1500 X65.519 Y73.438 E58.98867
G0 F3000 X65.519 Y74.004
G1 F1500 X81.48 Y89.965 E60.02652
G0 F3000 X81.48 Y90.531
G1 F1500 X65.519 Y74.57 E61.06436
G0 F3000 X65.519 Y75.135
G1 F1500 X81.48 Y91.097 E62.10224
G0 F3000 X81.48 Y91.662
G1 F1500 X65.519 Y75.701 E63.14009
G0 F3000 X65.519 Y76.267
G1 F1500 X81.48 Y92.228 E64.17793
G0 F3000 X81.48 Y92.794
G1 F1500 X65.519 Y76.832 E65.21581
G0 F3000 X65.519 Y77.398
G1 F1500 X81.48 Y93.36 E66.25369
G0 F3000 X81.48 Y93.925
G1 F1500 X65.519 Y77.964 E67.29153
G0 F3000 X65.519 Y78.529
G1 F1500 X81.48 Y94.491 E68.32941
G0 F3000 X81.48 Y95.057
G1 F1500 X65.519 Y79.095 E69.36729
G0 F3000 X65.519 Y79.661
G1 F1500 X81.48 Y95.622 E70.40514
G0 F3000 X81.481 Y96.189
G1 F1500 X65.519 Y80.226 E71.44308
G0 F3000 X65.519 Y80.792
G1 F1500 X81.481 Y96.754 E72.48099
G0 F3000 X81.481 Y97.32
G1 F1500 X65.519 Y81.358 E73.5189
G0 F3000 X65.519 Y81.923
G1 F1500 X81.481 Y97.886 E74.55684
G0 F3000 X81.481 Y98.451
G1 F1500 X65.519 Y82.489 E75.59476
G0 F3000 X65.519 Y83.055
G1 F1500 X81.481 Y99.017 E76.63267
G0 F3000 X81.481 Y99.583
G1 F1500 X65.519 Y83.621 E77.67058
G0 F3000 X65.519 Y84.186
G1 F1500 X81.481 Y100.148 E78.70849
G0 F3000 X81.481 Y100.714
G1 F1500 X65.519 Y84.752 E79.7464
G0 F3000 X65.519 Y85.318
G1 F1500 X81.481 Y101.28 E80.78431
G0 F3000 X81.481 Y101.846
G1 F1500 X65.519 Y85.883 E81.82225
G0 F3000 X65.519 Y86.449
G1 F1500 X81.481 Y102.411 E82.86016
G0 F3000 X81.481 Y102.977
G1 F1500 X65.519 Y87.015 E83.89807
G0 F3000 X65.519 Y87.58
G1 F1500 X81.481 Y103.543 E84.93602
G0 F3000 X81.481 Y104.108
G1 F1500 X65.519 Y88.146 E85.97393
G0 F3000 X65.519 Y88.712
G1 F1500 X81.481 Y104.674 E87.01184
G0 F3000 X81.481 Y105.24
G1 F1500 X65.519 Y89.277 E88.04978
G0 F3000 X65.519 Y89.843
G1 F1500 X81.481 Y105.805 E89.08769
G0 F3000 X81.481 Y106.371
G1 F1500 X65.519 Y90.409 E90.1256
G0 F3000 X65.519 Y90.974
G1 F1500 X81.481 Y106.937 E91.16355
G0 F3000 X81.481 Y107.502
G1 F1500 X65.519 Y91.54 E92.20146
G0 F3000 X65.519 Y92.106
G1 F1500 X81.392 Y107.979 E93.23358
G0 F3000 X80.826 Y107.979
G1 F1500 X65.519 Y92.672 E94.2289
G0 F3000 X65.519 Y93.237
G1 F1500 X80.26 Y107.979 E95.18745
G0 F3000 X79.695 Y107.979
G1 F1500 X65.519 Y93.803 E96.10923
G0 F3000 X65.519 Y94.369
G1 F1500 X79.129 Y107.979 E96.9942
G0 F3000 X78.563 Y107.979
G1 F1500 X65.519 Y94.934 E97.84241
G0 F3000 X65.519 Y95.5
G1 F1500 X77.998 Y107.979 E98.65384
G0 F3000 X77.432 Y107.979
G1 F1500 X65.519 Y96.066 E99.42847
G0 F3000 X65.519 Y96.631
G1 F1500 X76.866 Y107.979 E100.16633
G0 F3000 X76.301 Y107.979
G1 F1500 X65.519 Y97.197 E100.86742
G0 F3000 X65.519 Y97.763
G1 F1500 X75.735 Y107.979 E101.5317
G0 F3000 X75.169 Y107.979
G1 F1500 X65.519 Y98.328 E102.15921
G0 F3000 X65.519 Y98.894
G1 F1500 X74.604 Y107.979 E102.74995
G0 F3000 X74.038 Y107.979
G1 F1500 X65.519 Y99.46 E103.30389
G0 F3000 X65.519 Y100.025
G1 F1500 X73.472 Y107.979 E103.82106
G0 F3000 X72.906 Y107.979
G1 F1500 X65.519 Y100.591 E104.30142
G0 F3000 X65.519 Y101.157
G1 F1500 X72.341 Y107.979 E104.74502
G0 F3000 X71.775 Y107.979
G1 F1500 X65.519 Y101.722 E105.15184
G0 F3000 X65.519 Y102.288
G1 F1500 X71.209 Y107.979 E105.52186
G0 F3000 X70.644 Y107.979
G1 F1500 X65.519 Y102.854 E105.8551
G0 F3000 X65.519 Y103.42
G1 F1500 X70.078 Y107.979 E106.15155
G0 F3000 X69.512 Y107.979
G1 F1500 X65.519 Y103.985 E106.41122
G0 F3000 X65.519 Y104.551
G1 F1500 X68.947 Y107.979 E106.63412
G0 F3000 X68.381 Y107.979
G1 F1500 X65.519 Y105.117 E106.82022
G0 F3000 X65.519 Y105.682
