;FLAVOR:Marlin
;TIME:3858
;Filament used: 6.49209m
;Layer height: 0.3
;MINX:55.249
;MINY:59.409
;MINZ:0.3
;MAXX:129.851
;MAXY:121.314
;MAXZ:20.1
;Generated with Cura_SteamEngine 4.12.1
M82 ;absolute extrusion mode
G21 ;metric values
G90 ;absolute positioning
M82 ;set extruder to absolute mode
M107 ;start with the fan off

M104 S200 T0 ; start heating T0 to what is set in Cura
M140 S60 ; start heating the bed to what is set in Cura
M190 S60 ; start heating the bed to what is set in Cura
M109 S200 T0 ; start heating T0 to what is set in Cura

G28 X0 Y0 ;move X/Y to min endstops
G28 Z0 ;move Z to min endstops
G1 Z15.0 F2400 ;move the platform down 15mm
G92 E0 ;zero the extruded length
G1 F200 E3 ;extrude 3mm of feed stock
G92 E0 ;zero the extruded length again
G1 F2400
G0 Y20 F2400
M117 Printing...
G5
G92 E0
G92 E0
G1 F2400 E-1.2
;LAYER_COUNT:67
;LAYER:0
M107
G0 F3000 X57.014 Y69.153 Z0.3
;TYPE:SKIRT
G1 F2400 E0
G1 F1500 X57.49 Y68.848 E0.02551
G1 X58.004 Y68.613 E0.051
G1 X58.488 Y68.466 E0.07383
G1 X59 Y68.346 E0.09755
G1 X60.766 Y67.958 E0.17913
G1 X63.383 Y67.305 E0.30082
G1 X66.005 Y66.571 E0.42366
G1 X68.577 Y65.772 E0.54517
G1 X71.197 Y64.876 E0.6701
G1 X73.687 Y63.946 E0.79002
G1 X76.224 Y62.915 E0.91357
G1 X78.696 Y61.828 E1.03541
G1 X82.204 Y60.141 E1.21103
G1 X82.402 Y60.041 E1.22103
G1 X82.923 Y59.822 E1.24653
G1 X83.47 Y59.679 E1.27204
G1 X84.148 Y59.61 E1.30279
G1 X84.748 Y59.601 E1.32986
G1 X87.463 Y59.524 E1.4524
G1 X89.529 Y59.413 E1.54575
G1 X90.368 Y59.409 E1.5836
G1 X91.161 Y59.442 E1.61941
G1 X92.614 Y59.524 E1.68507
G1 X95.363 Y59.602 E1.80914
G1 X95.86 Y59.609 E1.83157
G1 X96.424 Y59.657 E1.85711
G1 X96.975 Y59.784 E1.88262
G1 X97.506 Y59.989 E1.9083
G1 X97.69 Y60.076 E1.91748
G1 X100.214 Y61.216 E2.04243
G1 X102.68 Y62.248 E2.16304
G1 X105.25 Y63.239 E2.28731
G1 X107.797 Y64.14 E2.4092
G1 X110.357 Y64.964 E2.53054
G1 X112.985 Y65.729 E2.65402
G1 X115.63 Y66.418 E2.77734
G1 X118.267 Y67.027 E2.89944
G1 X120.899 Y67.554 E3.02055
G1 X123.602 Y68.017 E3.14428
G1 X126.255 Y68.397 E3.26519
G1 X126.807 Y68.517 E3.29068
G1 X127.337 Y68.713 E3.31617
G1 X127.835 Y68.982 E3.34171
G1 X128.468 Y69.481 E3.37807
G1 X128.619 Y69.627 E3.38755
G1 X128.997 Y70.048 E3.41308
G1 X129.312 Y70.518 E3.4386
G1 X129.557 Y71.027 E3.46409
G1 X129.728 Y71.566 E3.4896
G1 X129.836 Y72.348 E3.52522
G1 X129.85 Y72.901 E3.55018
G1 X129.851 Y106.837 E5.08126
G1 X129.841 Y107.552 E5.11352
G1 X129.793 Y108.115 E5.13901
G1 X129.666 Y108.666 E5.16452
G1 X129.463 Y109.194 E5.19004
G1 X129.187 Y109.687 E5.21553
G1 X128.66 Y110.334 E5.25318
G1 X128.514 Y110.479 E5.26247
G1 X128.085 Y110.848 E5.288
G1 X127.609 Y111.153 E5.3135
G1 X127.095 Y111.388 E5.339
G1 X126.389 Y111.58 E5.37201
G1 X125.248 Y111.781 E5.42428
G1 X122.548 Y112.296 E5.54829
G1 X119.859 Y112.888 E5.67252
G1 X117.27 Y113.535 E5.79292
G1 X114.62 Y114.278 E5.91709
G1 X112.041 Y115.081 E6.03895
G1 X109.493 Y115.953 E6.16045
G1 X106.91 Y116.919 E6.28487
G1 X104.428 Y117.929 E6.40577
G1 X101.932 Y119.028 E6.52881
G1 X98.424 Y120.717 E6.70447
G1 X97.899 Y120.926 E6.72997
G1 X97.349 Y121.058 E6.75549
G1 X96.749 Y121.113 E6.78267
G1 X96.149 Y121.122 E6.80974
G1 X93.434 Y121.199 E6.93228
G1 X91.368 Y121.31 E7.02563
G1 X90.53 Y121.314 E7.06344
G1 X89.736 Y121.281 E7.09929
G1 X88.283 Y121.199 E7.16495
G1 X85.534 Y121.121 E7.28903
G1 X85.038 Y121.114 E7.31141
G1 X84.474 Y121.066 E7.33694
G1 X83.923 Y120.939 E7.36245
G1 X83.305 Y120.692 E7.39248
G1 X82.841 Y120.459 E7.41591
G1 X81.208 Y119.606 E7.49903
G1 X78.8 Y118.433 E7.61987
G1 X76.305 Y117.305 E7.74341
G1 X73.793 Y116.251 E7.86631
G1 X71.253 Y115.27 E7.98916
G1 X68.709 Y114.372 E8.11088
G1 X66.108 Y113.535 E8.23415
G1 X63.539 Y112.786 E8.35488
G1 X60.89 Y112.095 E8.4784
G1 X58.872 Y111.629 E8.57184
G1 X58.45 Y111.525 E8.59145
G1 X57.912 Y111.351 E8.61696
G1 X57.404 Y111.103 E8.64246
G1 X56.936 Y110.786 E8.66797
G1 X56.451 Y110.344 E8.69757
G1 X56.078 Y109.919 E8.72308
G1 X55.768 Y109.446 E8.7486
G1 X55.528 Y108.935 E8.77407
G1 X55.362 Y108.394 E8.7996
G1 X55.262 Y107.622 E8.83472
G1 X55.25 Y106.995 E8.86301
G1 X55.249 Y73.132 E10.3908
G1 X55.259 Y72.446 E10.42175
G1 X55.308 Y71.882 E10.4473
G1 X55.435 Y71.332 E10.47276
G1 X55.638 Y70.804 E10.49829
G1 X55.914 Y70.311 E10.52378
G1 X56.44 Y69.666 E10.56133
G1 X56.585 Y69.522 E10.57055
G1 X57.014 Y69.153 E10.59608
G0 F3000 X57.275 Y69.457
G1 F1500 X57.73 Y69.173 E10.62027
G1 X58.222 Y68.96 E10.64446
G1 X59.035 Y68.749 E10.68236
G1 X60.835 Y68.353 E10.76551
G1 X63.491 Y67.69 E10.88902
G1 X66.116 Y66.955 E11.012
G1 X68.73 Y66.144 E11.13548
G1 X71.278 Y65.272 E11.25699
G1 X73.871 Y64.303 E11.38188
G1 X76.387 Y63.281 E11.5044
G1 X78.863 Y62.192 E11.62643
G1 X82.36 Y60.511 E11.80149
G1 X82.583 Y60.398 E11.81277
G1 X83.078 Y60.192 E11.83696
G1 X83.598 Y60.062 E11.86114
G1 X84.154 Y60.01 E11.88633
G1 X84.724 Y60.001 E11.91205
G1 X87.496 Y59.922 E12.03717
G1 X89.458 Y59.816 E12.12582
G1 X89.967 Y59.803 E12.14879
G1 X90.462 Y59.812 E12.17113
G1 X91.138 Y59.842 E12.20165
G1 X92.544 Y59.922 E12.26519
G1 X95.389 Y60.002 E12.3936
G1 X95.855 Y60.009 E12.41463
G1 X96.389 Y60.057 E12.43881
G1 X96.91 Y60.183 E12.463
G1 X97.535 Y60.445 E12.49357
G1 X100.031 Y61.573 E12.61715
G1 X102.53 Y62.619 E12.73938
G1 X105.109 Y63.613 E12.86407
G1 X107.647 Y64.511 E12.98554
G1 X110.27 Y65.356 E13.10987
G1 X112.869 Y66.111 E13.23197
G1 X115.52 Y66.802 E13.35557
G1 X118.204 Y67.422 E13.47986
G1 X120.858 Y67.954 E13.60198
G1 X123.514 Y68.409 E13.72355
G1 X126.198 Y68.793 E13.84588
G1 X126.722 Y68.909 E13.87009
G1 X127.222 Y69.1 E13.89424
G1 X127.689 Y69.364 E13.91844
G1 X128.19 Y69.769 E13.94751
G1 X128.341 Y69.915 E13.95699
G1 X128.698 Y70.315 E13.98117
G1 X128.991 Y70.764 E14.00536
G1 X129.215 Y71.252 E14.02959
G1 X129.363 Y71.767 E14.05376
G1 X129.436 Y72.363 E14.08086
G1 X129.45 Y72.905 E14.10532
G1 X129.451 Y106.831 E15.63595
G1 X129.441 Y107.546 E15.66821
G1 X129.393 Y108.081 E15.69244
G1 X129.267 Y108.602 E15.71663
G1 X129.065 Y109.098 E15.74079
G1 X128.791 Y109.56 E15.76502
G1 X128.378 Y110.05 E15.79393
G1 X128.232 Y110.195 E15.80322
G1 X127.824 Y110.544 E15.82744
G1 X127.369 Y110.828 E15.85164
G1 X126.877 Y111.041 E15.87583
G1 X126.319 Y111.186 E15.90184
G1 X125.183 Y111.386 E15.95388
G1 X122.458 Y111.906 E16.07904
G1 X119.781 Y112.495 E16.20271
G1 X117.137 Y113.156 E16.32567
G1 X114.53 Y113.887 E16.44782
G1 X111.94 Y114.693 E16.5702
G1 X109.329 Y115.587 E16.69472
G1 X106.786 Y116.538 E16.81721
G1 X104.265 Y117.564 E16.94001
G1 X101.777 Y118.66 E17.06267
G1 X98.251 Y120.357 E17.23921
G1 X97.751 Y120.553 E17.26344
G1 X97.229 Y120.672 E17.2876
G1 X96.743 Y120.713 E17.3096
G1 X96.173 Y120.722 E17.33532
G1 X93.401 Y120.801 E17.46044
G1 X91.439 Y120.907 E17.54908
G1 X90.93 Y120.92 E17.57206
G1 X90.436 Y120.911 E17.59435
G1 X89.759 Y120.881 E17.62492
G1 X88.353 Y120.801 E17.68846
G1 X85.508 Y120.721 E17.81687
G1 X85.043 Y120.714 E17.83785
G1 X84.509 Y120.666 E17.86204
G1 X83.988 Y120.54 E17.88622
G1 X83.484 Y120.334 E17.91079
G1 X83.026 Y120.104 E17.93391
G1 X81.418 Y119.263 E18.01578
G1 X78.945 Y118.06 E18.13985
G1 X76.462 Y116.937 E18.2628
G1 X73.943 Y115.881 E18.38603
G1 X71.405 Y114.9 E18.5088
G1 X68.827 Y113.989 E18.63216
G1 X66.228 Y113.153 E18.75533
G1 X63.647 Y112.401 E18.87662
G1 X60.976 Y111.704 E19.00116
G1 X58.968 Y111.24 E19.09414
G1 X58.546 Y111.136 E19.11375
G1 X58.036 Y110.97 E19.13795
G1 X57.557 Y110.729 E19.16214
G1 X57.118 Y110.42 E19.18636
G1 X56.732 Y110.059 E19.21021
G1 X56.379 Y109.655 E19.23441
G1 X56.09 Y109.203 E19.25862
G1 X55.872 Y108.713 E19.28281
G1 X55.729 Y108.196 E19.30701
G1 X55.662 Y107.61 E19.33362
G1 X55.65 Y106.992 E19.36151
G1 X55.649 Y73.138 E20.88889
G1 X55.659 Y72.452 E20.91985
G1 X55.707 Y71.917 E20.94408
G1 X55.834 Y71.396 E20.96828
G1 X56.036 Y70.9 E20.99244
G1 X56.31 Y70.439 E21.01663
G1 X56.722 Y69.95 E21.04548
G1 X56.867 Y69.806 E21.0547
G1 X57.275 Y69.457 E21.07892
G0 F3000 X57.535 Y69.763
G1 F1500 X57.967 Y69.501 E21.10172
G1 X58.671 Y69.245 E21.13552
G1 X59.172 Y69.128 E21.15873
G1 X60.912 Y68.745 E21.23911
G1 X63.591 Y68.077 E21.36368
G1 X66.238 Y67.336 E21.48769
G1 X68.83 Y66.531 E21.61015
G1 X71.43 Y65.642 E21.73412
G1 X73.994 Y64.684 E21.85761
G1 X76.562 Y63.641 E21.98266
G1 X79.019 Y62.561 E22.10375
G1 X82.554 Y60.861 E22.28072
G1 X82.763 Y60.755 E22.29129
G1 X83.231 Y60.563 E22.31411
G1 X83.723 Y60.447 E22.33692
G1 X84.16 Y60.41 E22.35671
G1 X84.741 Y60.401 E22.38292
G1 X87.528 Y60.321 E22.50871
G1 X89.554 Y60.213 E22.60025
G1 X90.356 Y60.209 E22.63643
G1 X91.115 Y60.241 E22.67071
G1 X92.544 Y60.322 E22.73528
G1 X95.373 Y60.402 E22.86297
G1 X95.849 Y60.409 E22.88445
G1 X96.352 Y60.456 E22.90724
G1 X96.842 Y60.582 E22.93007
G1 X97.339 Y60.795 E22.95446
G1 X99.878 Y61.943 E23.08018
G1 X102.381 Y62.989 E23.20257
G1 X104.969 Y63.988 E23.32773
G1 X107.539 Y64.896 E23.4507
G1 X110.132 Y65.732 E23.57362
G1 X112.771 Y66.499 E23.69761
G1 X115.434 Y67.193 E23.82177
G1 X118.1 Y67.809 E23.94522
G1 X120.784 Y68.347 E24.06872
G1 X123.467 Y68.806 E24.19153
G1 X126.141 Y69.189 E24.3134
G1 X126.634 Y69.3 E24.3362
G1 X127.104 Y69.487 E24.35902
G1 X127.538 Y69.746 E24.38182
G1 X128.063 Y70.202 E24.4132
G1 X128.398 Y70.582 E24.43605
G1 X128.669 Y71.009 E24.45887
G1 X128.869 Y71.473 E24.48167
G1 X128.993 Y71.963 E24.50447
G1 X129.046 Y72.611 E24.5338
G1 X129.05 Y72.94 E24.54865
G1 X129.051 Y106.826 E26.07747
G1 X129.041 Y107.541 E26.10974
G1 X128.994 Y108.044 E26.13253
G1 X128.868 Y108.534 E26.15535
G1 X128.667 Y108.998 E26.17817
G1 X128.395 Y109.424 E26.20097
G1 X127.95 Y109.912 E26.23077
G1 X127.564 Y110.238 E26.25356
G1 X127.132 Y110.5 E26.27636
G1 X126.664 Y110.691 E26.29916
G1 X126.25 Y110.793 E26.3184
G1 X125.063 Y111.002 E26.37278
G1 X122.369 Y111.516 E26.49651
G1 X119.703 Y112.102 E26.61967
G1 X117.038 Y112.769 E26.74361
G1 X114.409 Y113.505 E26.86678
G1 X111.797 Y114.318 E26.9902
G1 X109.207 Y115.206 E27.11373
G1 X106.644 Y116.164 E27.23718
G1 X104.09 Y117.203 E27.36158
G1 X101.609 Y118.296 E27.4839
G1 X98.077 Y119.996 E27.66075
G1 X97.606 Y120.179 E27.68354
G1 X97.111 Y120.285 E27.70638
G1 X96.737 Y120.313 E27.7233
G1 X96.156 Y120.322 E27.74952
G1 X93.369 Y120.402 E27.87531
G1 X91.343 Y120.51 E27.96685
G1 X90.542 Y120.514 E28.00299
G1 X89.782 Y120.482 E28.03731
G1 X88.353 Y120.401 E28.10188
G1 X85.524 Y120.321 E28.22957
G1 X85.049 Y120.314 E28.251
G1 X84.545 Y120.267 E28.27384
G1 X84.056 Y120.141 E28.29662
G1 X83.263 Y119.776 E28.33601
G1 X81.586 Y118.9 E28.42137
G1 X79.135 Y117.707 E28.54435
G1 X76.603 Y116.562 E28.66972
G1 X74.106 Y115.515 E28.79188
G1 X71.515 Y114.514 E28.9172
G1 X68.967 Y113.614 E29.03912
G1 X66.357 Y112.774 E29.16282
G1 X63.722 Y112.006 E29.28665
G1 X61.095 Y111.321 E29.40914
G1 X59.063 Y110.852 E29.50322
G1 X58.641 Y110.748 E29.52283
G1 X58.161 Y110.589 E29.54564
G1 X57.713 Y110.356 E29.56843
G1 X57.16 Y109.919 E29.60023
G1 X57.013 Y109.774 E29.60954
G1 X56.682 Y109.392 E29.63235
G1 X56.416 Y108.962 E29.65516
G1 X56.22 Y108.496 E29.67797
G1 X56.101 Y108.005 E29.70076
G1 X56.054 Y107.344 E29.73066
G1 X56.05 Y106.966 E29.74771
G1 X56.049 Y73.143 E31.2737
G1 X56.059 Y72.457 E31.30465
G1 X56.107 Y71.954 E31.32745
G1 X56.233 Y71.464 E31.35027
G1 X56.434 Y71.001 E31.37304
G1 X56.706 Y70.575 E31.39585
G1 X57.149 Y70.089 E31.42552
G1 X57.535 Y69.763 E31.44831
G1 F2400 E30.24831
;MESH:clip.stl(5)
G0 F3000 X84.109 Y69.124
;TYPE:WALL-INNER
G1 F2400 E31.44831
G1 F1500 X84.482 Y68.699 E31.47382
G1 X86.359 Y68.699 E31.55851
G1 X89.323 Y68.699 E31.69223
G1 X89.615 Y66.799 E31.77896
G1 X89.323 Y64.899 E31.86569
G1 X86.359 Y64.899 E31.99942
G1 X84.48 Y64.899 E32.08419
G1 X84.109 Y64.474 E32.10964
G1 X84.43 Y64.199 E32.12871
G1 X85.76 Y64.199 E32.18872
G1 X86.359 Y64.799 E32.22697
G1 X89.408 Y64.799 E32.26815
G1 X90.008 Y63.999 E32.31327
G1 X90.608 Y64.799 E32.35839
G1 X93.657 Y64.799 E32.49595
G1 X94.256 Y64.199 E32.5342
G1 X95.586 Y64.199 E32.5942
G1 X95.907 Y64.474 E32.61327
G1 X95.536 Y64.899 E32.63873
G1 X93.657 Y64.899 E32.7235
G1 X90.693 Y64.899 E32.76085
G1 X90.401 Y66.799 E32.84758
G1 X90.693 Y68.699 E32.9343
G1 X93.657 Y68.699 E33.06803
G1 X95.534 Y68.699 E33.15271
G1 X95.907 Y69.124 E33.17823
G1 X95.586 Y69.399 E33.1973
G1 X94.256 Y69.399 E33.2573
G1 X93.657 Y68.799 E33.29555
G1 X90.608 Y68.799 E33.33147
G1 X90.008 Y69.599 E33.37658
G1 X89.408 Y68.799 E33.4217
G1 X86.359 Y68.799 E33.46288
G1 X85.76 Y69.399 E33.50113
G1 X84.43 Y69.399 E33.56114
G1 X84.109 Y69.124 E33.58021
G0 F3000 X83.708 Y69.307
;TYPE:WALL-OUTER
G1 F1500 X83.708 Y68.975 E33.59519
G1 X84.3 Y68.299 E33.63573
G1 X88.98 Y68.299 E33.84687
G1 X89.21 Y66.799 E33.91534
G1 X88.98 Y65.299 E33.98381
G1 X84.299 Y65.299 E34.195
G1 X83.708 Y64.623 E34.23551
G1 X83.708 Y64.291 E34.25049
G1 X84.282 Y63.799 E34.2846
G1 X85.926 Y63.799 E34.35877
G1 X86.525 Y64.399 E34.39702
G1 X89.208 Y64.399 E34.51807
G1 X89.808 Y63.599 E34.56318
G1 X90.208 Y63.599 E34.58123
G1 X90.808 Y64.399 E34.62635
G1 X93.491 Y64.399 E34.7474
G1 X94.09 Y63.799 E34.78565
G1 X95.734 Y63.799 E34.85982
G1 X96.308 Y64.291 E34.89393
G1 X96.308 Y64.623 E34.90891
G1 X95.717 Y65.299 E34.94942
G1 X91.036 Y65.299 E35.16061
G1 X90.806 Y66.799 E35.22907
G1 X91.036 Y68.299 E35.29754
G1 X95.716 Y68.299 E35.50869
G1 X96.308 Y68.975 E35.54923
G1 X96.308 Y69.307 E35.56421
G1 X95.734 Y69.799 E35.59831
G1 X94.09 Y69.799 E35.67249
G1 X93.491 Y69.199 E35.71074
G1 X90.808 Y69.199 E35.83178
G1 X90.208 Y69.999 E35.8769
G1 X89.808 Y69.999 E35.89495
G1 X89.208 Y69.199 E35.94006
G1 X86.525 Y69.199 E36.06111
G1 X85.926 Y69.799 E36.09936
G1 X84.282 Y69.799 E36.17354
G1 X83.708 Y69.307 E36.20764
G0 F3000 X83.708 Y69.107
G0 X84.148 Y69.107
G0 X84.371 Y69.097
;TYPE:SKIN
G1 F1500 X84.467 Y69.193 E36.21389
G0 F3000 X84.718 Y68.879
G1 F1500 X85.057 Y69.218 E36.23593
G0 F3000 X85.284 Y68.879
G1 F1500 X85.623 Y69.218 E36.25797
G0 F3000 X85.936 Y68.966
G1 F1500 X85.849 Y68.879 E36.26363
G1 F2400 E35.06363
G0 F3000 X84.743 Y64.379
G1 F2400 E36.26363
G1 F1500 X85.083 Y64.718 E36.28571
G0 F3000 X85.309 Y64.379
G1 F1500 X85.649 Y64.718 E36.30778
G1 F2400 E35.10778
G0 F3000 X89.735 Y65.012
G1 F2400 E36.30778
G1 F1500 X90.008 Y64.648 E36.3287
G1 X90.281 Y65.012 E36.34962
G1 X90.008 Y66.792 E36.43242
G1 X89.735 Y65.012 E36.51522
G1 F2400 E35.31522
G0 F3000 X90.008 Y66.806
G1 F2400 E36.51522
G1 F1500 X90.281 Y68.586 E36.59802
G1 X90.008 Y68.95 E36.61894
G1 X89.735 Y68.586 E36.63986
G1 X90.008 Y66.806 E36.72266
G1 F2400 E35.52266
G0 F3000 X90.067 Y68.57
G1 F2400 E36.72266
G1 F1500 X89.938 Y68.442 E36.73101
G1 F2400 E35.53101
G0 F3000 X90.071 Y65.181
G1 F2400 E36.73101
G1 F1500 X89.934 Y65.044 E36.73992
G1 F2400 E35.53992
G0 F3000 X94.335 Y68.879
G1 F2400 E36.73992
G1 F1500 X94.675 Y69.219 E36.76203
G0 F3000 X94.9 Y68.879
G1 F1500 X95.24 Y69.219 E36.78414
G1 F2400 E35.58414
G0 F3000 X94.062 Y64.646
G1 F2400 E36.78414
G1 F1500 X94.134 Y64.718 E36.78882
G0 F3000 X94.359 Y64.378
G1 F1500 X94.699 Y64.718 E36.81093
G0 F3000 X94.925 Y64.378
G1 F1500 X95.265 Y64.718 E36.83304
G0 F3000 X95.491 Y64.378
G1 F1500 X95.629 Y64.517 E36.84204
G1 F2400 E35.64204
;MESH:clip.stl(2)
G0 F3000 X93.657 Y73.099
;TYPE:WALL-INNER
G1 F2400 E36.84204
G1 F1500 X94.256 Y72.499 E36.88029
G1 X95.586 Y72.499 E36.9403
G1 X95.907 Y72.774 E36.95937
G1 X95.536 Y73.199 E36.98482
G1 X93.657 Y73.199 E37.0696
G1 X90.693 Y73.199 E37.20332
G1 X90.401 Y75.099 E37.29005
G1 X90.693 Y76.999 E37.37678
G1 X93.657 Y76.999 E37.5105
G1 X95.534 Y76.999 E37.59519
G1 X95.907 Y77.424 E37.6207
G1 X95.586 Y77.699 E37.63977
G1 X94.256 Y77.699 E37.69978
G1 X93.657 Y77.099 E37.73803
G1 X90.608 Y77.099 E37.77394
G1 X90.008 Y77.899 E37.81906
G1 X89.408 Y77.099 E37.86417
G1 X86.359 Y77.099 E38.00173
G1 X85.76 Y77.699 E38.03999
G1 X84.43 Y77.699 E38.09999
G1 X84.109 Y77.424 E38.11906
G1 X84.482 Y76.999 E38.14457
G1 X86.359 Y76.999 E38.22926
G1 X89.323 Y76.999 E38.26661
G1 X89.615 Y75.099 E38.35333
G1 X89.323 Y73.199 E38.44006
G1 X86.359 Y73.199 E38.57379
G1 X84.48 Y73.199 E38.65856
G1 X84.109 Y72.774 E38.68401
G1 X84.43 Y72.499 E38.70308
G1 X85.76 Y72.499 E38.76309
G1 X86.359 Y73.099 E38.80134
