;FLAVOR:Marlin
;TIME:865
;Filament used: 1.4437m
;Layer height: 0.3
;MINX:76.703
;MINY:67.709
;MINZ:0.3
;MAXX:110.689
;MAXY:113.045
;MAXZ:20.1
;Generated with Cura_SteamEngine 4.12.1
M82 ;absolute extrusion mode
G21 ;metric values
G90 ;absolute positioning
M82 ;set extruder to absolute mode
M107 ;start with the fan off

M104 S200 T0 ; start heating T0 to what is set in Cura
M140 S60 ; start heating the bed to what is set in Cura
M190 S60 ; start heating the bed to what is set in Cura
M109 S200 T0 ; start heating T0 to what is set in Cura

G28 X0 Y0 ;move X/Y to min endstops
G28 Z0 ;move Z to min endstops
G1 Z15.0 F2400 ;move the platform down 15mm
G92 E0 ;zero the extruded length
G1 F200 E3 ;extrude 3mm of feed stock
G92 E0 ;zero the extruded length again
G1 F2400
G0 Y20 F2400
M117 Printing...
G5
G92 E0
G92 E0
G1 F2400 E-1.2
;LAYER_COUNT:67
;LAYER:0
M107
G0 F3000 X80.365 Y70.055 Z0.3
;TYPE:SKIRT
G1 F2400 E0
G1 F1500 X80.845 Y69.542 E0.0317
G1 X81.375 Y69.068 E0.06378
G1 X81.629 Y68.852 E0.07882
G1 X82.086 Y68.519 E0.10433
G1 X82.585 Y68.254 E0.12982
G1 X83.117 Y68.062 E0.15534
G1 X83.67 Y67.946 E0.18083
G1 X84.148 Y67.91 E0.20246
G1 X84.748 Y67.901 E0.22953
G1 X87.463 Y67.824 E0.35207
G1 X89.529 Y67.713 E0.44542
G1 X90.368 Y67.709 E0.48327
G1 X91.161 Y67.742 E0.51908
G1 X92.614 Y67.824 E0.58474
G1 X95.364 Y67.902 E0.70886
G1 X95.859 Y67.909 E0.73119
G1 X96.422 Y67.957 E0.75669
G1 X96.973 Y68.084 E0.7822
G1 X97.5 Y68.287 E0.80768
G1 X97.994 Y68.563 E0.83321
G1 X98.73 Y69.141 E0.87543
G1 X99.145 Y69.505 E0.90034
G1 X99.541 Y69.908 E0.92583
G1 X99.703 Y70.108 E0.93744
G1 X100.419 Y71.05 E0.99082
G1 X100.515 Y71.18 E0.99811
G1 X102.216 Y73.36 E1.12286
G1 X103.906 Y75.403 E1.24249
G1 X105.717 Y77.471 E1.36651
G1 X107.556 Y79.455 E1.48856
G1 X107.809 Y79.713 E1.50486
G1 X108.561 Y80.502 E1.55404
G1 X109.324 Y81.353 E1.6056
G1 X109.574 Y81.651 E1.62315
G1 X109.902 Y82.111 E1.64864
G1 X110.162 Y82.613 E1.67415
G1 X110.348 Y83.147 E1.69966
G1 X110.457 Y83.702 E1.72518
G1 X110.488 Y84.136 E1.74481
G1 X110.497 Y84.732 E1.7717
G1 X110.574 Y87.447 E1.89424
G1 X110.685 Y89.513 E1.98759
G1 X110.689 Y90.351 E2.0254
G1 X110.656 Y91.145 E2.06125
G1 X110.574 Y92.598 E2.12691
G1 X110.496 Y95.347 E2.25098
G1 X110.489 Y95.844 E2.27341
G1 X110.441 Y96.408 E2.29895
G1 X110.314 Y96.959 E2.32446
G1 X110.111 Y97.486 E2.34994
G1 X109.835 Y97.98 E2.37547
G1 X109.265 Y98.705 E2.41708
G1 X108.893 Y99.129 E2.44253
G1 X108.218 Y99.774 E2.48465
G1 X106.195 Y101.654 E2.60925
G1 X104.252 Y103.567 E2.73226
G1 X102.364 Y105.533 E2.85524
G1 X100.548 Y107.534 E2.97716
G1 X98.744 Y109.639 E3.10223
G1 X97.829 Y110.742 E3.16689
G1 X97.418 Y111.169 E3.19363
G1 X96.848 Y111.679 E3.22814
G1 X96.559 Y111.923 E3.2452
G1 X96.099 Y112.252 E3.27072
G1 X95.598 Y112.513 E3.2962
G1 X95.065 Y112.701 E3.3217
G1 X94.51 Y112.812 E3.34724
G1 X94.065 Y112.844 E3.36737
G1 X93.468 Y112.853 E3.3943
G1 X90.753 Y112.93 E3.51684
G1 X88.687 Y113.041 E3.61019
G1 X87.849 Y113.045 E3.648
G1 X87.055 Y113.012 E3.68385
G1 X85.602 Y112.93 E3.74951
G1 X82.853 Y112.852 E3.87359
G1 X82.356 Y112.845 E3.89601
G1 X81.792 Y112.797 E3.92155
G1 X81.241 Y112.67 E3.94706
G1 X80.714 Y112.467 E3.97254
G1 X80.22 Y112.191 E3.99807
G1 X79.477 Y111.606 E4.04074
G1 X79.068 Y111.246 E4.06532
G1 X78.672 Y110.842 E4.09084
G1 X78.337 Y110.387 E4.11633
G1 X78.069 Y109.889 E4.14185
G1 X77.875 Y109.358 E4.16735
G1 X77.757 Y108.805 E4.19287
G1 X77.724 Y108.475 E4.20783
G1 X77.682 Y107.702 E4.24276
G1 X77.669 Y107.334 E4.25937
G1 X77.494 Y104.601 E4.38292
G1 X77.242 Y101.898 E4.5054
G1 X76.75 Y98.03 E4.68132
G1 X76.708 Y97.406 E4.70954
G1 X76.704 Y96.959 E4.72971
G1 X76.703 Y83.155 E5.3525
G1 X76.713 Y82.446 E5.38449
G1 X76.761 Y81.882 E5.41003
G1 X76.905 Y81.278 E5.43804
G1 X77.739 Y78.682 E5.56106
G1 X78.503 Y76.057 E5.6844
G1 X79.181 Y73.448 E5.80602
G1 X79.418 Y72.421 E5.85358
G1 X79.627 Y71.57 E5.89311
G1 X79.801 Y71.032 E5.91862
G1 X80.048 Y70.524 E5.94411
G1 X80.365 Y70.055 E5.96965
G0 F3000 X80.731 Y70.238
G1 F1500 X81.112 Y69.841 E5.99447
G1 X81.721 Y69.298 E6.03128
G1 X81.887 Y69.158 E6.04108
G1 X82.322 Y68.844 E6.06529
G1 X82.798 Y68.598 E6.08946
G1 X83.306 Y68.425 E6.11367
G1 X83.834 Y68.33 E6.13788
G1 X84.154 Y68.31 E6.15234
G1 X84.724 Y68.301 E6.17806
G1 X87.496 Y68.222 E6.30318
G1 X89.458 Y68.116 E6.39182
G1 X89.967 Y68.103 E6.4148
G1 X90.462 Y68.112 E6.43713
G1 X91.138 Y68.142 E6.46766
G1 X92.544 Y68.222 E6.5312
G1 X95.389 Y68.302 E6.65961
G1 X95.853 Y68.309 E6.68054
G1 X96.387 Y68.357 E6.70473
G1 X96.908 Y68.483 E6.72891
G1 X97.405 Y68.686 E6.75314
G1 X97.866 Y68.959 E6.77731
G1 X98.475 Y69.449 E6.81257
G1 X98.88 Y69.805 E6.8369
G1 X99.236 Y70.168 E6.85984
G1 X99.385 Y70.35 E6.87045
G1 X100.097 Y71.287 E6.92355
G1 X100.21 Y71.44 E6.93213
G1 X101.891 Y73.594 E7.0554
G1 X103.613 Y75.677 E7.17733
G1 X105.423 Y77.743 E7.30126
G1 X107.259 Y79.725 E7.42315
G1 X107.519 Y79.989 E7.43987
G1 X108.271 Y80.778 E7.48904
G1 X109.025 Y81.619 E7.54
G1 X109.265 Y81.905 E7.55685
G1 X109.575 Y82.343 E7.58106
G1 X109.816 Y82.822 E7.60525
G1 X109.983 Y83.332 E7.62946
G1 X110.072 Y83.861 E7.65366
G1 X110.088 Y84.142 E7.66636
G1 X110.096 Y84.689 E7.69104
G1 X110.176 Y87.48 E7.81701
G1 X110.282 Y89.442 E7.90566
G1 X110.295 Y89.951 E7.92863
G1 X110.286 Y90.445 E7.95093
G1 X110.256 Y91.122 E7.9815
G1 X110.176 Y92.528 E8.04504
G1 X110.095 Y95.393 E8.17435
G1 X110.089 Y95.839 E8.19447
G1 X110.041 Y96.373 E8.21866
G1 X109.915 Y96.894 E8.24284
G1 X109.713 Y97.391 E8.26705
G1 X109.439 Y97.852 E8.29124
G1 X108.958 Y98.448 E8.3258
G1 X108.593 Y98.865 E8.3508
G1 X107.946 Y99.481 E8.39111
G1 X105.907 Y101.376 E8.51669
G1 X103.966 Y103.287 E8.63958
G1 X102.079 Y105.252 E8.7625
G1 X100.265 Y107.251 E8.88428
G1 X98.441 Y109.379 E9.01074
G1 X97.521 Y110.487 E9.07571
G1 X97.151 Y110.871 E9.09977
G1 X96.581 Y111.381 E9.13428
G1 X96.303 Y111.615 E9.15067
G1 X95.866 Y111.925 E9.17484
G1 X95.388 Y112.168 E9.19904
G1 X94.879 Y112.336 E9.22322
G1 X94.35 Y112.427 E9.24744
G1 X94.059 Y112.444 E9.26059
G1 X93.492 Y112.453 E9.28617
G1 X90.72 Y112.532 E9.41129
G1 X88.758 Y112.638 E9.49993
G1 X88.249 Y112.651 E9.52291
G1 X87.755 Y112.642 E9.5452
G1 X87.078 Y112.612 E9.57577
G1 X85.672 Y112.532 E9.63931
G1 X82.827 Y112.452 E9.76772
G1 X82.361 Y112.445 E9.78874
G1 X81.827 Y112.397 E9.81293
G1 X81.306 Y112.271 E9.83712
G1 X80.809 Y112.069 E9.86132
G1 X80.348 Y111.795 E9.88552
G1 X79.734 Y111.299 E9.92113
G1 X79.333 Y110.946 E9.94523
G1 X78.958 Y110.562 E9.96945
G1 X78.646 Y110.126 E9.99363
G1 X78.401 Y109.649 E10.01783
G1 X78.23 Y109.141 E10.04201
G1 X78.124 Y108.453 E10.07342
G1 X78.081 Y107.687 E10.10803
G1 X78.067 Y107.294 E10.12577
G1 X77.893 Y104.575 E10.2487
G1 X77.638 Y101.842 E10.37254
G1 X77.147 Y97.976 E10.54836
G1 X77.108 Y97.392 E10.57476
G1 X77.104 Y96.959 E10.5943
G1 X77.103 Y83.16 E11.21687
G1 X77.113 Y82.451 E11.24886
G1 X77.161 Y81.917 E11.27305
G1 X77.286 Y81.4 E11.29704
G1 X78.121 Y78.801 E11.42021
G1 X78.888 Y76.165 E11.54407
G1 X79.572 Y73.533 E11.66676
G1 X79.807 Y72.516 E11.71385
G1 X80.016 Y71.665 E11.75338
G1 X80.182 Y71.156 E11.77754
G1 X80.422 Y70.676 E11.80175
G1 X80.731 Y70.238 E11.82594
G0 F3000 X81.096 Y70.425
G1 F1500 X81.379 Y70.139 E11.84409
G1 X81.979 Y69.604 E11.88036
G1 X82.145 Y69.464 E11.89015
G1 X82.556 Y69.169 E11.91298
G1 X83.008 Y68.943 E11.93578
G1 X83.49 Y68.791 E11.95858
G1 X84.16 Y68.71 E11.98903
G1 X84.741 Y68.701 E12.01525
G1 X87.528 Y68.621 E12.14104
G1 X89.554 Y68.513 E12.23257
G1 X90.445 Y68.512 E12.27277
G1 X91.115 Y68.541 E12.30303
G1 X92.544 Y68.622 E12.3676
G1 X95.373 Y68.702 E12.49529
G1 X95.847 Y68.709 E12.51668
G1 X96.351 Y68.756 E12.53952
G1 X96.84 Y68.882 E12.5623
G1 X97.304 Y69.083 E12.58511
G1 X97.845 Y69.446 E12.61451
G1 X98.296 Y69.822 E12.641
G1 X98.932 Y70.427 E12.6806
G1 X99.066 Y70.592 E12.69019
G1 X99.775 Y71.524 E12.74302
G1 X99.888 Y71.678 E12.75164
G1 X101.583 Y73.85 E12.87594
G1 X103.32 Y75.95 E12.9989
G1 X105.112 Y77.996 E13.12161
G1 X106.964 Y79.995 E13.24455
G1 X107.229 Y80.265 E13.26162
G1 X107.981 Y81.054 E13.3108
G1 X108.727 Y81.886 E13.36121
G1 X108.957 Y82.16 E13.37735
G1 X109.246 Y82.574 E13.40013
G1 X109.467 Y83.029 E13.42295
G1 X109.614 Y83.513 E13.44578
G1 X109.688 Y84.148 E13.47462
G1 X109.696 Y84.7 E13.49953
G1 X109.777 Y87.512 E13.62645
G1 X109.885 Y89.538 E13.71798
G1 X109.889 Y90.339 E13.75412
G1 X109.857 Y91.099 E13.78844
G1 X109.776 Y92.528 E13.85302
G1 X109.695 Y95.382 E13.98183
G1 X109.689 Y95.833 E14.00218
G1 X109.642 Y96.336 E14.02497
G1 X109.516 Y96.826 E14.0478
G1 X109.315 Y97.29 E14.07061
G1 X108.947 Y97.837 E14.10036
G1 X108.595 Y98.258 E14.12512
G1 X108.037 Y98.86 E14.16215
G1 X107.674 Y99.188 E14.18422
G1 X105.638 Y101.081 E14.30965
G1 X103.662 Y103.026 E14.43474
G1 X101.794 Y104.97 E14.55638
G1 X99.948 Y107.005 E14.68034
G1 X98.17 Y109.08 E14.80362
G1 X97.214 Y110.232 E14.87116
G1 X96.885 Y110.573 E14.89254
G1 X96.315 Y111.083 E14.92705
G1 X96.048 Y111.307 E14.94277
G1 X95.635 Y111.598 E14.96557
G1 X95.181 Y111.82 E14.98837
G1 X94.697 Y111.968 E15.0112
G1 X94.053 Y112.044 E15.04046
G1 X93.475 Y112.053 E15.06654
G1 X90.688 Y112.133 E15.19233
G1 X88.662 Y112.241 E15.28387
G1 X87.861 Y112.245 E15.32
G1 X87.101 Y112.213 E15.35432
G1 X85.672 Y112.132 E15.4189
G1 X82.843 Y112.052 E15.54659
G1 X82.367 Y112.045 E15.56806
G1 X81.864 Y111.998 E15.59086
G1 X81.374 Y111.872 E15.61368
G1 X80.91 Y111.671 E15.6365
G1 X80.363 Y111.303 E15.66624
G1 X79.919 Y110.931 E15.69237
G1 X79.598 Y110.647 E15.71171
G1 X79.247 Y110.283 E15.73452
G1 X78.957 Y109.868 E15.75737
G1 X78.737 Y109.413 E15.78017
G1 X78.591 Y108.929 E15.80298
G1 X78.523 Y108.43 E15.8257
G1 X78.481 Y107.673 E15.8599
G1 X78.466 Y107.255 E15.87877
G1 X78.292 Y104.546 E16.00125
G1 X78.041 Y101.841 E16.12381
G1 X77.543 Y97.923 E16.302
G1 X77.508 Y97.378 E16.32664
G1 X77.504 Y96.959 E16.34555
G1 X77.503 Y83.166 E16.96784
G1 X77.513 Y82.457 E16.99983
G1 X77.56 Y81.953 E17.02267
G1 X77.666 Y81.523 E17.04265
G1 X78.507 Y78.908 E17.16658
G1 X79.276 Y76.263 E17.29086
G1 X79.966 Y73.608 E17.41462
G1 X80.195 Y72.612 E17.46073
G1 X80.404 Y71.761 E17.50026
G1 X80.563 Y71.281 E17.52308
G1 X80.796 Y70.832 E17.5459
G1 X81.096 Y70.425 E17.56871
G1 F2400 E16.36871
;MESH:clip.stl(2)
G0 F3000 X86.359 Y73.099
;TYPE:WALL-INNER
G1 F2400 E17.56871
G1 F1500 X89.408 Y73.099 E17.70627
G1 X90.008 Y72.299 E17.75139
G1 X90.608 Y73.099 E17.79651
G1 X93.657 Y73.099 E17.93407
G1 X94.256 Y72.499 E17.97232
G1 X95.586 Y72.499 E18.03232
G1 X95.907 Y72.774 E18.05139
G1 X95.536 Y73.199 E18.07685
G1 X93.657 Y73.199 E18.16162
G1 X90.693 Y73.199 E18.19897
G1 X90.401 Y75.099 E18.2857
G1 X90.693 Y76.999 E18.37242
G1 X93.657 Y76.999 E18.50615
G1 X95.534 Y76.999 E18.59083
G1 X95.907 Y77.424 E18.61635
G1 X95.586 Y77.699 E18.63542
G1 X94.256 Y77.699 E18.69542
G1 X93.657 Y77.099 E18.73367
G1 X90.608 Y77.099 E18.76959
G1 X90.008 Y77.899 E18.8147
G1 X89.408 Y77.099 E18.85982
G1 X86.359 Y77.099 E18.99738
G1 X85.76 Y77.699 E19.03563
G1 X84.43 Y77.699 E19.09564
G1 X84.109 Y77.424 E19.11471
G1 X84.482 Y76.999 E19.14022
G1 X86.359 Y76.999 E19.2249
G1 X89.323 Y76.999 E19.26225
G1 X89.615 Y75.099 E19.34898
G1 X89.323 Y73.199 E19.43571
G1 X86.359 Y73.199 E19.47306
G1 X84.48 Y73.199 E19.55783
G1 X84.109 Y72.774 E19.58328
G1 X84.43 Y72.499 E19.60235
G1 X85.76 Y72.499 E19.66236
G1 X86.359 Y73.099 E19.70061
G0 F3000 X86.525 Y72.699
;TYPE:WALL-OUTER
G1 F1500 X89.208 Y72.699 E19.82166
G1 X89.808 Y71.899 E19.86677
G1 X90.208 Y71.899 E19.88482
G1 X90.808 Y72.699 E19.92994
G1 X93.491 Y72.699 E20.05099
G1 X94.09 Y72.099 E20.08924
G1 X95.734 Y72.099 E20.16341
G1 X96.308 Y72.591 E20.19752
G1 X96.308 Y72.923 E20.2125
G1 X95.717 Y73.599 E20.25301
G1 X91.036 Y73.599 E20.4642
G1 X90.806 Y75.099 E20.53266
G1 X91.036 Y76.599 E20.60113
G1 X95.716 Y76.599 E20.81228
G1 X96.308 Y77.275 E20.85282
G1 X96.308 Y77.607 E20.8678
G1 X95.734 Y78.099 E20.9019
G1 X94.09 Y78.099 E20.97608
G1 X93.491 Y77.499 E21.01433
G1 X90.808 Y77.499 E21.13537
G1 X90.208 Y78.299 E21.18049
G1 X89.808 Y78.299 E21.19854
G1 X89.208 Y77.499 E21.24365
G1 X86.525 Y77.499 E21.3647
G1 X85.926 Y78.099 E21.40295
G1 X84.282 Y78.099 E21.47713
G1 X83.708 Y77.607 E21.51123
G1 X83.708 Y77.275 E21.52621
G1 X84.3 Y76.599 E21.56675
G1 X88.98 Y76.599 E21.7779
G1 X89.21 Y75.099 E21.84637
G1 X88.98 Y73.599 E21.91483
G1 X84.299 Y73.599 E22.12602
G1 X83.708 Y72.923 E22.16653
G1 X83.708 Y72.591 E22.18151
G1 X84.282 Y72.099 E22.21562
G1 X85.926 Y72.099 E22.28979
G1 X86.525 Y72.699 E22.32804
G0 F3000 X86.725 Y72.699
G0 X86.725 Y73.139
G1 F2400 E21.12804
G0 F3000 X85.463 Y73.018
;TYPE:SKIN
G1 F2400 E22.32804
G1 F1500 X85.124 Y72.679 E22.35009
G0 F3000 X84.898 Y73.018
G1 F1500 X84.558 Y72.679 E22.37216
G1 F2400 E21.17216
G0 F3000 X89.735 Y73.312
G1 F2400 E22.37216
G1 F1500 X90.008 Y72.948 E22.39308
G1 X90.281 Y73.312 E22.414
G1 X90.008 Y75.092 E22.4968
G1 X89.735 Y73.312 E22.5796
G1 F2400 E21.3796
G0 F3000 X90.008 Y75.106
G1 F2400 E22.5796
G1 F1500 X90.281 Y76.886 E22.6624
G1 X90.008 Y77.25 E22.68332
G1 X89.735 Y76.886 E22.70424
G1 X90.008 Y75.106 E22.78704
G1 F2400 E21.58704
G0 F3000 X90.047 Y73.642
G1 F2400 E22.78704
G1 F1500 X89.953 Y73.548 E22.79315
G1 F2400 E21.59315
G0 F3000 X94.252 Y72.756
G1 F2400 E22.79315
G1 F1500 X94.514 Y73.018 E22.81019
G0 F3000 X94.74 Y72.678
G1 F1500 X95.08 Y73.018 E22.8323
G0 F3000 X95.305 Y72.678
G1 F1500 X95.542 Y72.915 E22.84771
G1 F2400 E21.64771
G0 F3000 X95.281 Y77.179
G1 F2400 E22.84771
G1 F1500 X95.573 Y77.471 E22.8667
G0 F3000 X95.055 Y77.519
G1 F1500 X94.715 Y77.179 E22.8888
G0 F3000 X94.489 Y77.519
G1 F1500 X94.149 Y77.179 E22.91091
G1 F2400 E21.71091
G0 F3000 X85.844 Y77.358
G1 F2400 E22.91091
G1 F1500 X85.664 Y77.179 E22.92258
G0 F3000 X85.438 Y77.518
G1 F1500 X85.098 Y77.179 E22.94466
G0 F3000 X84.872 Y77.518
G1 F1500 X84.548 Y77.194 E22.96573
G1 F2400 E21.76573
;MESH:cube_1x1.stl
G0 F3000 X85.205 Y85.6
;TYPE:WALL-INNER
G1 F2400 E22.96573
G1 F1500 X83.954 Y86.851 E23.04555
G1 X83.954 Y93.149 E23.32969
G1 X85.205 Y94.4 E23.40951
G1 X91.503 Y94.4 E23.69366
G1 X92.754 Y93.149 E23.77348
G1 X92.754 Y86.851 E24.05762
G1 X91.503 Y85.6 E24.13744
G1 X85.205 Y85.6 E24.42159
G0 F3000 X85.371 Y86
;TYPE:WALL-OUTER
G1 F1500 X84.354 Y87.017 E24.48647
G1 X84.354 Y92.983 E24.75564
G1 X85.371 Y94 E24.82053
G1 X91.337 Y94 E25.0897
G1 X92.354 Y92.983 E25.15459
G1 X92.354 Y87.017 E25.42375
G1 X91.337 Y86 E25.48864
G1 X85.371 Y86 E25.75781
G0 F3000 X85.23 Y86.141
G0 X84.919 Y85.83
G1 F2400 E24.55781
G0 F3000 X81.303 Y82.95
;TYPE:WALL-INNER
G1 F2400 E25.75781
G1 F1500 X95.404 Y82.949 E26.394
G1 X95.405 Y97.05 E27.03019
G1 X81.304 Y97.051 E27.66638
G1 X81.303 Y82.95 E28.30257
G0 F3000 X80.937 Y82.55
;TYPE:WALL-OUTER
G1 F1500 X95.771 Y82.549 E28.97183
G1 X95.804 Y82.583 E28.97397
G1 X95.805 Y97.417 E29.64323
G1 X95.771 Y97.45 E29.64537
G1 X80.937 Y97.451 E30.31463
G1 X80.904 Y97.417 E30.31677
G1 X80.903 Y82.583 E30.98603
G1 X80.937 Y82.55 E30.98817
G0 F3000 X81.137 Y82.55
G0 X81.344 Y82.991
G0 X81.693 Y83.34
;TYPE:SKIN
G1 F1500 X95.014 Y83.339 E31.60065
G1 X95.015 Y96.66 E32.21313
G1 X81.694 Y96.661 E32.82562
G1 X81.693 Y83.34 E33.4381
G1 F2400 E32.2381
G0 F3000 X83.564 Y86.689
G1 F2400 E33.4381
G1 F1500 X83.564 Y93.311 E33.74257
G1 X85.043 Y94.79 E33.83874
G1 X91.665 Y94.79 E34.14321
G1 X93.144 Y93.311 E34.23939
G1 X93.144 Y86.689 E34.54386
G1 X91.665 Y85.21 E34.64003
G1 X85.043 Y85.21 E34.9445
G1 X83.564 Y86.689 E35.04067
G1 F2400 E33.84067
G0 F3000 X82.337 Y96.479
G1 F2400 E35.04067
G1 F1500 X81.873 Y96.015 E35.07084
G0 F3000 X81.873 Y95.45
G1 F1500 X82.903 Y96.479 E35.13778
G0 F3000 X83.469 Y96.479
G1 F1500 X81.873 Y94.884 E35.24153
G0 F3000 X81.873 Y94.318
G1 F1500 X84.034 Y96.479 E35.38204
G0 F3000 X84.6 Y96.479
G1 F1500 X81.873 Y93.753 E35.55933
G0 F3000 X81.873 Y93.187
G1 F1500 X85.166 Y96.479 E35.77342
G0 F3000 X85.731 Y96.479
G1 F1500 X81.873 Y92.621 E36.02429
G0 F3000 X81.873 Y92.056
G1 F1500 X86.297 Y96.479 E36.31192
G0 F3000 X86.863 Y96.479
G1 F1500 X85.352 Y94.969 E36.41014
G0 F3000 X85.918 Y94.969
G1 F1500 X87.428 Y96.479 E36.50832
G0 F3000 X87.994 Y96.479
