;FLAVOR:Marlin
;TIME:4464
;Filament used: 7.41326m
;Layer height: 0.3
;MINX:48.349
;MINY:55.492
;MINZ:0.3
;MAXX:134.515
;MAXY:123.255
;MAXZ:20.1
;Generated with Cura_SteamEngine 4.12.1
M82 ;absolute extrusion mode
G21 ;metric values
G90 ;absolute positioning
M82 ;set extruder to absolute mode
M107 ;start with the fan off

M104 S200 T0 ; start heating T0 to what is set in Cura
M140 S60 ; start heating the bed to what is set in Cura
M190 S60 ; start heating the bed to what is set in Cura
M109 S200 T0 ; start heating T0 to what is set in Cura

G28 X0 Y0 ;move X/Y to min endstops
G28 Z0 ;move Z to min endstops
G1 Z15.0 F2400 ;move the platform down 15mm
G92 E0 ;zero the extruded length
G1 F200 E3 ;extrude 3mm of feed stock
G92 E0 ;zero the extruded length again
G1 F2400
G0 Y20 F2400
M117 Printing...
G5
G92 E0
G92 E0
G1 F2400 E-1.2
;LAYER_COUNT:67
;LAYER:0
M107
G0 F3000 X49.666 Y56.684 Z0.3
;TYPE:SKIRT
G1 F2400 E0
G1 F1500 X50.092 Y56.312 E0.02552
G1 X50.566 Y56.004 E0.05102
G1 X51.078 Y55.766 E0.07649
G1 X51.619 Y55.602 E0.102
G1 X52.366 Y55.505 E0.13598
G1 X52.961 Y55.493 E0.16283
G1 X126.856 Y55.492 E3.49673
G1 X127.559 Y55.503 E3.52845
G1 X128.122 Y55.552 E3.55395
G1 X128.673 Y55.68 E3.57947
G1 X129.2 Y55.884 E3.60497
G1 X129.693 Y56.16 E3.63046
G1 X130.315 Y56.665 E3.66661
G1 X130.459 Y56.808 E3.67576
G1 X130.831 Y57.233 E3.70124
G1 X131.139 Y57.707 E3.72675
G1 X131.377 Y58.22 E3.75226
G1 X131.541 Y58.761 E3.77777
G1 X131.638 Y59.517 E3.81215
G1 X131.65 Y60.028 E3.83522
G1 X131.65 Y60.238 E3.84469
G1 X131.69 Y63.038 E3.97103
G1 X131.803 Y65.709 E4.09164
G1 X131.997 Y68.448 E4.21553
G1 X132.261 Y71.104 E4.33595
G1 X132.613 Y73.856 E4.46112
G1 X133.025 Y76.477 E4.58082
G1 X133.528 Y79.185 E4.70509
G1 X134.093 Y81.813 E4.82637
G1 X134.221 Y82.384 E4.85277
G1 X134.314 Y83.182 E4.88901
G1 X134.323 Y83.79 E4.91645
G1 X134.4 Y86.505 E5.03899
G1 X134.511 Y88.57 E5.13229
G1 X134.515 Y89.409 E5.17014
G1 X134.482 Y90.202 E5.20595
G1 X134.4 Y91.655 E5.27161
G1 X134.322 Y94.404 E5.39569
G1 X134.315 Y94.9 E5.41807
G1 X134.267 Y95.464 E5.4436
G1 X134.14 Y96.015 E5.46911
G1 X133.937 Y96.542 E5.49459
G1 X133.661 Y97.036 E5.52012
G1 X133.08 Y97.776 E5.56257
G1 X132.706 Y98.2 E5.58808
G1 X132.343 Y98.567 E5.61137
G1 X130.494 Y100.289 E5.72536
G1 X128.567 Y102.185 E5.84733
G1 X126.676 Y104.156 E5.97056
G1 X124.867 Y106.15 E6.09203
G1 X123.101 Y108.213 E6.21455
G1 X121.38 Y110.34 E6.33799
G1 X119.749 Y112.48 E6.45939
G1 X118.154 Y114.698 E6.58265
G1 X116.628 Y116.952 E6.70545
G1 X115.193 Y119.206 E6.82601
G1 X114.368 Y120.587 E6.89858
G1 X113.991 Y121.198 E6.93097
G1 X113.661 Y121.657 E6.95648
G1 X113.269 Y122.072 E6.98224
G1 X112.842 Y122.443 E7.00776
G1 X112.367 Y122.75 E7.03327
G1 X111.854 Y122.986 E7.05875
G1 X111.312 Y123.148 E7.08427
G1 X110.579 Y123.242 E7.11761
G1 X109.983 Y123.254 E7.14451
G1 X93.094 Y123.255 E7.90648
G1 X92.378 Y123.244 E7.93879
G1 X91.82 Y123.196 E7.96406
G1 X90.756 Y123.029 E8.01265
G1 X90.528 Y122.989 E8.0231
G1 X87.87 Y122.603 E8.14427
G1 X85.187 Y122.29 E8.26614
G1 X82.46 Y122.051 E8.38965
G1 X79.748 Y121.89 E8.51222
G1 X77.04 Y121.806 E8.63445
G1 X75.376 Y121.792 E8.70953
G1 X65.151 Y121.793 E9.17085
G1 X64.448 Y121.783 E9.20257
G1 X63.885 Y121.735 E9.22806
G1 X63.334 Y121.608 E9.25357
G1 X62.806 Y121.404 E9.27911
G1 X62.313 Y121.129 E9.30458
G1 X61.677 Y120.611 E9.34159
G1 X61.532 Y120.466 E9.35084
G1 X61.161 Y120.039 E9.37636
G1 X60.854 Y119.564 E9.40188
G1 X60.618 Y119.051 E9.42735
G1 X60.456 Y118.509 E9.45288
G1 X60.367 Y117.881 E9.48149
G1 X60.283 Y116.503 E9.54378
G1 X60.079 Y113.792 E9.66644
G1 X59.798 Y111.075 E9.78967
G1 X59.447 Y108.425 E9.91027
G1 X59.012 Y105.728 E10.03353
G1 X58.499 Y103.028 E10.15752
G1 X57.929 Y100.439 E10.27713
G1 X57.264 Y97.771 E10.40118
G1 X56.536 Y95.171 E10.523
G1 X55.721 Y92.549 E10.64687
G1 X54.845 Y89.99 E10.7689
G1 X53.893 Y87.441 E10.89167
G1 X52.88 Y84.95 E11.01299
G1 X51.774 Y82.435 E11.13695
G1 X50.619 Y80 E11.25854
G1 X49.385 Y77.575 E11.3813
G1 X48.821 Y76.505 E11.43587
G1 X48.594 Y75.988 E11.46134
G1 X48.441 Y75.443 E11.48688
G1 X48.362 Y74.768 E11.51754
G1 X48.35 Y74.183 E11.54394
G1 X48.349 Y60.275 E12.17142
G1 X48.359 Y59.591 E12.20229
G1 X48.408 Y59.027 E12.22783
G1 X48.535 Y58.476 E12.25334
G1 X48.738 Y57.949 E12.27882
G1 X49.014 Y57.455 E12.30435
G1 X49.521 Y56.83 E12.34066
G1 X49.666 Y56.684 E12.34994
G0 F3000 X49.95 Y56.966
G1 F1500 X50.355 Y56.615 E12.37412
G1 X50.808 Y56.328 E12.39832
G1 X51.298 Y56.111 E12.42249
G1 X51.816 Y55.969 E12.44673
G1 X52.379 Y55.905 E12.47229
G1 X52.964 Y55.893 E12.49869
G1 X126.849 Y55.892 E15.83214
G1 X127.552 Y55.903 E15.86386
G1 X128.086 Y55.952 E15.88805
G1 X128.607 Y56.079 E15.91225
G1 X129.104 Y56.282 E15.93647
G1 X129.564 Y56.557 E15.96065
G1 X130.033 Y56.949 E15.98822
G1 X130.177 Y57.092 E15.99738
G1 X130.528 Y57.497 E16.02156
G1 X130.815 Y57.95 E16.04575
G1 X131.032 Y58.44 E16.06993
G1 X131.174 Y58.957 E16.09412
G1 X131.238 Y59.53 E16.12013
G1 X131.25 Y60.034 E16.14288
G1 X131.25 Y60.244 E16.15235
G1 X131.289 Y63.025 E16.27784
G1 X131.405 Y65.754 E16.40107
G1 X131.599 Y68.483 E16.52451
G1 X131.864 Y71.158 E16.64578
G1 X132.214 Y73.898 E16.77041
G1 X132.635 Y76.575 E16.89267
G1 X133.13 Y79.236 E17.01478
G1 X133.703 Y81.904 E17.1379
G1 X133.83 Y82.469 E17.16403
G1 X133.914 Y83.188 E17.19669
G1 X133.922 Y83.746 E17.22186
G1 X134.002 Y86.538 E17.34788
G1 X134.108 Y88.499 E17.43649
G1 X134.121 Y89.008 E17.45946
G1 X134.112 Y89.503 E17.48179
G1 X134.082 Y90.179 E17.51232
G1 X134.002 Y91.585 E17.57586
G1 X133.921 Y94.45 E17.70517
G1 X133.915 Y94.895 E17.72525
G1 X133.867 Y95.429 E17.74944
G1 X133.741 Y95.95 E17.77362
G1 X133.539 Y96.447 E17.79783
G1 X133.265 Y96.908 E17.82202
G1 X132.772 Y97.52 E17.85748
G1 X132.407 Y97.935 E17.88241
G1 X132.07 Y98.274 E17.90398
G1 X130.223 Y99.994 E18.01785
G1 X128.28 Y101.906 E18.14083
G1 X126.392 Y103.874 E18.26388
G1 X124.566 Y105.886 E18.38646
G1 X122.787 Y107.964 E18.50988
G1 X121.067 Y110.091 E18.63329
G1 X119.435 Y112.233 E18.75478
G1 X117.831 Y114.463 E18.87872
G1 X116.293 Y116.734 E19.00246
G1 X114.839 Y119.017 E19.12458
G1 X114.028 Y120.377 E19.19602
G1 X113.651 Y120.988 E19.22841
G1 X113.336 Y121.423 E19.25264
G1 X112.987 Y121.79 E19.27549
G1 X112.58 Y122.139 E19.29968
G1 X112.126 Y122.425 E19.32389
G1 X111.635 Y122.64 E19.34807
G1 X111.117 Y122.78 E19.37228
G1 X110.566 Y122.842 E19.3973
G1 X109.98 Y122.854 E19.42374
G1 X93.1 Y122.855 E20.18531
G1 X92.384 Y122.844 E20.21762
G1 X91.882 Y122.801 E20.24035
G1 X90.824 Y122.634 E20.28867
G1 X90.646 Y122.603 E20.29683
G1 X87.907 Y122.205 E20.4217
G1 X85.197 Y121.889 E20.54479
G1 X82.518 Y121.654 E20.66613
G1 X79.75 Y121.49 E20.79123
G1 X77.055 Y121.406 E20.91288
G1 X75.379 Y121.392 E20.98849
G1 X65.157 Y121.393 E21.44968
G1 X64.454 Y121.383 E21.4814
G1 X63.92 Y121.335 E21.50559
G1 X63.398 Y121.209 E21.52981
G1 X62.902 Y121.006 E21.55399
G1 X62.441 Y120.732 E21.57819
G1 X61.959 Y120.329 E21.60653
G1 X61.814 Y120.184 E21.61579
G1 X61.465 Y119.777 E21.63998
G1 X61.179 Y119.323 E21.66418
G1 X60.964 Y118.832 E21.68837
G1 X60.824 Y118.314 E21.71258
G1 X60.767 Y117.857 E21.73335
G1 X60.686 Y116.53 E21.79334
G1 X60.478 Y113.758 E21.91875
G1 X60.197 Y111.048 E22.04167
G1 X59.84 Y108.346 E22.16464
G1 X59.406 Y105.66 E22.28739
G1 X58.895 Y102.972 E22.41084
G1 X58.313 Y100.328 E22.53298
G1 X57.651 Y97.672 E22.65648
G1 X56.917 Y95.049 E22.77937
G1 X56.098 Y92.417 E22.90373
G1 X55.223 Y89.857 E23.02579
G1 X54.274 Y87.317 E23.14812
G1 X53.233 Y84.757 E23.2728
G1 X52.157 Y82.31 E23.39341
G1 X50.965 Y79.797 E23.51889
G1 X49.739 Y77.389 E23.6408
G1 X49.175 Y76.319 E23.69538
G1 X48.961 Y75.827 E23.71958
G1 X48.823 Y75.309 E23.74377
G1 X48.762 Y74.756 E23.76887
G1 X48.75 Y74.18 E23.79486
G1 X48.749 Y60.28 E24.42198
G1 X48.759 Y59.596 E24.45285
G1 X48.807 Y59.062 E24.47704
G1 X48.934 Y58.541 E24.50123
G1 X49.136 Y58.045 E24.52539
G1 X49.41 Y57.584 E24.54959
G1 X49.805 Y57.112 E24.57736
G1 X49.95 Y56.966 E24.58664
G0 F3000 X50.233 Y57.248
G1 F1500 X50.617 Y56.919 E24.60945
G1 X51.048 Y56.654 E24.63228
G1 X51.515 Y56.46 E24.6551
G1 X52.006 Y56.342 E24.67788
G1 X52.624 Y56.297 E24.70583
G1 X52.992 Y56.293 E24.72244
G1 X126.843 Y56.292 E28.05435
G1 X127.546 Y56.303 E28.08607
G1 X128.049 Y56.351 E28.10887
G1 X128.539 Y56.478 E28.13171
G1 X129.002 Y56.68 E28.1545
G1 X129.428 Y56.952 E28.1773
G1 X129.895 Y57.375 E28.20573
G1 X130.224 Y57.759 E28.22854
G1 X130.489 Y58.189 E28.25133
G1 X130.683 Y58.656 E28.27415
G1 X130.801 Y59.148 E28.29697
G1 X130.845 Y59.76 E28.32466
G1 X130.89 Y63.048 E28.47301
G1 X131.005 Y65.765 E28.59571
G1 X131.2 Y68.511 E28.71991
G1 X131.468 Y71.215 E28.8425
G1 X131.816 Y73.939 E28.9664
G1 X132.241 Y76.639 E29.08971
G1 X132.739 Y79.322 E29.21283
G1 X133.313 Y81.994 E29.33613
G1 X133.44 Y82.555 E29.36208
G1 X133.514 Y83.194 E29.3911
G1 X133.522 Y83.757 E29.41651
G1 X133.603 Y86.57 E29.54347
G1 X133.711 Y88.595 E29.63496
G1 X133.715 Y89.397 E29.67115
G1 X133.683 Y90.156 E29.70542
G1 X133.602 Y91.585 E29.77
G1 X133.521 Y94.439 E29.89881
G1 X133.515 Y94.889 E29.91912
G1 X133.468 Y95.393 E29.94195
G1 X133.342 Y95.882 E29.96474
G1 X133.141 Y96.346 E29.98755
G1 X132.775 Y96.89 E30.01713
G1 X132.4 Y97.339 E30.04353
G1 X131.924 Y97.86 E30.07537
G1 X131.797 Y97.981 E30.08328
G1 X129.971 Y99.681 E30.19584
G1 X127.976 Y101.644 E30.32211
G1 X126.107 Y103.592 E30.44391
G1 X124.264 Y105.623 E30.56764
G1 X122.488 Y107.698 E30.69087
G1 X120.754 Y109.843 E30.81531
G1 X119.095 Y112.02 E30.9388
G1 X117.507 Y114.227 E31.06147
G1 X115.968 Y116.5 E31.18531
G1 X114.491 Y118.819 E31.30936
G1 X113.687 Y120.167 E31.38017
G1 X113.31 Y120.778 E31.41256
G1 X112.85 Y121.361 E31.44607
G1 X112.704 Y121.507 E31.45538
G1 X112.319 Y121.835 E31.4782
G1 X111.888 Y122.098 E31.50098
G1 X111.42 Y122.291 E31.52382
G1 X110.928 Y122.407 E31.54663
G1 X110.321 Y122.45 E31.57408
G1 X109.952 Y122.454 E31.59073
G1 X93.106 Y122.455 E32.35077
G1 X92.39 Y122.444 E32.38308
G1 X91.944 Y122.405 E32.40327
G1 X90.893 Y122.24 E32.45127
G1 X90.701 Y122.207 E32.46006
G1 X87.979 Y121.811 E32.58416
G1 X85.245 Y121.492 E32.70835
G1 X82.502 Y121.252 E32.83258
G1 X79.787 Y121.091 E32.95528
G1 X77.07 Y121.006 E33.07793
G1 X75.383 Y120.992 E33.15404
G1 X65.162 Y120.993 E33.61518
G1 X64.459 Y120.983 E33.6469
G1 X63.956 Y120.936 E33.66969
G1 X63.466 Y120.81 E33.69252
G1 X63.003 Y120.608 E33.71531
G1 X62.576 Y120.337 E33.73813
G1 X62.097 Y119.901 E33.76735
G1 X61.769 Y119.516 E33.79017
G1 X61.506 Y119.085 E33.81295
G1 X61.313 Y118.617 E33.83579
G1 X61.197 Y118.125 E33.85859
G1 X61.166 Y117.833 E33.87184
G1 X61.084 Y116.482 E33.93291
G1 X60.876 Y113.723 E34.05774
G1 X60.594 Y110.991 E34.18165
G1 X60.237 Y108.296 E34.3043
G1 X59.8 Y105.592 E34.42788
G1 X59.284 Y102.877 E34.55256
G1 X58.706 Y100.25 E34.67392
G1 X58.038 Y97.572 E34.79844
G1 X57.298 Y94.928 E34.92232
G1 X56.483 Y92.305 E35.04624
G1 X55.604 Y89.735 E35.16878
G1 X54.636 Y87.145 E35.29353
G1 X53.606 Y84.612 E35.4169
G1 X52.507 Y82.114 E35.54002
G1 X51.34 Y79.652 E35.66295
G1 X50.093 Y77.202 E35.78698
G1 X49.529 Y76.132 E35.84155
G1 X49.33 Y75.668 E35.86433
G1 X49.205 Y75.178 E35.88714
G1 X49.154 Y74.494 E35.91809
G1 X49.15 Y74.15 E35.93361
G1 X49.149 Y60.286 E36.55911
G1 X49.159 Y59.602 E36.58997
G1 X49.207 Y59.099 E36.61277
G1 X49.333 Y58.609 E36.63559
G1 X49.534 Y58.146 E36.65837
G1 X49.806 Y57.719 E36.68121
G1 X50.233 Y57.248 E36.70989
G1 F2400 E35.50989
;MESH:cube_4x1.stl
G0 F3000 X56.851 Y62.743
;TYPE:WALL-INNER
G1 F2400 E36.70989
G1 F1500 X55.6 Y63.994 E36.78971
G1 X55.6 Y70.292 E37.07386
G1 X56.851 Y71.543 E37.15367
G1 X63.149 Y71.543 E37.43782
G1 X64.4 Y70.292 E37.51764
G1 X64.4 Y63.994 E37.80178
G1 X63.149 Y62.743 E37.8816
G1 X56.851 Y62.743 E38.16575
G0 F3000 X57.017 Y63.143
;TYPE:WALL-OUTER
G1 F1500 X56 Y64.16 E38.23064
G1 X56 Y70.126 E38.4998
G1 X57.017 Y71.143 E38.56469
G1 X62.983 Y71.143 E38.83386
G1 X64 Y70.126 E38.89875
G1 X64 Y64.16 E39.16792
G1 X62.983 Y63.143 E39.23281
G1 X57.017 Y63.143 E39.50197
G0 F3000 X56.876 Y63.284
G0 X56.565 Y62.973
G1 F2400 E38.30197
G0 F3000 X65.6 Y63.994
;TYPE:WALL-INNER
G1 F2400 E39.50197
G1 F1500 X65.6 Y70.292 E39.78612
G1 X66.851 Y71.543 E39.86594
G1 X73.149 Y71.543 E40.15008
G1 X74.4 Y70.292 E40.2299
G1 X74.4 Y63.994 E40.51405
G1 X73.149 Y62.743 E40.59387
G1 X66.851 Y62.743 E40.87801
G1 X65.6 Y63.994 E40.95783
G0 F3000 X66 Y64.16
;TYPE:WALL-OUTER
G1 F1500 X66 Y70.126 E41.227
G1 X67.017 Y71.143 E41.29189
G1 X72.983 Y71.143 E41.56105
G1 X74 Y70.126 E41.62594
G1 X74 Y64.16 E41.89511
G1 X72.983 Y63.143 E41.96
G1 X67.017 Y63.143 E42.22916
G1 X66 Y64.16 E42.29405
G0 F3000 X66 Y64.36
G0 X65.56 Y64.36
G1 F2400 E41.09405
G0 F3000 X75.6 Y63.994
;TYPE:WALL-INNER
G1 F2400 E42.29405
G1 F1500 X75.6 Y70.292 E42.5782
G1 X76.851 Y71.543 E42.65802
G1 X83.149 Y71.543 E42.94216
G1 X84.4 Y70.292 E43.02198
G1 X84.4 Y63.994 E43.30613
G1 X83.149 Y62.743 E43.38595
G1 X76.851 Y62.743 E43.67009
G1 X75.6 Y63.994 E43.74991
G0 F3000 X76 Y64.16
;TYPE:WALL-OUTER
G1 F1500 X76 Y70.126 E44.01908
G1 X77.017 Y71.143 E44.08397
G1 X82.983 Y71.143 E44.35313
G1 X84 Y70.126 E44.41802
G1 X84 Y64.16 E44.68719
G1 X82.983 Y63.143 E44.75208
G1 X77.017 Y63.143 E45.02124
G1 X76 Y64.16 E45.08613
G0 F3000 X76 Y64.36
G0 X75.56 Y64.36
G1 F2400 E43.88613
G0 F3000 X85.6 Y63.994
;TYPE:WALL-INNER
G1 F2400 E45.08613
G1 F1500 X85.6 Y70.292 E45.37028
G1 X86.851 Y71.543 E45.4501
G1 X93.149 Y71.543 E45.73424
G1 X94.4 Y70.292 E45.81406
G1 X94.4 Y63.994 E46.09821
G1 X93.149 Y62.743 E46.17803
G1 X86.851 Y62.743 E46.46217
G1 X85.6 Y63.994 E46.54199
G0 F3000 X86 Y64.16
;TYPE:WALL-OUTER
G1 F1500 X86 Y70.126 E46.81116
G1 X87.017 Y71.143 E46.87605
G1 X92.983 Y71.143 E47.14521
G1 X94 Y70.126 E47.2101
G1 X94 Y64.16 E47.47927
G1 X92.983 Y63.143 E47.54416
G1 X87.017 Y63.143 E47.81333
G1 X86 Y64.16 E47.87821
G0 F3000 X86 Y64.36
G0 X85.56 Y64.36
G1 F2400 E46.67821
G0 F3000 X95.6 Y63.994
;TYPE:WALL-INNER
G1 F2400 E47.87821
G1 F1500 X95.6 Y70.292 E48.16236
G1 X96.851 Y71.543 E48.24218
G1 X103.149 Y71.543 E48.52632
G1 X104.4 Y70.292 E48.60614
G1 X104.4 Y63.994 E48.89029
G1 X103.149 Y62.743 E48.97011
G1 X96.851 Y62.743 E49.25425
G1 X95.6 Y63.994 E49.33407
G0 F3000 X96 Y64.16
;TYPE:WALL-OUTER
G1 F1500 X96 Y70.126 E49.60324
G1 X97.017 Y71.143 E49.66813
G1 X102.983 Y71.143 E49.9373
G1 X104 Y70.126 E50.00218
G1 X104 Y64.16 E50.27135
G1 X102.983 Y63.143 E50.33624
G1 X97.017 Y63.143 E50.60541
G1 X96 Y64.16 E50.6703
G0 F3000 X96 Y64.36
G0 X95.56 Y64.36
G1 F2400 E49.4703
G0 F3000 X105.6 Y63.994
;TYPE:WALL-INNER
G1 F2400 E50.6703
G1 F1500 X105.6 Y70.292 E50.95444
G1 X106.851 Y71.543 E51.03426
G1 X113.149 Y71.543 E51.31841
G1 X114.4 Y70.292 E51.39823
G1 X114.4 Y63.994 E51.68237
G1 X113.149 Y62.743 E51.76219
G1 X106.851 Y62.743 E52.04634
G1 X105.6 Y63.994 E52.12615
G0 F3000 X106 Y64.16
;TYPE:WALL-OUTER
G1 F1500 X106 Y70.126 E52.39532
G1 X107.017 Y71.143 E52.46021
G1 X112.983 Y71.143 E52.72938
G1 X114 Y70.126 E52.79427
G1 X114 Y64.16 E53.06343
G1 X112.983 Y63.143 E53.12832
G1 X107.017 Y63.143 E53.39749
G1 X106 Y64.16 E53.46238
G0 F3000 X106 Y64.36
G0 X105.56 Y64.36
G1 F2400 E52.26238
G0 F3000 X115.6 Y63.994
;TYPE:WALL-INNER
G1 F2400 E53.46238
G1 F1500 X115.6 Y70.292 E53.74652
G1 X116.851 Y71.543 E53.82634
G1 X123.149 Y71.543 E54.11049
G1 X124.4 Y70.292 E54.19031
G1 X124.4 Y63.994 E54.47445
G1 X123.149 Y62.743 E54.55427
G1 X116.851 Y62.743 E54.83842
G1 X115.6 Y63.994 E54.91824
G0 F3000 X116 Y64.16
;TYPE:WALL-OUTER
G1 F1500 X116 Y70.126 E55.1874
G1 X117.017 Y71.143 E55.25229
G1 X122.983 Y71.143 E55.52146
G1 X124 Y70.126 E55.58635
G1 X124 Y64.16 E55.85551
G1 X122.983 Y63.143 E55.9204
G1 X117.017 Y63.143 E56.18957
G1 X116 Y64.16 E56.25446
G0 F3000 X116 Y64.36
G0 X115.56 Y64.36
G1 F2400 E55.05446
G0 F3000 X127.05 Y60.092
;TYPE:WALL-INNER
G1 F2400 E56.25446
G1 F1500 X127.051 Y74.193 E56.89065
G1 X52.95 Y74.194 E60.23384
G1 X52.949 Y60.093 E60.87003
G1 X127.05 Y60.092 E64.21323
G0 F3000 X127.417 Y59.692
;TYPE:WALL-OUTER
G1 F1500 X127.45 Y59.726 E64.21536
G1 X127.451 Y74.56 E64.88462
G1 X127.417 Y74.593 E64.88676
G1 X52.583 Y74.594 E68.26303
