;FLAVOR:Marlin
;TIME:5764
;Filament used: 9.716m
;Layer height: 0.3
;MINX:33.21
;MINY:33.453
;MINZ:0.3
;MAXX:146.79
;MAXY:146.548
;MAXZ:20.1
;Generated with Cura_SteamEngine 4.12.1
M82 ;absolute extrusion mode
G21 ;metric values
G90 ;absolute positioning
M82 ;set extruder to absolute mode
M107 ;start with the fan off

M104 S200 T0 ; start heating T0 to what is set in Cura
M140 S60 ; start heating the bed to what is set in Cura
M190 S60 ; start heating the bed to what is set in Cura
M109 S200 T0 ; start heating T0 to what is set in Cura

G28 X0 Y0 ;move X/Y to min endstops
G28 Z0 ;move Z to min endstops
G1 Z15.0 F2400 ;move the platform down 15mm
G92 E0 ;zero the extruded length
G1 F200 E3 ;extrude 3mm of feed stock
G92 E0 ;zero the extruded length again
G1 F2400
G0 Y20 F2400
M117 Printing...
G5
G92 E0
G92 E0
G1 F2400 E-1.2
;LAYER_COUNT:67
;LAYER:0
M107
G0 F3000 X65.714 Y44.246 Z0.3
;TYPE:SKIRT
G1 F2400 E0
G1 F1500 X66.07 Y43.806 E0.02554
G1 X66.326 Y43.555 E0.04171
G1 X66.857 Y43.079 E0.07388
G1 X67.148 Y42.833 E0.09108
G1 X67.703 Y42.446 E0.1216
G1 X68.205 Y42.156 E0.14776
G1 X69.74 Y41.296 E0.22714
G1 X72.097 Y39.886 E0.35106
G1 X74.357 Y38.446 E0.47196
G1 X76.626 Y36.907 E0.59565
G1 X78.817 Y35.331 E0.71742
G1 X79.007 Y35.186 E0.72821
G1 X80.018 Y34.438 E0.78495
G1 X80.495 Y34.135 E0.81044
G1 X81.01 Y33.902 E0.83594
G1 X81.553 Y33.744 E0.86146
G1 X82.337 Y33.654 E0.89706
G1 X82.934 Y33.645 E0.924
G1 X85.649 Y33.568 E1.04654
G1 X87.715 Y33.457 E1.13989
G1 X88.554 Y33.453 E1.17774
G1 X89.347 Y33.486 E1.21355
G1 X90.8 Y33.568 E1.27921
G1 X93.589 Y33.648 E1.40509
G1 X94.056 Y33.655 E1.42616
G1 X94.619 Y33.703 E1.45165
G1 X95.17 Y33.831 E1.47717
G1 X95.848 Y34.111 E1.51027
G1 X96.109 Y34.258 E1.52378
G1 X96.826 Y34.699 E1.56176
G1 X99.182 Y36.103 E1.6855
G1 X101.563 Y37.431 E1.8085
G1 X103.943 Y38.673 E1.92962
G1 X106.394 Y39.866 E2.05261
G1 X108.887 Y40.991 E2.176
G1 X111.39 Y42.038 E2.29841
G1 X111.789 Y42.199 E2.31782
G1 X112.297 Y42.447 E2.34333
G1 X112.842 Y42.827 E2.3733
G1 X113.322 Y43.227 E2.40149
G1 X113.647 Y43.515 E2.42109
G1 X114.042 Y43.919 E2.44658
G1 X114.377 Y44.375 E2.47211
G1 X114.567 Y44.71 E2.48948
G1 X115.737 Y47.033 E2.60683
G1 X117.016 Y49.407 E2.72849
G1 X118.373 Y51.763 E2.85116
G1 X119.809 Y54.1 E2.97491
G1 X121.269 Y56.334 E3.09532
G1 X122.845 Y58.6 E3.21985
G1 X124.437 Y60.757 E3.3408
G1 X126.119 Y62.907 E3.46396
G1 X127.845 Y64.989 E3.58597
G1 X129.641 Y67.033 E3.70873
G1 X131.501 Y69.036 E3.83205
G1 X133.377 Y70.942 E3.95271
G1 X135.343 Y72.831 E4.07572
G1 X137.38 Y74.68 E4.19984
G1 X139.426 Y76.434 E4.32142
G1 X141.523 Y78.132 E4.44316
G1 X143.858 Y79.912 E4.57563
G1 X144.332 Y80.263 E4.60224
G1 X144.935 Y80.813 E4.63906
G1 X145.425 Y81.361 E4.67223
G1 X145.675 Y81.659 E4.68978
G1 X146.003 Y82.119 E4.71527
G1 X146.263 Y82.621 E4.74077
G1 X146.449 Y83.155 E4.76628
G1 X146.558 Y83.71 E4.7918
G1 X146.589 Y84.144 E4.81143
G1 X146.598 Y84.74 E4.83832
G1 X146.675 Y87.455 E4.96087
G1 X146.786 Y89.521 E5.05421
G1 X146.79 Y90.359 E5.09202
G1 X146.757 Y91.153 E5.12787
G1 X146.675 Y92.589 E5.19277
G1 X146.597 Y95.355 E5.31761
G1 X146.59 Y95.852 E5.34003
G1 X146.542 Y96.416 E5.36557
G1 X146.415 Y96.967 E5.39108
G1 X146.212 Y97.494 E5.41656
G1 X145.936 Y97.988 E5.44209
G1 X145.664 Y98.355 E5.4627
G1 X144.831 Y99.355 E5.52142
G1 X144.712 Y99.512 E5.53031
G1 X143.933 Y100.445 E5.58515
G1 X142.243 Y102.589 E5.70831
G1 X140.617 Y104.778 E5.83134
G1 X139.056 Y107.007 E5.95411
G1 X137.586 Y109.236 E6.07458
G1 X136.133 Y111.584 E6.19916
G1 X134.776 Y113.921 E6.32108
G1 X133.478 Y116.309 E6.44371
G1 X132.7 Y117.822 E6.52046
G1 X132.406 Y118.306 E6.54601
G1 X131.97 Y118.822 E6.57649
G1 X131.825 Y118.967 E6.58574
G1 X131.435 Y119.31 E6.60917
G1 X130.423 Y120.088 E6.66677
G1 X128.242 Y121.813 E6.79222
G1 X126.172 Y123.547 E6.91405
G1 X124.134 Y125.355 E7.03697
G1 X122.16 Y127.208 E7.15912
G1 X120.237 Y129.118 E7.2814
G1 X118.364 Y131.089 E7.40407
G1 X116.543 Y133.115 E7.52698
G1 X114.798 Y135.172 E7.64868
G1 X114.12 Y135.988 E7.69654
G1 X113.71 Y136.414 E7.72322
G1 X113.14 Y136.924 E7.75772
G1 X112.833 Y137.181 E7.77579
G1 X112.372 Y137.508 E7.80129
G1 X111.792 Y137.799 E7.83056
G1 X111.365 Y137.972 E7.85135
G1 X108.805 Y139.046 E7.9766
G1 X106.322 Y140.172 E8.09961
G1 X103.912 Y141.347 E8.22057
G1 X101.48 Y142.62 E8.34442
G1 X99.13 Y143.937 E8.46596
G1 X96.734 Y145.369 E8.59189
G1 X96.145 Y145.734 E8.62316
G1 X95.646 Y146 E8.64867
G1 X95.115 Y146.193 E8.67416
G1 X94.562 Y146.31 E8.69966
G1 X94.076 Y146.347 E8.72165
G1 X93.476 Y146.356 E8.74872
G1 X90.761 Y146.433 E8.87126
G1 X88.695 Y146.544 E8.96461
G1 X87.857 Y146.548 E9.00242
G1 X87.063 Y146.515 E9.03827
G1 X85.61 Y146.433 E9.10393
G1 X82.861 Y146.355 E9.22801
G1 X82.365 Y146.348 E9.25039
G1 X81.801 Y146.3 E9.27592
G1 X81.25 Y146.173 E9.30144
G1 X80.723 Y145.97 E9.32691
G1 X80.045 Y145.566 E9.36252
G1 X79.028 Y144.815 E9.41956
G1 X78.75 Y144.604 E9.43531
G1 X76.594 Y143.058 E9.555
G1 X74.3 Y141.509 E9.67988
G1 X72.03 Y140.068 E9.80119
G1 X69.692 Y138.675 E9.92398
G1 X68.193 Y137.836 E10.00148
G1 X67.718 Y137.563 E10.0262
G1 X67.153 Y137.171 E10.05722
G1 X66.679 Y136.774 E10.08512
G1 X66.356 Y136.488 E10.10458
G1 X65.93 Y136.047 E10.13225
G1 X64.196 Y133.958 E10.25473
G1 X62.393 Y131.904 E10.37804
G1 X60.552 Y129.921 E10.50012
G1 X58.624 Y127.962 E10.62413
G1 X56.711 Y126.125 E10.74379
G1 X54.654 Y124.257 E10.86915
G1 X52.618 Y122.51 E10.99019
G1 X50.494 Y120.792 E11.11344
G1 X49.012 Y119.662 E11.19752
G1 X48.533 Y119.285 E11.22502
G1 X48.051 Y118.845 E11.25447
G1 X47.678 Y118.42 E11.27998
G1 X47.324 Y117.866 E11.30964
G1 X46.861 Y116.991 E11.3543
G1 X46.418 Y116.121 E11.39835
G1 X45.11 Y113.726 E11.52147
G1 X43.76 Y111.411 E11.64238
G1 X42.319 Y109.093 E11.76552
G1 X40.823 Y106.832 E11.88783
G1 X39.253 Y104.6 E12.01095
G1 X37.642 Y102.442 E12.13245
G1 X35.942 Y100.293 E12.25608
G1 X35.231 Y99.438 E12.30625
G1 X35.188 Y99.378 E12.30958
G1 X34.337 Y98.356 E12.36958
G1 X34.007 Y97.897 E12.39508
G1 X33.745 Y97.397 E12.42055
G1 X33.556 Y96.864 E12.44607
G1 X33.444 Y96.31 E12.47157
G1 X33.411 Y95.857 E12.49206
G1 X33.402 Y95.26 E12.519
G1 X33.325 Y92.545 E12.64154
G1 X33.214 Y90.479 E12.73488
G1 X33.21 Y89.64 E12.77274
G1 X33.243 Y88.847 E12.80854
G1 X33.325 Y87.394 E12.8742
G1 X33.403 Y84.645 E12.99828
G1 X33.41 Y84.148 E13.0207
G1 X33.458 Y83.584 E13.04624
G1 X33.585 Y83.033 E13.07175
G1 X33.788 Y82.506 E13.09723
G1 X34.064 Y82.012 E13.12276
G1 X34.649 Y81.269 E13.16543
G1 X35.006 Y80.863 E13.18982
G1 X35.409 Y80.467 E13.21531
G1 X35.606 Y80.307 E13.22676
G1 X36.243 Y79.822 E13.26288
G1 X37.229 Y79.095 E13.31815
G1 X39.347 Y77.436 E13.43953
G1 X41.435 Y75.705 E13.5619
G1 X43.48 Y73.908 E13.68472
G1 X45.461 Y72.067 E13.80674
G1 X47.394 Y70.162 E13.92918
G1 X49.293 Y68.188 E14.05276
G1 X51.109 Y66.187 E14.17468
G1 X52.87 Y64.132 E14.29678
G1 X54.594 Y62.004 E14.42034
G1 X56.226 Y59.865 E14.54172
G1 X57.822 Y57.647 E14.66501
G1 X59.331 Y55.418 E14.78645
G1 X60.803 Y53.108 E14.91003
G1 X62.189 Y50.791 E15.03184
G1 X63.529 Y48.397 E15.15562
G1 X64.862 Y45.848 E15.2854
G1 X65.425 Y44.731 E15.34183
G1 X65.714 Y44.246 E15.3673
G0 F3000 X66.058 Y44.452
G1 F1500 X66.593 Y43.852 E15.40357
G1 X67.124 Y43.376 E15.43575
G1 X67.403 Y43.141 E15.4522
G1 X67.903 Y42.792 E15.47971
G1 X68.4 Y42.505 E15.50561
G1 X69.977 Y41.622 E15.58715
G1 X72.27 Y40.249 E15.70773
G1 X74.591 Y38.77 E15.8319
G1 X76.846 Y37.242 E15.95479
G1 X79.064 Y35.646 E16.07808
G1 X79.245 Y35.508 E16.08835
G1 X80.256 Y34.76 E16.14509
G1 X80.71 Y34.474 E16.16929
G1 X81.201 Y34.259 E16.19348
G1 X81.718 Y34.119 E16.21764
G1 X82.343 Y34.054 E16.24599
G1 X82.91 Y34.045 E16.27158
G1 X85.682 Y33.966 E16.39669
G1 X87.644 Y33.86 E16.48534
G1 X88.153 Y33.847 E16.50831
G1 X88.648 Y33.856 E16.53065
G1 X89.324 Y33.886 E16.56118
G1 X90.73 Y33.966 E16.62471
G1 X93.571 Y34.046 E16.75294
G1 X94.05 Y34.054 E16.77456
G1 X94.584 Y34.103 E16.79875
G1 X95.105 Y34.23 E16.82294
G1 X95.662 Y34.465 E16.85022
G1 X95.899 Y34.599 E16.8625
G1 X96.594 Y35.026 E16.8993
G1 X98.989 Y36.453 E17.02508
G1 X101.362 Y37.777 E17.14768
G1 X103.791 Y39.044 E17.27128
G1 X106.232 Y40.232 E17.39376
G1 X108.716 Y41.353 E17.51672
G1 X111.223 Y42.402 E17.63933
G1 X111.639 Y42.57 E17.65957
G1 X112.12 Y42.807 E17.68376
G1 X112.587 Y43.135 E17.70951
G1 X113.057 Y43.527 E17.73712
G1 X113.382 Y43.815 E17.75671
G1 X113.755 Y44.199 E17.78086
G1 X114.068 Y44.635 E17.80508
G1 X114.209 Y44.89 E17.81823
G1 X115.37 Y47.195 E17.93467
G1 X116.676 Y49.618 E18.05885
G1 X118.019 Y51.95 E18.18027
G1 X119.466 Y54.306 E18.30501
G1 X120.949 Y56.575 E18.4273
G1 X122.494 Y58.796 E18.54937
G1 X124.146 Y61.035 E18.6749
G1 X125.798 Y63.146 E18.79584
G1 X127.552 Y65.262 E18.91984
G1 X129.33 Y67.286 E19.04139
G1 X131.206 Y69.305 E19.16573
G1 X133.116 Y71.246 E19.28859
G1 X135.08 Y73.134 E19.4115
G1 X137.097 Y74.964 E19.53438
G1 X139.177 Y76.748 E19.65801
G1 X141.274 Y78.445 E19.77972
G1 X143.625 Y80.238 E19.91311
G1 X144.094 Y80.585 E19.93944
G1 X144.637 Y81.079 E19.97256
G1 X145.127 Y81.627 E20.00572
G1 X145.366 Y81.913 E20.02254
G1 X145.676 Y82.351 E20.04675
G1 X145.917 Y82.83 E20.07094
G1 X146.084 Y83.34 E20.09515
G1 X146.173 Y83.869 E20.11935
G1 X146.189 Y84.15 E20.13205
G1 X146.197 Y84.697 E20.15673
G1 X146.277 Y87.488 E20.28271
G1 X146.383 Y89.45 E20.37135
G1 X146.396 Y89.959 E20.39433
G1 X146.387 Y90.453 E20.41662
G1 X146.357 Y91.13 E20.44719
G1 X146.277 Y92.536 E20.51073
G1 X146.196 Y95.401 E20.64004
G1 X146.19 Y95.847 E20.66016
G1 X146.142 Y96.381 E20.68435
G1 X146.016 Y96.902 E20.70854
G1 X145.814 Y97.399 E20.73274
G1 X145.54 Y97.86 E20.75693
G1 X145.357 Y98.099 E20.77052
G1 X144.471 Y99.163 E20.83298
G1 X144.405 Y99.256 E20.83813
G1 X143.596 Y100.225 E20.89508
G1 X141.94 Y102.326 E21.01578
G1 X140.296 Y104.539 E21.14015
G1 X138.727 Y106.78 E21.26358
G1 X137.229 Y109.051 E21.38632
G1 X135.805 Y111.352 E21.50841
G1 X134.428 Y113.723 E21.63211
G1 X133.12 Y116.129 E21.75566
G1 X132.344 Y117.639 E21.83226
G1 X132.064 Y118.097 E21.85648
G1 X131.688 Y118.54 E21.88269
G1 X131.191 Y118.993 E21.91303
G1 X130.175 Y119.774 E21.97085
G1 X128.003 Y121.491 E22.09577
G1 X125.913 Y123.243 E22.21881
G1 X123.841 Y125.081 E22.34377
G1 X121.887 Y126.915 E22.46468
G1 X119.948 Y128.841 E22.58798
G1 X118.078 Y130.809 E22.71046
G1 X116.24 Y132.854 E22.83451
G1 X114.513 Y134.89 E22.95496
G1 X113.813 Y135.733 E23.0044
G1 X113.443 Y136.116 E23.02843
G1 X112.873 Y136.626 E23.06293
G1 X112.579 Y136.872 E23.08023
G1 X112.141 Y137.181 E23.10441
G1 X111.642 Y137.429 E23.12955
G1 X111.197 Y137.609 E23.15121
G1 X108.622 Y138.689 E23.27719
G1 X106.19 Y139.792 E23.39767
G1 X103.702 Y141.005 E23.52255
G1 X101.306 Y142.26 E23.64458
G1 X98.92 Y143.596 E23.76796
G1 X96.528 Y145.026 E23.89369
G1 X95.932 Y145.395 E23.92532
G1 X95.458 Y145.646 E23.94952
G1 X94.952 Y145.823 E23.9737
G1 X94.425 Y145.924 E23.99791
G1 X94.07 Y145.947 E24.01396
G1 X93.5 Y145.956 E24.03968
G1 X90.728 Y146.035 E24.1648
G1 X88.766 Y146.141 E24.25344
G1 X88.257 Y146.154 E24.27642
G1 X87.763 Y146.145 E24.29871
G1 X87.086 Y146.115 E24.32928
G1 X85.68 Y146.035 E24.39282
G1 X82.835 Y145.955 E24.52123
G1 X82.37 Y145.948 E24.54221
G1 X81.836 Y145.9 E24.5664
G1 X81.315 Y145.774 E24.59058
G1 X80.818 Y145.572 E24.61478
G1 X80.283 Y145.244 E24.6431
G1 X79.27 Y144.496 E24.69991
G1 X79.003 Y144.293 E24.71504
G1 X76.805 Y142.717 E24.83707
G1 X74.532 Y141.183 E24.96079
G1 X72.228 Y139.719 E25.08394
G1 X69.87 Y138.315 E25.20776
G1 X68.392 Y137.489 E25.28415
G1 X67.917 Y137.216 E25.30887
G1 X67.409 Y136.863 E25.33678
G1 X66.944 Y136.474 E25.36413
G1 X66.621 Y136.188 E25.38359
G1 X66.238 Y135.792 E25.40845
G1 X64.489 Y133.684 E25.53203
G1 X62.704 Y131.651 E25.65409
G1 X60.83 Y129.634 E25.7783
G1 X58.921 Y127.693 E25.90113
G1 X56.955 Y125.805 E26.02411
G1 X54.957 Y123.991 E26.14586
G1 X52.846 Y122.181 E26.27132
G1 X50.743 Y120.479 E26.39338
G1 X49.259 Y119.348 E26.47756
G1 X48.78 Y118.971 E26.50506
G1 X48.332 Y118.56 E26.53249
G1 X47.979 Y118.156 E26.5567
G1 X47.677 Y117.679 E26.58217
G1 X47.218 Y116.809 E26.62655
G1 X46.782 Y115.954 E26.66985
G1 X45.463 Y113.538 E26.79404
G1 X44.096 Y111.193 E26.9165
G1 X42.665 Y108.892 E27.03875
G1 X41.151 Y106.603 E27.16257
G1 X39.585 Y104.376 E27.2854
G1 X37.944 Y102.178 E27.40915
G1 X36.259 Y100.049 E27.53165
G1 X35.539 Y99.183 E27.58246
G1 X35.5 Y99.128 E27.5855
G1 X34.644 Y98.1 E27.64586
G1 X34.333 Y97.664 E27.67002
G1 X34.09 Y97.186 E27.69421
G1 X33.92 Y96.677 E27.71842
G1 X33.828 Y96.149 E27.7426
G1 X33.811 Y95.851 E27.75607
G1 X33.802 Y95.254 E27.78301
G1 X33.723 Y92.508 E27.90695
G1 X33.617 Y90.55 E27.99542
G1 X33.604 Y90.041 E28.01839
G1 X33.613 Y89.546 E28.04073
G1 X33.643 Y88.87 E28.07126
G1 X33.723 Y87.464 E28.13479
G1 X33.804 Y84.599 E28.2641
G1 X33.81 Y84.153 E28.28423
G1 X33.858 Y83.619 E28.30842
G1 X33.984 Y83.098 E28.3326
G1 X34.186 Y82.601 E28.3568
G1 X34.46 Y82.14 E28.381
G1 X34.956 Y81.526 E28.41661
G1 X35.306 Y81.128 E28.44052
G1 X35.669 Y80.772 E28.46346
G1 X35.848 Y80.625 E28.47391
G1 X36.481 Y80.144 E28.50978
G1 X37.451 Y79.428 E28.56417
G1 X39.603 Y77.744 E28.68746
G1 X41.708 Y75.998 E28.81085
G1 X43.733 Y74.219 E28.93246
G1 X45.748 Y72.345 E29.05661
G1 X47.681 Y70.442 E29.17899
G1 X49.577 Y68.47 E29.30241
G1 X51.392 Y66.47 E29.42426
G1 X53.186 Y64.377 E29.54863
G1 X54.917 Y62.239 E29.67274
G1 X56.553 Y60.095 E29.79442
G1 X58.156 Y57.866 E29.91829
G1 X59.673 Y55.628 E30.04027
G1 X61.125 Y53.348 E30.16222
G1 X62.547 Y50.97 E30.28723
G1 X63.867 Y48.613 E30.40911
G1 X65.238 Y45.99 E30.54264
G1 X65.782 Y44.912 E30.59712
G1 X66.058 Y44.452 E30.62132
G0 F3000 X66.402 Y44.66
G1 F1500 X66.86 Y44.15 E30.65225
G1 X67.391 Y43.674 E30.68442
G1 X67.659 Y43.448 E30.70024
G1 X68.104 Y43.139 E30.72468
G1 X68.596 Y42.854 E30.75033
G1 X70.157 Y41.98 E30.83105
G1 X72.485 Y40.587 E30.95345
G1 X74.809 Y39.106 E31.07778
G1 X77.098 Y37.554 E31.20255
G1 X79.295 Y35.973 E31.32467
G1 X79.483 Y35.83 E31.33533
G1 X80.494 Y35.082 E31.39207
G1 X80.923 Y34.814 E31.41489
G1 X81.388 Y34.617 E31.43767
G1 X81.879 Y34.496 E31.46049
G1 X82.349 Y34.454 E31.48178
G1 X82.927 Y34.445 E31.50786
G1 X85.714 Y34.365 E31.63365
G1 X87.74 Y34.257 E31.72519
G1 X88.631 Y34.256 E31.76539
G1 X89.301 Y34.285 E31.79564
G1 X90.73 Y34.366 E31.86022
G1 X93.555 Y34.446 E31.98772
G1 X94.043 Y34.454 E32.00974
G1 X94.547 Y34.502 E32.03258
G1 X95.036 Y34.629 E32.05538
G1 X95.498 Y34.83 E32.07811
G1 X95.69 Y34.939 E32.08807
G1 X96.428 Y35.393 E32.12716
G1 X98.768 Y36.788 E32.25007
G1 X101.188 Y38.138 E32.37509
G1 X103.61 Y39.401 E32.49833
G1 X106.043 Y40.585 E32.62041
G1 X108.563 Y41.723 E32.74516
G1 X111.106 Y42.786 E32.86951
G1 X111.489 Y42.941 E32.88815
G1 X111.942 Y43.167 E32.91099
G1 X112.71 Y43.756 E32.95466
G1 X113.116 Y44.114 E32.97908
G1 X113.467 Y44.478 E33.00189
G1 X113.852 Y45.07 E33.03375
G1 X115.019 Y47.386 E33.15076
G1 X116.32 Y49.801 E33.27452
G1 X117.681 Y52.164 E33.39755
G1 X119.118 Y54.504 E33.52144
G1 X120.629 Y56.816 E33.64605
G1 X122.176 Y59.04 E33.76828
G1 X123.812 Y61.256 E33.89255
G1 X125.505 Y63.42 E34.01651
G1 X127.228 Y65.498 E34.1383
G1 X129.054 Y67.577 E34.26314
G1 X130.911 Y69.576 E34.38624
G1 X132.819 Y71.514 E34.50894
G1 X134.817 Y73.435 E34.63399
G1 X136.814 Y75.247 E34.75565
G1 X138.949 Y77.078 E34.88255
G1 X141.025 Y78.759 E35.00306
G1 X143.345 Y80.528 E35.13469
G1 X143.856 Y80.906 E35.16337
G1 X144.338 Y81.346 E35.19281
G1 X144.828 Y81.894 E35.22598
G1 X145.058 Y82.168 E35.24212
G1 X145.347 Y82.582 E35.2649
G1 X145.568 Y83.037 E35.28772
G1 X145.715 Y83.521 E35.31054
G1 X145.789 Y84.156 E35.33938
G1 X145.797 Y84.708 E35.36429
G1 X145.877 Y87.503 E35.49044
G1 X145.986 Y89.546 E35.58275
G1 X145.99 Y90.347 E35.61889
G1 X145.958 Y91.107 E35.65321
G1 X145.877 Y92.536 E35.71778
G1 X145.796 Y95.39 E35.8466
G1 X145.79 Y95.841 E35.86695
G1 X145.743 Y96.344 E35.88974
G1 X145.617 Y96.834 E35.91256
G1 X145.416 Y97.298 E35.93538
G1 X145.049 Y97.844 E35.96506
G1 X144.139 Y98.937 E36.02923
G1 X144.098 Y98.999 E36.03258
G1 X143.304 Y99.949 E36.08844
G1 X141.621 Y102.086 E36.21116
G1 X139.947 Y104.338 E36.33776
