;FLAVOR:Marlin
;TIME:2490
;Filament used: 4.17151m
;Layer height: 0.3
;MINX:58.2
;MINY:38.5
;MINZ:0.3
;MAXX:121.8
;MAXY:140.5
;MAXZ:9.9
;Generated with Cura_SteamEngine 4.12.1
M82 ;absolute extrusion mode
G21 ;metric values
G90 ;absolute positioning
M82 ;set extruder to absolute mode
M107 ;start with the fan off

M104 S205.0 T0 ; start heating T0 to what is set in Cura
M140 S60 ; start heating the bed to what is set in Cura
M190 S60 ; start heating the bed to what is set in Cura
M109 S205.0 T0 ; start heating T0 to what is set in Cura

G28 X0 Y0 ;move X/Y to min endstops
G28 Z0 ;move Z to min endstops
G1 Z15.0 F2400 ;move the platform down 15mm
G92 E0 ;zero the extruded length
G1 F200 E3 ;extrude 3mm of feed stock
G92 E0 ;zero the extruded length again
G1 F2400
G0 Y20 F2400
M117 Printing...
G5
G92 E0
G92 E0
G1 F2400 E-1.2
;LAYER_COUNT:33
;LAYER:0
M107
G0 F3000 X58.862 Y40.319 Z0.3
;TYPE:SKIRT
G1 F2400 E0
G1 F1500 X59.204 Y39.869 E0.0255
G1 X59.606 Y39.472 E0.05099
G1 X60.06 Y39.135 E0.0765
G1 X60.557 Y38.866 E0.102
G1 X61.087 Y38.669 E0.12751
G1 X61.64 Y38.55 E0.15303
G1 X62.418 Y38.502 E0.1882
G1 X62.53 Y38.5 E0.19325
G1 X117.15 Y38.5 E2.65752
G1 X117.848 Y38.51 E2.68902
G1 X118.412 Y38.558 E2.71456
G1 X118.962 Y38.685 E2.74002
G1 X119.49 Y38.889 E2.76556
G1 X119.984 Y39.164 E2.79107
G1 X120.433 Y39.507 E2.81656
G1 X120.83 Y39.909 E2.84205
G1 X121.167 Y40.364 E2.8676
G1 X121.435 Y40.861 E2.89307
G1 X121.631 Y41.391 E2.91857
G1 X121.751 Y41.944 E2.9441
G1 X121.798 Y42.718 E2.97908
G1 X121.8 Y42.83 E2.98414
G1 X121.8 Y124.85 E6.68461
G1 X121.79 Y125.551 E6.71624
G1 X121.704 Y126.318 E6.75106
G1 X121.611 Y126.682 E6.76801
G1 X121.366 Y127.484 E6.80584
G1 X120.587 Y130.163 E6.93172
G1 X119.913 Y132.756 E7.05259
G1 X119.299 Y135.417 E7.1758
G1 X119.084 Y136.49 E7.22518
G1 X118.903 Y137.332 E7.26403
G1 X118.745 Y137.875 E7.28955
G1 X118.513 Y138.39 E7.31503
G1 X118.21 Y138.867 E7.34053
G1 X117.843 Y139.297 E7.36603
G1 X117.418 Y139.671 E7.39157
G1 X116.946 Y139.981 E7.41705
G1 X116.434 Y140.222 E7.44258
G1 X115.894 Y140.388 E7.46807
G1 X115.104 Y140.489 E7.504
G1 X114.67 Y140.5 E7.52359
G1 X105.651 Y140.5 E7.9305
G1 X104.933 Y140.49 E7.96289
G1 X104.095 Y140.455 E8.00073
G1 X101.369 Y140.378 E8.12377
G1 X98.624 Y140.378 E8.24762
G1 X95.938 Y140.454 E8.36885
G1 X95.378 Y140.481 E8.39414
G1 X94.67 Y140.5 E8.4261
G1 X85.651 Y140.5 E8.833
G1 X84.933 Y140.49 E8.8654
G1 X84.095 Y140.455 E8.90324
G1 X81.369 Y140.378 E9.02628
G1 X78.624 Y140.378 E9.15013
G1 X75.938 Y140.454 E9.27136
G1 X75.378 Y140.481 E9.29665
G1 X74.67 Y140.5 E9.32861
G1 X65.65 Y140.5 E9.73556
G1 X64.952 Y140.49 E9.76705
G1 X64.388 Y140.442 E9.79259
G1 X63.838 Y140.315 E9.81806
G1 X63.31 Y140.111 E9.8436
G1 X62.816 Y139.836 E9.8691
G1 X62.367 Y139.493 E9.8946
G1 X61.97 Y139.091 E9.92009
G1 X61.633 Y138.636 E9.94563
G1 X61.365 Y138.139 E9.97111
G1 X61.169 Y137.609 E9.9966
G1 X61.089 Y137.285 E10.01166
G1 X60.974 Y136.72 E10.03767
G1 X60.384 Y133.991 E10.16364
G1 X59.743 Y131.389 E10.28454
G1 X59.023 Y128.782 E10.40657
G1 X58.629 Y127.501 E10.46703
G1 X58.376 Y126.642 E10.50743
G1 X58.251 Y126.059 E10.53434
G1 X58.204 Y125.369 E10.56554
G1 X58.2 Y125.079 E10.57862
G1 X58.2 Y43.12 E14.27634
G1 X58.209 Y42.455 E14.30635
G1 X58.257 Y41.892 E14.33184
G1 X58.383 Y41.341 E14.35734
G1 X58.586 Y40.813 E14.38286
G1 X58.862 Y40.319 E14.40839
G0 F3000 X59.258 Y40.447
G1 F1500 X59.597 Y40.031 E14.43261
G1 X59.994 Y39.671 E14.45678
G1 X60.441 Y39.373 E14.48102
G1 X60.926 Y39.145 E14.5052
G1 X61.44 Y38.992 E14.5294
G1 X62.108 Y38.91 E14.55976
G1 X62.53 Y38.9 E14.57881
G1 X117.145 Y38.9 E17.04285
G1 X117.843 Y38.91 E17.07435
G1 X118.377 Y38.958 E17.09854
G1 X118.898 Y39.084 E17.12272
G1 X119.395 Y39.287 E17.14694
G1 X119.856 Y39.561 E17.17114
G1 X120.271 Y39.9 E17.19531
G1 X120.631 Y40.298 E17.21953
G1 X120.928 Y40.744 E17.2437
G1 X121.156 Y41.23 E17.26792
G1 X121.308 Y41.744 E17.29211
G1 X121.39 Y42.409 E17.32233
G1 X121.4 Y42.83 E17.34133
G1 X121.4 Y124.844 E21.04154
G1 X121.39 Y125.545 E21.07317
G1 X121.313 Y126.236 E21.10453
G1 X121.229 Y126.565 E21.11985
G1 X120.968 Y127.419 E21.16014
G1 X120.204 Y130.047 E21.28362
G1 X119.521 Y132.672 E21.40599
G1 X118.909 Y135.328 E21.52896
G1 X118.693 Y136.406 E21.57857
G1 X118.512 Y137.248 E21.61742
G1 X118.36 Y137.762 E21.6416
G1 X118.134 Y138.248 E21.66579
G1 X117.838 Y138.696 E21.69001
G1 X117.479 Y139.094 E21.71419
G1 X117.065 Y139.434 E21.73836
G1 X116.604 Y139.71 E21.76261
G1 X116.108 Y139.914 E21.7868
G1 X115.588 Y140.041 E21.81095
G1 X114.771 Y140.099 E21.84791
G1 X105.657 Y140.1 E22.2591
G1 X104.836 Y140.087 E22.29614
G1 X104.124 Y140.057 E22.3283
G1 X101.344 Y139.978 E22.45377
G1 X98.649 Y139.978 E22.57536
G1 X95.862 Y140.057 E22.70115
G1 X95.366 Y140.082 E22.72356
G1 X94.773 Y140.099 E22.75032
G1 X85.657 Y140.1 E23.16161
G1 X84.836 Y140.087 E23.19865
G1 X84.124 Y140.057 E23.2308
G1 X81.344 Y139.978 E23.35628
G1 X78.649 Y139.978 E23.47787
G1 X75.862 Y140.057 E23.60366
G1 X75.366 Y140.082 E23.62607
G1 X74.773 Y140.099 E23.65283
G1 X65.655 Y140.1 E24.0642
G1 X64.957 Y140.09 E24.0957
G1 X64.423 Y140.042 E24.11989
G1 X63.902 Y139.916 E24.14407
G1 X63.405 Y139.713 E24.16829
G1 X62.944 Y139.439 E24.19249
G1 X62.529 Y139.1 E24.21667
G1 X62.169 Y138.702 E24.24088
G1 X61.872 Y138.256 E24.26505
G1 X61.644 Y137.77 E24.28927
G1 X61.481 Y137.206 E24.31576
G1 X61.365 Y136.635 E24.34205
G1 X60.777 Y133.916 E24.46756
G1 X60.131 Y131.292 E24.58948
G1 X59.396 Y128.631 E24.71403
G1 X59.013 Y127.388 E24.77271
G1 X58.76 Y126.529 E24.81311
G1 X58.647 Y126.004 E24.83734
G1 X58.604 Y125.357 E24.86659
G1 X58.6 Y125.076 E24.87927
G1 X58.6 Y43.125 E28.57663
G1 X58.609 Y42.46 E28.60664
G1 X58.657 Y41.926 E28.63083
G1 X58.783 Y41.405 E28.65501
G1 X58.985 Y40.908 E28.67922
G1 X59.258 Y40.447 E28.70339
G0 F3000 X59.654 Y40.582
G1 F1500 X59.989 Y40.204 E28.72618
G1 X60.38 Y39.883 E28.749
G1 X60.817 Y39.628 E28.77183
G1 X61.288 Y39.444 E28.79464
G1 X61.782 Y39.338 E28.81744
G1 X62.44 Y39.301 E28.84717
G1 X117.139 Y39.3 E31.31501
G1 X117.837 Y39.31 E31.3465
G1 X118.34 Y39.357 E31.3693
G1 X118.83 Y39.483 E31.39212
G1 X119.294 Y39.685 E31.41495
G1 X119.72 Y39.957 E31.43776
G1 X120.098 Y40.292 E31.46054
G1 X120.418 Y40.683 E31.48334
G1 X120.673 Y41.12 E31.50617
G1 X120.856 Y41.591 E31.52896
G1 X120.963 Y42.085 E31.55177
G1 X120.999 Y42.74 E31.58137
G1 X121 Y124.839 E35.2854
G1 X120.99 Y125.54 E35.31703
G1 X120.921 Y126.153 E35.34486
G1 X120.846 Y126.448 E35.3586
G1 X120.598 Y127.261 E35.39694
G1 X119.816 Y129.949 E35.52325
G1 X119.13 Y132.587 E35.64622
G1 X118.521 Y135.231 E35.76863
G1 X118.302 Y136.322 E35.81884
G1 X118.121 Y137.164 E35.85769
G1 X117.976 Y137.648 E35.88049
G1 X117.756 Y138.103 E35.90329
G1 X117.468 Y138.519 E35.92612
G1 X117.117 Y138.883 E35.94893
G1 X116.714 Y139.188 E35.97174
G1 X116.268 Y139.426 E35.99454
G1 X115.79 Y139.59 E36.01734
G1 X115.081 Y139.69 E36.04965
G1 X114.67 Y139.7 E36.0682
G1 X105.662 Y139.7 E36.47461
G1 X104.944 Y139.69 E36.507
G1 X104.147 Y139.657 E36.54299
G1 X101.355 Y139.578 E36.66901
G1 X98.638 Y139.578 E36.79159
G1 X95.873 Y139.656 E36.91639
G1 X95.355 Y139.682 E36.93979
G1 X94.762 Y139.699 E36.96655
G1 X85.662 Y139.7 E37.37712
G1 X84.944 Y139.69 E37.40951
G1 X84.147 Y139.657 E37.4455
G1 X81.355 Y139.578 E37.57152
G1 X78.638 Y139.578 E37.6941
G1 X75.873 Y139.656 E37.8189
G1 X75.355 Y139.682 E37.8423
G1 X74.762 Y139.699 E37.86906
G1 X65.661 Y139.7 E38.27967
G1 X64.963 Y139.69 E38.31116
G1 X64.46 Y139.643 E38.33396
G1 X63.97 Y139.517 E38.35678
G1 X63.506 Y139.315 E38.37961
G1 X63.08 Y139.043 E38.40242
G1 X62.702 Y138.708 E38.42521
G1 X62.382 Y138.317 E38.448
G1 X62.127 Y137.88 E38.47083
G1 X61.944 Y137.409 E38.49363
G1 X61.873 Y137.126 E38.50679
G1 X61.756 Y136.55 E38.53331
G1 X61.165 Y133.815 E38.65955
G1 X60.518 Y131.187 E38.78166
G1 X59.787 Y128.543 E38.90542
G1 X59.396 Y127.275 E38.96529
G1 X59.143 Y126.416 E39.00569
G1 X59.039 Y125.92 E39.02855
G1 X59.003 Y125.345 E39.05455
G1 X59 Y125.072 E39.06686
G1 X59 Y43.131 E42.76377
G1 X59.009 Y42.466 E42.79378
G1 X59.056 Y41.962 E42.81661
G1 X59.182 Y41.473 E42.8394
G1 X59.383 Y41.009 E42.86221
G1 X59.654 Y40.582 E42.88503
G1 F2400 E41.68503
;MESH:glue_plate-plate_55x83.stl
G0 F3000 X63.2 Y43.5
;TYPE:WALL-INNER
G1 F2400 E42.88503
G1 F1500 X116.8 Y43.5 E45.30328
G1 X116.8 Y125.054 E48.98273
G1 X115.415 Y126.3 E49.06678
G1 X114 Y126.3 E49.13062
G1 X114 Y126.904 E49.15787
G1 X114 Y127.385 E49.17958
G1 X113.66 Y127.045 E49.19124
G1 X113.315 Y126.7 E49.21325
G1 X106.685 Y126.7 E49.51237
G1 X106.34 Y127.045 E49.53438
G1 X106 Y127.385 E49.55608
G1 X106 Y126.904 E49.56776
G1 X106 Y126.3 E49.59501
G1 X94 Y126.3 E50.13641
G1 X94 Y126.904 E50.16366
G1 X94 Y127.385 E50.18537
G1 X93.66 Y127.045 E50.19703
G1 X93.315 Y126.7 E50.21904
G1 X86.685 Y126.7 E50.51816
G1 X86.34 Y127.045 E50.54018
G1 X86 Y127.385 E50.56187
G1 X86 Y126.904 E50.57355
G1 X86 Y126.3 E50.6008
G1 X74 Y126.3 E51.14221
G1 X74 Y126.904 E51.16946
G1 X74 Y127.385 E51.19116
G1 X73.66 Y127.045 E51.20282
G1 X73.315 Y126.7 E51.22483
G1 X66.685 Y126.7 E51.52395
G1 X66.34 Y127.045 E51.54597
G1 X66 Y127.385 E51.56766
G1 X66 Y126.904 E51.57934
G1 X66 Y126.3 E51.6066
G1 X64.585 Y126.3 E51.67044
G1 X63.2 Y125.054 E51.75449
G1 X63.2 Y43.5 E55.43394
G0 F3000 X62.8 Y43.1
G1 F1500 X117.2 Y43.1 E57.88828
G1 X117.2 Y125.232 E61.59381
G1 X115.569 Y126.7 E61.69281
G1 X114.4 Y126.7 E61.74555
G1 X114.4 Y127.87 E61.79834
G1 X114.4 Y128.351 E61.82004
G1 X114.06 Y128.011 E61.8317
G1 X113.149 Y127.1 E61.88983
G1 X106.851 Y127.1 E62.17397
G1 X105.94 Y128.011 E62.2321
G1 X105.6 Y128.351 E62.25379
G1 X105.6 Y127.87 E62.26548
G1 X105.6 Y126.7 E62.31826
G1 X94.4 Y126.7 E62.82357
G1 X94.4 Y127.87 E62.87636
G1 X94.4 Y128.351 E62.89806
G1 X94.06 Y128.011 E62.90972
G1 X93.149 Y127.1 E62.96784
G1 X86.851 Y127.1 E63.25199
G1 X85.94 Y128.011 E63.31012
G1 X85.6 Y128.351 E63.33181
G1 X85.6 Y127.87 E63.34349
G1 X85.6 Y126.7 E63.39628
G1 X74.4 Y126.7 E63.90159
G1 X74.4 Y127.87 E63.95438
G1 X74.4 Y128.351 E63.97608
G1 X74.06 Y128.011 E63.98774
G1 X73.149 Y127.1 E64.04586
G1 X66.851 Y127.1 E64.33001
G1 X65.94 Y128.011 E64.38813
G1 X65.6 Y128.351 E64.40983
G1 X65.6 Y127.87 E64.42151
G1 X65.6 Y126.7 E64.4743
G1 X64.431 Y126.7 E64.52704
G1 X62.8 Y125.232 E64.62604
G1 X62.8 Y43.1 E68.33157
G1 F2400 E67.13157
G0 F3000 X65.6 Y134.649
G1 F2400 E68.33157
G1 F1500 X65.94 Y134.989 E68.35326
G1 X66.511 Y135.56 E68.38969
G1 X66.851 Y135.9 E68.41139
G1 X66.37 Y135.9 E68.42307
G1 X65.6 Y135.9 E68.45781
G1 X65.6 Y135.13 E68.49255
G1 X65.6 Y134.649 E68.50424
G1 F2400 E67.30424
G0 F3000 X74.4 Y134.649
G1 F2400 E68.50424
G1 F1500 X74.4 Y135.13 E68.52594
G1 X74.4 Y135.9 E68.56068
G1 X73.63 Y135.9 E68.59542
G1 X73.149 Y135.9 E68.61712
G1 X73.489 Y135.56 E68.62878
G1 X74.06 Y134.989 E68.66521
G1 X74.4 Y134.649 E68.67687
G1 F2400 E67.47687
G0 F3000 X85.6 Y134.649
G1 F2400 E68.67687
G1 F1500 X85.94 Y134.989 E68.69857
G1 X86.511 Y135.56 E68.735
G1 X86.851 Y135.9 E68.75669
G1 X86.37 Y135.9 E68.76838
G1 X85.6 Y135.9 E68.80312
G1 X85.6 Y135.13 E68.83786
G1 X85.6 Y134.649 E68.84954
G1 F2400 E67.64954
G0 F3000 X94.4 Y134.649
G1 F2400 E68.84954
G1 F1500 X94.4 Y135.13 E68.87124
G1 X94.4 Y135.9 E68.90598
G1 X93.63 Y135.9 E68.94072
G1 X93.149 Y135.9 E68.96242
G1 X93.489 Y135.56 E68.97408
G1 X94.06 Y134.989 E69.01052
G1 X94.4 Y134.649 E69.02218
G1 F2400 E67.82218
G0 F3000 X105.6 Y134.649
G1 F2400 E69.02218
G1 F1500 X105.94 Y134.989 E69.04387
G1 X106.511 Y135.56 E69.0803
G1 X106.851 Y135.9 E69.102
G1 X106.37 Y135.9 E69.11368
G1 X105.6 Y135.9 E69.14842
G1 X105.6 Y135.13 E69.18316
G1 X105.6 Y134.649 E69.19485
G1 F2400 E67.99485
G0 F3000 X114.4 Y134.649
G1 F2400 E69.19485
G1 F1500 X114.4 Y135.13 E69.21655
G1 X114.4 Y135.9 E69.25129
G1 X113.63 Y135.9 E69.28603
G1 X113.149 Y135.9 E69.30773
G1 X113.489 Y135.56 E69.31939
G1 X114.06 Y134.989 E69.35582
G1 X114.4 Y134.649 E69.36748
G0 F3000 X114 Y134.483
;TYPE:WALL-OUTER
G1 F1500 X114 Y128.517 E69.63665
G1 X112.983 Y127.5 E69.70154
G1 X107.017 Y127.5 E69.9707
G1 X106 Y128.517 E70.03559
G1 X106 Y134.483 E70.30476
G1 X107.017 Y135.5 E70.36965
G1 X112.983 Y135.5 E70.63882
G1 X114 Y134.483 E70.7037
G0 F3000 X114 Y134.283
G1 F2400 E69.5037
G0 F3000 X94 Y134.483
G1 F2400 E70.7037
G1 F1500 X94 Y128.517 E70.97287
G1 X92.983 Y127.5 E71.03776
G1 X87.017 Y127.5 E71.30693
G1 X86 Y128.517 E71.37182
G1 X86 Y134.483 E71.64098
G1 X87.017 Y135.5 E71.70587
G1 X92.983 Y135.5 E71.97504
G1 X94 Y134.483 E72.03993
G0 F3000 X94 Y134.283
G1 F2400 E70.83993
G0 F3000 X74 Y134.483
G1 F2400 E72.03993
G1 F1500 X74 Y128.517 E72.30909
G1 X72.983 Y127.5 E72.37398
G1 X67.017 Y127.5 E72.64315
G1 X66 Y128.517 E72.70804
G1 X66 Y134.483 E72.9772
G1 X67.017 Y135.5 E73.04209
G1 X72.983 Y135.5 E73.31126
G1 X74 Y134.483 E73.37615
G0 F3000 X74 Y134.283
G1 F2400 E72.17615
G0 F3000 X74.8 Y127.1
G1 F2400 E73.37615
G1 F1500 X74.8 Y136.3 E73.79122
G1 X65.2 Y136.3 E74.22434
G1 X65.2 Y127.1 E74.63942
G1 X64.277 Y127.1 E74.68106
G1 X62.4 Y125.41 E74.79501
G1 X62.4 Y42.7 E78.52662
G1 X117.6 Y42.7 E81.01706
G1 X117.6 Y125.41 E84.74866
G1 X115.723 Y127.1 E84.86261
G1 X114.8 Y127.1 E84.90426
G1 X114.8 Y136.3 E85.31933
G1 X105.2 Y136.3 E85.75245
G1 X105.2 Y127.1 E86.16752
G1 X94.8 Y127.1 E86.63674
G1 X94.8 Y136.3 E87.05181
G1 X85.2 Y136.3 E87.48493
G1 X85.2 Y127.1 E87.9
G1 X74.8 Y127.1 E88.36922
G0 F3000 X74.8 Y127.3
G0 X74.36 Y127.3
G1 F2400 E87.16922
G0 F3000 X73.61 Y126.443
;TYPE:SKIN
G1 F2400 E88.36922
G1 F1500 X73.477 Y126.31 E88.37787
G1 X66.523 Y126.31 E88.6976
G1 X66.39 Y126.443 E88.70625
G1 X66.39 Y125.91 E88.73076
G1 X64.735 Y125.91 E88.80685
G1 X63.59 Y124.88 E88.87767
G1 X63.59 Y43.89 E92.60149
G1 X116.41 Y43.89 E95.03009
G1 X116.41 Y124.88 E98.75391
G1 X115.265 Y125.91 E98.82473
G1 X113.61 Y125.91 E98.90082
G1 X113.61 Y126.443 E98.92533
G1 X113.477 Y126.31 E98.93398
G1 X106.523 Y126.31 E99.25371
G1 X106.39 Y126.443 E99.26236
G1 X106.39 Y125.91 E99.28687
G1 X93.61 Y125.91 E99.87448
G1 X93.61 Y126.443 E99.89898
G1 X93.477 Y126.31 E99.90763
G1 X86.523 Y126.31 E100.22737
G1 X86.39 Y126.443 E100.23602
G1 X86.39 Y125.91 E100.26052
G1 X73.61 Y125.91 E100.84813
G1 X73.61 Y126.443 E100.87264
G1 F2400 E99.67264
G0 F3000 X63.769 Y124.298
G1 F2400 E100.87264
G1 F1500 X65.2 Y125.729 E100.96569
G0 F3000 X65.766 Y125.729
G1 F1500 X63.769 Y123.732 E101.09554
G0 F3000 X63.769 Y123.166
G1 F1500 X66.332 Y125.729 E101.2622
G0 F3000 X66.569 Y125.966
G1 F1500 X66.732 Y126.129 E101.2728
G0 F3000 X67.298 Y126.129
G1 F1500 X63.769 Y122.601 E101.50223
G0 F3000 X63.769 Y122.035
G1 F1500 X67.863 Y126.129 E101.76844
G0 F3000 X68.429 Y126.129
G1 F1500 X63.769 Y121.469 E102.07145
G0 F3000 X63.769 Y120.903
G1 F1500 X68.995 Y126.129 E102.41127
G0 F3000 X69.56 Y126.129
G1 F1500 X63.769 Y120.338 E102.78782
G0 F3000 X63.769 Y119.772
G1 F1500 X70.126 Y126.129 E103.20118
G0 F3000 X70.692 Y126.129
G1 F1500 X63.769 Y119.206 E103.65134
G0 F3000 X63.769 Y118.641
G1 F1500 X71.257 Y126.129 E104.13823
G0 F3000 X71.823 Y126.129
G1 F1500 X63.769 Y118.075 E104.66194
G0 F3000 X63.769 Y117.509
G1 F1500 X72.389 Y126.129 E105.22244
G0 F3000 X72.955 Y126.129
G1 F1500 X63.769 Y116.944 E105.81972
G0 F3000 X63.769 Y116.378
G1 F1500 X73.43 Y126.038 E106.44788
G0 F3000 X73.686 Y125.729
G1 F1500 X63.769 Y115.812 E107.09272
G0 F3000 X63.769 Y115.247
G1 F1500 X74.251 Y125.729 E107.7743
G0 F3000 X74.817 Y125.729
G1 F1500 X63.769 Y114.681 E108.49269
G0 F3000 X63.769 Y114.115
G1 F1500 X75.383 Y125.729 E109.24787
G0 F3000 X75.948 Y125.729
G1 F1500 X63.769 Y113.55 E110.0398
G0 F3000 X63.769 Y112.984
G1 F1500 X76.514 Y125.729 E110.86853
G0 F3000 X77.08 Y125.729
G1 F1500 X63.769 Y112.418 E111.73406
G0 F3000 X63.769 Y111.852
G1 F1500 X77.645 Y125.729 E112.63636
G0 F3000 X78.211 Y125.729
G1 F1500 X63.769 Y111.287 E113.57544
G0 F3000 X63.769 Y110.721
G1 F1500 X78.777 Y125.729 E114.55132
G0 F3000 X79.343 Y125.729
G1 F1500 X63.769 Y110.155 E115.564
G0 F3000 X63.769 Y109.59
G1 F1500 X79.908 Y125.729 E116.61342
G0 F3000 X80.474 Y125.729
G1 F1500 X63.769 Y109.024 E117.69964
G0 F3000 X63.769 Y108.458
G1 F1500 X81.04 Y125.729 E118.82267
