;FLAVOR:Marlin
;TIME:5771
;Filament used: 9.54178m
;Layer height: 0.3
;MINX:36.169
;MINY:33.895
;MINZ:0.3
;MAXX:156.387
;MAXY:156.262
;MAXZ:9.9
;Generated with Cura_SteamEngine 4.12.1
M82 ;absolute extrusion mode
G21 ;metric values
G90 ;absolute positioning
M82 ;set extruder to absolute mode
M107 ;start with the fan off

M104 S205.0 T0 ; start heating T0 to what is set in Cura
M140 S60 ; start heating the bed to what is set in Cura
M190 S60 ; start heating the bed to what is set in Cura
M109 S205.0 T0 ; start heating T0 to what is set in Cura

G28 X0 Y0 ;move X/Y to min endstops
G28 Z0 ;move Z to min endstops
G1 Z15.0 F2400 ;move the platform down 15mm
G92 E0 ;zero the extruded length
G1 F200 E3 ;extrude 3mm of feed stock
G92 E0 ;zero the extruded length again
G1 F2400
G0 Y20 F2400
M117 Printing...
G5
G92 E0
G92 E0
G1 F2400 E-1.2
;LAYER_COUNT:33
;LAYER:0
M107
G0 F3000 X37.242 Y38.061 Z0.3
;TYPE:SKIRT
G1 F2400 E0
G1 F1500 X37.645 Y37.664 E0.02552
G1 X38.1 Y37.328 E0.05104
G1 X38.597 Y37.059 E0.07654
G1 X39.127 Y36.863 E0.10203
G1 X39.45 Y36.784 E0.11703
G1 X40.015 Y36.669 E0.14305
G1 X42.744 Y36.079 E0.26902
G1 X45.346 Y35.438 E0.38992
G1 X47.974 Y34.712 E0.51293
G1 X49.195 Y34.335 E0.57058
G1 X50.086 Y34.073 E0.61248
G1 X50.527 Y33.97 E0.63291
G1 X51.132 Y33.906 E0.66036
G1 X51.656 Y33.895 E0.68401
G1 X133.585 Y33.895 E4.38038
G1 X134.285 Y33.905 E4.41196
G1 X134.848 Y33.953 E4.43745
G1 X135.399 Y34.08 E4.46296
G1 X135.927 Y34.284 E4.4885
G1 X136.42 Y34.559 E4.51397
G1 X136.87 Y34.902 E4.5395
G1 X137.267 Y35.304 E4.56499
G1 X137.603 Y35.759 E4.59051
G1 X137.872 Y36.256 E4.616
G1 X138.126 Y37.009 E4.65186
G1 X138.198 Y37.323 E4.66639
G1 X138.862 Y40.022 E4.79179
G1 X139.577 Y42.604 E4.91267
G1 X140.387 Y45.242 E5.03717
G1 X141.249 Y47.789 E5.15849
G1 X142.198 Y50.352 E5.28179
G1 X143.211 Y52.868 E5.40416
G1 X144.298 Y55.359 E5.52678
G1 X145.447 Y57.804 E5.64866
G1 X146.677 Y60.24 E5.77178
G1 X147.958 Y62.607 E5.89321
G1 X149.33 Y64.978 E6.0168
G1 X150.75 Y67.282 E6.13891
G1 X152.235 Y69.544 E6.26099
G1 X153.822 Y71.817 E6.38606
G1 X154.863 Y73.236 E6.46546
G1 X155.577 Y74.192 E6.5193
G1 X155.882 Y74.668 E6.5448
G1 X156.118 Y75.182 E6.57032
G1 X156.278 Y75.724 E6.59582
G1 X156.371 Y76.517 E6.63184
G1 X156.387 Y77.461 E6.67443
G1 X156.387 Y93.386 E7.39292
G1 X156.377 Y94.098 E7.42504
G1 X156.367 Y94.326 E7.43534
G1 X156.309 Y95.137 E7.47202
G1 X156.2 Y96.426 E7.53039
G1 X156.047 Y99.139 E7.65298
G1 X155.961 Y103.229 E7.83755
G1 X155.961 Y121.386 E8.65674
G1 X155.951 Y122.089 E8.68846
G1 X155.903 Y122.652 E8.71395
G1 X155.776 Y123.203 E8.73946
G1 X155.572 Y123.731 E8.765
G1 X155.297 Y124.224 E8.79047
G1 X155.029 Y124.587 E8.81082
G1 X154.15 Y125.645 E8.87288
G1 X153.969 Y125.857 E8.88546
G1 X152.264 Y127.976 E9.00817
G1 X150.625 Y130.134 E9.13042
G1 X149.039 Y132.351 E9.25341
G1 X147.53 Y134.591 E9.37526
G1 X146.07 Y136.894 E9.49829
G1 X144.689 Y139.22 E9.62033
G1 X143.367 Y141.593 E9.74289
G1 X142.101 Y144.027 E9.86667
G1 X140.931 Y146.44 E9.98765
G1 X139.807 Y148.934 E10.11108
G1 X138.754 Y151.458 E10.23446
G1 X137.953 Y153.547 E10.3354
G1 X137.871 Y153.75 E10.34528
G1 X137.623 Y154.258 E10.37078
G1 X137.305 Y154.726 E10.39631
G1 X136.925 Y155.144 E10.4218
G1 X136.49 Y155.505 E10.4473
G1 X136.008 Y155.801 E10.47282
G1 X135.489 Y156.025 E10.49833
G1 X134.944 Y156.175 E10.52383
G1 X134.286 Y156.25 E10.55371
G1 X133.839 Y156.262 E10.57388
G1 X51.819 Y156.262 E14.27435
G1 X51.118 Y156.252 E14.30598
G1 X50.555 Y156.204 E14.33148
G1 X49.974 Y156.069 E14.35839
G1 X49.185 Y155.828 E14.39561
G1 X46.514 Y155.051 E14.52111
G1 X43.897 Y154.371 E14.6431
G1 X41.243 Y153.759 E14.76598
G1 X40.144 Y153.538 E14.81656
G1 X39.329 Y153.361 E14.85419
G1 X38.786 Y153.202 E14.87971
G1 X38.272 Y152.969 E14.90518
G1 X37.795 Y152.665 E14.9307
G1 X37.366 Y152.297 E14.9562
G1 X36.993 Y151.872 E14.98171
G1 X36.684 Y151.399 E15.0072
G1 X36.444 Y150.886 E15.03275
G1 X36.279 Y150.346 E15.05823
G1 X36.179 Y149.56 E15.09397
G1 X36.169 Y149.12 E15.11383
G1 X36.169 Y140.113 E15.5202
G1 X36.179 Y139.395 E15.55259
G1 X36.215 Y138.53 E15.59165
G1 X36.291 Y135.831 E15.71347
G1 X36.291 Y133.086 E15.83732
G1 X36.216 Y130.419 E15.95769
G1 X36.188 Y129.84 E15.98384
G1 X36.169 Y129.133 E16.01575
G1 X36.169 Y120.113 E16.42271
G1 X36.179 Y119.395 E16.4551
G1 X36.215 Y118.53 E16.49416
G1 X36.291 Y115.831 E16.61598
G1 X36.291 Y113.086 E16.73983
G1 X36.216 Y110.419 E16.8602
G1 X36.188 Y109.84 E16.88635
G1 X36.169 Y109.133 E16.91826
G1 X36.169 Y100.113 E17.32521
G1 X36.179 Y99.4 E17.35739
G1 X36.221 Y98.395 E17.40277
G1 X36.298 Y95.694 E17.52468
G1 X36.298 Y92.952 E17.64839
G1 X36.265 Y91.447 E17.7163
G1 X36.235 Y90.377 E17.7646
G1 X36.235 Y81.346 E18.17205
G1 X36.245 Y80.628 E18.20444
G1 X36.281 Y79.763 E18.2435
G1 X36.357 Y77.064 E18.36532
G1 X36.357 Y74.319 E18.48917
G1 X36.282 Y71.652 E18.60954
G1 X36.254 Y71.072 E18.63574
G1 X36.235 Y70.36 E18.66787
G1 X36.235 Y61.346 E19.07456
G1 X36.245 Y60.628 E19.10695
G1 X36.281 Y59.763 E19.14601
G1 X36.357 Y57.064 E19.26783
G1 X36.357 Y54.319 E19.39168
G1 X36.282 Y51.652 E19.51205
G1 X36.254 Y51.073 E19.5382
G1 X36.235 Y50.366 E19.57011
G1 X36.235 Y41.335 E19.97756
G1 X36.245 Y40.646 E20.00865
G1 X36.294 Y40.083 E20.03415
G1 X36.421 Y39.532 E20.05966
G1 X36.624 Y39.004 E20.08518
G1 X36.9 Y38.511 E20.11067
G1 X37.242 Y38.061 E20.13617
G0 F3000 X37.636 Y38.224
G1 F1500 X38.033 Y37.864 E20.16035
G1 X38.48 Y37.567 E20.18456
G1 X38.965 Y37.339 E20.20874
G1 X39.529 Y37.176 E20.23523
G1 X40.1 Y37.06 E20.26152
G1 X42.819 Y36.472 E20.38702
G1 X45.443 Y35.826 E20.50895
G1 X48.093 Y35.094 E20.63298
G1 X49.307 Y34.719 E20.69031
G1 X50.198 Y34.457 E20.73221
G1 X50.6 Y34.364 E20.75082
G1 X51.144 Y34.306 E20.77551
G1 X51.659 Y34.295 E20.79875
G1 X133.579 Y34.295 E24.49471
G1 X134.279 Y34.305 E24.52629
G1 X134.814 Y34.353 E24.55053
G1 X135.335 Y34.479 E24.57471
G1 X135.831 Y34.682 E24.59889
G1 X136.292 Y34.956 E24.62309
G1 X136.708 Y35.295 E24.6473
G1 X137.068 Y35.692 E24.67148
G1 X137.365 Y36.139 E24.69569
G1 X137.593 Y36.624 E24.71987
G1 X137.81 Y37.418 E24.757
G1 X138.475 Y40.118 E24.88246
G1 X139.207 Y42.765 E25.00637
G1 X139.998 Y45.341 E25.12794
G1 X140.871 Y47.92 E25.25078
G1 X141.823 Y50.491 E25.37448
G1 X142.838 Y53.011 E25.49705
G1 X143.941 Y55.54 E25.62153
G1 X145.092 Y57.99 E25.74365
G1 X146.318 Y60.417 E25.86633
G1 X147.611 Y62.807 E25.98893
G1 X148.977 Y65.167 E26.11195
G1 X150.424 Y67.514 E26.23635
G1 X151.9 Y69.763 E26.35771
G1 X153.477 Y72.021 E26.48197
G1 X154.562 Y73.502 E26.5648
G1 X155.256 Y74.432 E26.61716
G1 X155.544 Y74.884 E26.64134
G1 X155.762 Y75.374 E26.66554
G1 X155.904 Y75.891 E26.68972
G1 X155.971 Y76.524 E26.71844
G1 X155.987 Y77.461 E26.76072
G1 X155.987 Y93.381 E27.47898
G1 X155.977 Y94.093 E27.51111
G1 X155.968 Y94.298 E27.52037
G1 X155.91 Y95.103 E27.55678
G1 X155.8 Y96.405 E27.61573
G1 X155.648 Y99.108 E27.73787
G1 X155.561 Y103.221 E27.92348
G1 X155.561 Y121.38 E28.74275
G1 X155.551 Y122.083 E28.77447
G1 X155.503 Y122.617 E28.79866
G1 X155.377 Y123.139 E28.82289
G1 X155.174 Y123.635 E28.84707
G1 X154.9 Y124.096 E28.87127
G1 X154.721 Y124.331 E28.88459
G1 X153.845 Y125.386 E28.94646
G1 X153.654 Y125.61 E28.95974
G1 X151.967 Y127.707 E29.08117
G1 X150.298 Y129.905 E29.20568
G1 X148.709 Y132.124 E29.32882
G1 X147.193 Y134.376 E29.4513
G1 X145.731 Y136.682 E29.57448
G1 X144.329 Y139.042 E29.69833
G1 X143.02 Y141.392 E29.81969
G1 X141.751 Y143.832 E29.94378
G1 X140.564 Y146.281 E30.06656
G1 X139.445 Y148.765 E30.18948
G1 X138.387 Y151.298 E30.31333
G1 X137.582 Y153.397 E30.41475
G1 X137.5 Y153.6 E30.42463
G1 X137.263 Y154.081 E30.44882
G1 X136.956 Y154.522 E30.47307
G1 X136.588 Y154.912 E30.49726
G1 X136.166 Y155.242 E30.52143
G1 X135.7 Y155.507 E30.54561
G1 X135.199 Y155.699 E30.56982
G1 X134.676 Y155.815 E30.59399
G1 X133.95 Y155.86 E30.62681
G1 X133.839 Y155.862 E30.63182
G1 X51.825 Y155.862 E34.33202
G1 X51.124 Y155.852 E34.36365
G1 X50.589 Y155.804 E34.38788
G1 X50.091 Y155.687 E34.41096
G1 X49.272 Y155.437 E34.4496
G1 X46.622 Y154.666 E34.57411
G1 X43.99 Y153.982 E34.6968
G1 X41.298 Y153.362 E34.82144
G1 X40.229 Y153.147 E34.87063
G1 X39.414 Y152.97 E34.90826
G1 X38.9 Y152.817 E34.93246
G1 X38.414 Y152.59 E34.95666
G1 X37.967 Y152.293 E34.98087
G1 X37.57 Y151.933 E35.00505
G1 X37.23 Y151.518 E35.02925
G1 X36.956 Y151.058 E35.05341
G1 X36.753 Y150.561 E35.07763
G1 X36.626 Y150.04 E35.10182
G1 X36.57 Y149.218 E35.139
G1 X36.569 Y140.119 E35.54951
G1 X36.582 Y139.298 E35.58656
G1 X36.612 Y138.586 E35.61871
G1 X36.691 Y135.806 E35.74419
G1 X36.691 Y133.111 E35.86578
G1 X36.612 Y130.318 E35.99184
G1 X36.587 Y129.828 E36.01397
G1 X36.57 Y129.236 E36.04069
G1 X36.569 Y120.119 E36.45202
G1 X36.582 Y119.298 E36.48907
G1 X36.612 Y118.586 E36.52122
G1 X36.691 Y115.806 E36.64669
G1 X36.691 Y113.111 E36.76828
G1 X36.612 Y110.318 E36.89434
G1 X36.587 Y109.828 E36.91648
G1 X36.57 Y109.236 E36.9432
G1 X36.569 Y100.119 E37.35453
G1 X36.582 Y99.302 E37.3914
G1 X36.618 Y98.45 E37.42987
G1 X36.698 Y95.671 E37.5553
G1 X36.698 Y92.943 E37.67838
G1 X36.665 Y91.438 E37.7463
G1 X36.635 Y90.377 E37.79418
G1 X36.635 Y81.352 E38.20136
G1 X36.648 Y80.531 E38.23841
G1 X36.678 Y79.819 E38.27056
G1 X36.757 Y77.039 E38.39603
G1 X36.757 Y74.344 E38.51762
G1 X36.678 Y71.551 E38.64368
G1 X36.653 Y71.06 E38.66587
G1 X36.636 Y70.462 E38.69286
G1 X36.635 Y61.352 E39.10387
G1 X36.648 Y60.531 E39.14092
G1 X36.678 Y59.819 E39.17307
G1 X36.757 Y57.039 E39.29854
G1 X36.757 Y54.344 E39.42013
G1 X36.678 Y51.551 E39.54619
G1 X36.653 Y51.061 E39.56833
G1 X36.636 Y50.469 E39.59505
G1 X36.635 Y41.341 E40.00687
G1 X36.645 Y40.652 E40.03796
G1 X36.693 Y40.118 E40.06215
G1 X36.82 Y39.596 E40.08639
G1 X37.022 Y39.1 E40.11055
G1 X37.296 Y38.639 E40.13475
G1 X37.636 Y38.224 E40.15895
G0 F3000 X37.692 Y38.775
G1 F1500 X38.028 Y38.397 E40.18177
G1 X38.419 Y38.076 E40.20459
G1 X38.855 Y37.821 E40.22738
G1 X39.327 Y37.639 E40.25021
G1 X39.609 Y37.568 E40.26333
G1 X40.185 Y37.451 E40.28984
G1 X42.92 Y36.86 E40.41609
G1 X45.548 Y36.213 E40.53819
G1 X48.172 Y35.487 E40.66103
G1 X49.42 Y35.103 E40.71994
G1 X50.311 Y34.841 E40.76184
G1 X50.672 Y34.757 E40.77856
G1 X51.39 Y34.698 E40.81106
G1 X51.663 Y34.695 E40.82338
G1 X133.574 Y34.695 E44.51894
G1 X134.274 Y34.705 E44.55052
G1 X134.777 Y34.752 E44.57331
G1 X135.267 Y34.878 E44.59614
G1 X135.73 Y35.08 E44.61893
G1 X136.157 Y35.352 E44.64177
G1 X136.535 Y35.687 E44.66456
G1 X136.855 Y36.078 E44.68735
G1 X137.11 Y36.515 E44.71018
G1 X137.347 Y37.188 E44.74237
G1 X137.433 Y37.562 E44.75969
G1 X138.086 Y40.216 E44.883
G1 X138.812 Y42.842 E45.00592
G1 X139.623 Y45.481 E45.13048
G1 X140.492 Y48.05 E45.25283
G1 X141.449 Y50.631 E45.37703
G1 X142.476 Y53.184 E45.50118
G1 X143.57 Y55.691 E45.62459
G1 X144.731 Y58.162 E45.74776
G1 X145.953 Y60.58 E45.87
G1 X147.286 Y63.044 E45.99639
G1 X148.633 Y65.371 E46.1177
G1 X150.076 Y67.713 E46.24181
G1 X151.571 Y69.99 E46.3647
G1 X153.151 Y72.254 E46.48926
G1 X154.222 Y73.715 E46.57099
G1 X154.936 Y74.671 E46.62482
G1 X155.205 Y75.099 E46.64763
G1 X155.404 Y75.564 E46.67045
G1 X155.527 Y76.054 E46.69324
G1 X155.572 Y76.531 E46.71486
G1 X155.587 Y77.406 E46.75434
G1 X155.587 Y93.375 E47.47481
G1 X155.577 Y94.087 E47.50694
G1 X155.569 Y94.269 E47.51515
G1 X155.512 Y95.069 E47.55134
G1 X155.401 Y96.383 E47.61083
G1 X155.248 Y99.106 E47.73388
G1 X155.161 Y103.192 E47.91827
G1 X155.161 Y121.375 E48.73863
G1 X155.151 Y122.078 E48.77035
G1 X155.104 Y122.581 E48.79314
G1 X154.978 Y123.071 E48.81597
G1 X154.776 Y123.534 E48.83876
G1 X154.413 Y124.076 E48.86819
G1 X153.541 Y125.126 E48.92977
G1 X153.351 Y125.349 E48.94298
G1 X151.639 Y127.477 E49.06621
G1 X149.969 Y129.675 E49.19075
G1 X148.396 Y131.874 E49.31273
G1 X146.856 Y134.16 E49.43709
G1 X145.393 Y136.469 E49.56041
G1 X143.994 Y138.823 E49.68396
G1 X142.659 Y141.22 E49.80774
G1 X141.387 Y143.666 E49.93213
G1 X140.221 Y146.07 E50.05267
G1 X139.069 Y148.626 E50.17916
G1 X138.009 Y151.167 E50.30338
G1 X137.211 Y153.248 E50.40393
G1 X137.129 Y153.451 E50.41381
G1 X136.903 Y153.903 E50.43661
G1 X136.609 Y154.314 E50.45941
G1 X136.254 Y154.674 E50.48222
G1 X135.846 Y154.973 E50.50504
G1 X135.397 Y155.204 E50.52782
G1 X134.916 Y155.362 E50.55067
G1 X134.261 Y155.45 E50.58048
G1 X133.839 Y155.462 E50.59953
G1 X51.83 Y155.462 E54.29951
G1 X51.129 Y155.452 E54.33114
G1 X50.399 Y155.356 E54.36435
G1 X50.208 Y155.304 E54.37328
G1 X49.408 Y155.06 E54.41102
G1 X46.72 Y154.278 E54.53732
G1 X44.076 Y153.59 E54.66058
G1 X41.395 Y152.973 E54.7847
G1 X40.314 Y152.756 E54.83445
G1 X39.499 Y152.579 E54.87207
G1 X39.015 Y152.433 E54.89488
G1 X38.56 Y152.213 E54.91768
G1 X38.145 Y151.923 E54.94053
G1 X37.781 Y151.572 E54.96334
G1 X37.477 Y151.168 E54.98615
G1 X37.241 Y150.722 E55.00892
G1 X37.077 Y150.243 E55.03176
G1 X36.979 Y149.539 E55.06383
G1 X36.969 Y149.12 E55.08274
G1 X36.969 Y140.124 E55.48861
G1 X36.979 Y139.406 E55.521
G1 X37.012 Y138.609 E55.55699
G1 X37.091 Y135.817 E55.68301
G1 X37.091 Y133.099 E55.80564
G1 X37.013 Y130.338 E55.93025
G1 X36.987 Y129.817 E55.95379
G1 X36.97 Y129.225 E55.98051
G1 X36.969 Y120.124 E56.39111
G1 X36.979 Y119.406 E56.42351
G1 X37.012 Y118.609 E56.4595
G1 X37.091 Y115.817 E56.58552
G1 X37.091 Y113.099 E56.70814
G1 X37.013 Y110.338 E56.83276
G1 X36.987 Y109.817 E56.8563
G1 X36.97 Y109.225 E56.88302
G1 X36.969 Y100.124 E57.29362
G1 X36.979 Y99.411 E57.32579
G1 X37.018 Y98.474 E57.36811
G1 X37.098 Y95.682 E57.49412
G1 X37.098 Y92.934 E57.6181
G1 X37.065 Y91.453 E57.68494
G1 X37.036 Y90.471 E57.72926
G1 X37.035 Y81.357 E58.14046
G1 X37.045 Y80.639 E58.17285
G1 X37.078 Y79.842 E58.20884
G1 X37.157 Y77.05 E58.33486
G1 X37.157 Y74.332 E58.45748
G1 X37.079 Y71.571 E58.5821
G1 X37.053 Y71.049 E58.60568
G1 X37.035 Y70.36 E58.63678
G1 X37.035 Y61.357 E59.04296
G1 X37.045 Y60.639 E59.07536
G1 X37.078 Y59.842 E59.11135
G1 X37.157 Y57.05 E59.23737
G1 X37.157 Y54.332 E59.35999
G1 X37.079 Y51.571 E59.48461
G1 X37.053 Y51.05 E59.50814
G1 X37.036 Y50.458 E59.53486
G1 X37.035 Y41.347 E59.94592
G1 X37.045 Y40.658 E59.97701
G1 X37.093 Y40.154 E59.99985
G1 X37.219 Y39.665 E60.02264
G1 X37.42 Y39.201 E60.04545
G1 X37.692 Y38.775 E60.06825
G1 F2400 E58.86825
;MESH:glue_plate-plate_55x83.stl(1)
G0 F3000 X49.35 Y41.695
;TYPE:WALL-INNER
G1 F2400 E60.06825
G1 F1500 X49.831 Y41.695 E60.08995
G1 X50.435 Y41.695 E60.11721
G1 X50.435 Y40.28 E60.18105
G1 X51.681 Y38.895 E60.2651
G1 X133.235 Y38.895 E63.94455
G1 X133.235 Y92.495 E66.3628
G1 X51.681 Y92.495 E70.04225
G1 X50.435 Y91.11 E70.1263
G1 X50.435 Y89.695 E70.19014
G1 X49.831 Y89.695 E70.21739
G1 X49.35 Y89.695 E70.23909
G1 X49.69 Y89.355 E70.25075
G1 X50.035 Y89.01 E70.27277
G1 X50.035 Y82.38 E70.57189
G1 X49.69 Y82.035 E70.5939
G1 X49.35 Y81.695 E70.6156
G1 X49.831 Y81.695 E70.62728
G1 X50.435 Y81.695 E70.65453
G1 X50.435 Y69.695 E71.19593
G1 X49.831 Y69.695 E71.22318
G1 X49.35 Y69.695 E71.24488
G1 X49.69 Y69.355 E71.25654
G1 X50.035 Y69.01 E71.27856
G1 X50.035 Y62.38 E71.57768
G1 X49.69 Y62.035 E71.59969
G1 X49.35 Y61.695 E71.62139
G1 X49.831 Y61.695 E71.63307
G1 X50.435 Y61.695 E71.66032
G1 X50.435 Y49.695 E72.20172
G1 X49.831 Y49.695 E72.22897
G1 X49.35 Y49.695 E72.25067
G1 X49.69 Y49.355 E72.26233
G1 X50.035 Y49.01 E72.28435
G1 X50.035 Y42.38 E72.58347
G1 X49.69 Y42.035 E72.60548
G1 X49.35 Y41.695 E72.61714
G0 F3000 X48.865 Y41.295
G1 F1500 X50.035 Y41.295 E72.66993
G1 X50.035 Y40.126 E72.72267
G1 X51.503 Y38.495 E72.82167
G1 X133.635 Y38.495 E76.5272
G1 X133.635 Y92.895 E78.98155
G1 X51.503 Y92.895 E82.68707
G1 X50.035 Y91.264 E82.78608
G1 X50.035 Y90.095 E82.83882
G1 X48.865 Y90.095 E82.8916
G1 X48.384 Y90.095 E82.9133
G1 X48.724 Y89.755 E82.92497
G1 X49.635 Y88.844 E82.98309
G1 X49.635 Y82.546 E83.26724
G1 X48.724 Y81.635 E83.32536
G1 X48.384 Y81.295 E83.33702
G1 X42.086 Y81.295
G1 X41.746 Y81.635 E83.35872
G1 X41.175 Y82.206 E83.39515
G1 X40.835 Y82.546 E83.41684
G1 X40.835 Y82.065 E83.42853
G1 X40.835 Y81.295 E83.46327
G1 X41.605 Y81.295 E83.49801
G1 X42.086 Y81.295 E83.51971
G1 X48.384 Y81.295 E83.80385
G1 X48.865 Y81.295 E83.81554
