;FLAVOR:Marlin
;TIME:3268
;Filament used: 5.52485m
;Layer height: 0.3
;MINX:63.149
;MINY:61.249
;MINZ:0.3
;MAXX:93.309
;MAXY:115.626
;MAXZ:35.4
;Generated with Cura_SteamEngine 4.12.1
M82 ;absolute extrusion mode
G21 ;metric values
G90 ;absolute positioning
M82 ;set extruder to absolute mode
M107 ;start with the fan off

M104 S205.0 T0 ; start heating T0 to what is set in Cura
M140 S60 ; start heating the bed to what is set in Cura
M190 S60 ; start heating the bed to what is set in Cura
M109 S205.0 T0 ; start heating T0 to what is set in Cura

G28 X0 Y0 ;move X/Y to min endstops
G28 Z0 ;move Z to min endstops
G1 Z15.0 F2400 ;move the platform down 15mm
G92 E0 ;zero the extruded length
G1 F200 E3 ;extrude 3mm of feed stock
G92 E0 ;zero the extruded length again
G1 F2400
G0 Y20 F2400
M117 Printing...
G5
G92 E0
G92 E0
G1 F2400 E-1.2
;LAYER_COUNT:118
;LAYER:0
M107
G0 F3000 X64.156 Y65.144 Z0.3
;TYPE:SKIRT
G1 F2400 E0
G1 F1500 X64.559 Y64.747 E0.02552
G1 X65.014 Y64.411 E0.05104
G1 X65.511 Y64.142 E0.07654
G1 X66.041 Y63.946 E0.10203
G1 X66.538 Y63.835 E0.12501
G1 X69.481 Y63.373 E0.25941
G1 X72.11 Y62.882 E0.38008
G1 X74.801 Y62.3 E0.50429
G1 X77.511 Y61.633 E0.63021
G1 X78.458 Y61.387 E0.67435
G1 X79.014 Y61.283 E0.69987
G1 X79.672 Y61.251 E0.72959
G1 X79.784 Y61.249 E0.73465
G1 X83.194 Y61.249 E0.88849
G1 X83.897 Y61.259 E0.92021
G1 X84.46 Y61.307 E0.94571
G1 X85.011 Y61.434 E0.97122
G1 X85.539 Y61.638 E0.99676
G1 X86.209 Y62.008 E1.03129
G1 X87.134 Y62.558 E1.07984
G1 X87.585 Y62.836 E1.10374
G1 X88.044 Y63.166 E1.12925
G1 X88.451 Y63.558 E1.15474
G1 X88.8 Y64.003 E1.18026
G1 X89.082 Y64.493 E1.20576
G1 X89.293 Y65.018 E1.23129
G1 X89.432 Y65.456 E1.25202
G1 X89.825 Y66.794 E1.31494
G1 X89.958 Y67.441 E1.34474
G1 X89.994 Y68.007 E1.37033
G1 X89.999 Y68.312 E1.38409
G1 X89.999 Y74.746 E1.67437
G1 X90.039 Y77.546 E1.80071
G1 X90.152 Y80.217 E1.92133
G1 X90.346 Y82.956 E2.04521
G1 X90.61 Y85.612 E2.16563
G1 X90.962 Y88.364 E2.2908
G1 X91.374 Y90.985 E2.41051
G1 X91.88 Y93.712 E2.53564
G1 X92.442 Y96.322 E2.65609
G1 X93.127 Y99.107 E2.78549
G1 X93.17 Y99.272 E2.79318
G1 X93.273 Y99.828 E2.81869
G1 X93.307 Y100.487 E2.84846
G1 X93.309 Y100.609 E2.85397
G1 X93.309 Y104.019 E3.00782
G1 X93.299 Y104.723 E3.03958
G1 X93.251 Y105.286 E3.06508
G1 X93.124 Y105.837 E3.09059
G1 X93.012 Y106.154 E3.10576
G1 X92.615 Y107.145 E3.15392
G1 X91.642 Y109.674 E3.27617
G1 X90.727 Y112.265 E3.40015
G1 X90.564 Y112.749 E3.42319
G1 X90.345 Y113.27 E3.44869
G1 X90.056 Y113.756 E3.4742
G1 X89.593 Y114.307 E3.50667
G1 X89.446 Y114.453 E3.51601
G1 X89.017 Y114.822 E3.54154
G1 X88.541 Y115.127 E3.56705
G1 X88.027 Y115.362 E3.59255
G1 X87.485 Y115.522 E3.61805
G1 X86.765 Y115.613 E3.65079
G1 X86.169 Y115.625 E3.67768
G1 X68.58 Y115.626 E4.47124
G1 X67.917 Y115.616 E4.50116
G1 X67.353 Y115.567 E4.5267
G1 X66.803 Y115.44 E4.55217
G1 X66.275 Y115.236 E4.5777
G1 X65.782 Y114.96 E4.60319
G1 X65.332 Y114.617 E4.62872
G1 X65.004 Y114.292 E4.64955
G1 X64.65 Y113.851 E4.67507
G1 X64.362 Y113.365 E4.70056
G1 X64.146 Y112.842 E4.72608
G1 X64.005 Y112.295 E4.75157
G1 X63.942 Y111.688 E4.7791
G1 X63.931 Y111.258 E4.79851
G1 X63.929 Y108.367 E4.92894
G1 X63.931 Y107.328 E4.97582
G1 X63.931 Y98.586 E5.37023
G1 X63.891 Y95.786 E5.49657
G1 X63.778 Y93.115 E5.61718
G1 X63.584 Y90.384 E5.74071
G1 X63.307 Y87.6 E5.86693
G1 X63.186 Y86.542 E5.91498
G1 X63.15 Y85.775 E5.94962
G1 X63.149 Y68.417 E6.73276
G1 X63.159 Y67.729 E6.7638
G1 X63.208 Y67.166 E6.7893
G1 X63.335 Y66.615 E6.81481
G1 X63.538 Y66.087 E6.84033
G1 X63.814 Y65.594 E6.86582
G1 X64.156 Y65.144 E6.89132
G0 F3000 X64.55 Y65.307
G1 F1500 X64.947 Y64.947 E6.9155
G1 X65.394 Y64.65 E6.93971
G1 X65.879 Y64.422 E6.96389
G1 X66.6 Y64.231 E6.99754
G1 X69.511 Y63.774 E7.13049
G1 X72.203 Y63.271 E7.25404
G1 X74.876 Y62.693 E7.37743
G1 X77.607 Y62.021 E7.50431
G1 X78.559 Y61.774 E7.54869
G1 X79.086 Y61.678 E7.57286
G1 X79.683 Y61.65 E7.59982
G1 X83.188 Y61.649 E7.75795
G1 X83.891 Y61.659 E7.78967
G1 X84.425 Y61.707 E7.81386
G1 X84.947 Y61.833 E7.83809
G1 X85.64 Y62.141 E7.87231
G1 X86.051 Y62.379 E7.89373
G1 X86.978 Y62.931 E7.94241
G1 X87.375 Y63.176 E7.96346
G1 X87.809 Y63.491 E7.98765
G1 X88.191 Y63.867 E8.01183
G1 X88.514 Y64.296 E8.03606
G1 X88.769 Y64.767 E8.06023
G1 X89.022 Y65.484 E8.09453
G1 X89.441 Y66.906 E8.16141
G1 X89.561 Y67.49 E8.18831
G1 X89.594 Y68.021 E8.21232
G1 X89.599 Y68.318 E8.22572
G1 X89.599 Y74.752 E8.516
G1 X89.638 Y77.533 E8.64148
G1 X89.754 Y80.262 E8.76471
G1 X89.948 Y82.991 E8.88815
G1 X90.213 Y85.666 E9.00943
G1 X90.563 Y88.406 E9.13405
G1 X90.984 Y91.083 E9.25631
G1 X91.482 Y93.763 E9.3793
G1 X92.049 Y96.396 E9.50081
G1 X92.74 Y99.208 E9.63145
G1 X92.783 Y99.373 E9.63915
G1 X92.879 Y99.901 E9.66336
G1 X92.907 Y100.499 E9.69037
G1 X92.909 Y100.609 E9.69533
G1 X92.909 Y104.013 E9.84891
G1 X92.899 Y104.717 E9.88067
G1 X92.851 Y105.251 E9.90486
G1 X92.641 Y106.005 E9.94018
G1 X92.244 Y106.996 E9.98834
G1 X91.268 Y109.533 E10.11098
G1 X90.35 Y112.132 E10.23534
G1 X90.185 Y112.621 E10.25862
G1 X89.976 Y113.115 E10.28282
G1 X89.696 Y113.572 E10.307
G1 X89.311 Y114.023 E10.33376
G1 X89.164 Y114.169 E10.3431
G1 X88.756 Y114.518 E10.36733
G1 X88.301 Y114.802 E10.39153
G1 X87.809 Y115.015 E10.41571
G1 X87.291 Y115.153 E10.4399
G1 X86.752 Y115.213 E10.46437
G1 X86.166 Y115.225 E10.49081
G1 X68.586 Y115.226 E11.28396
G1 X67.923 Y115.216 E11.31388
G1 X67.389 Y115.168 E11.33807
G1 X66.868 Y115.041 E11.36226
G1 X66.371 Y114.838 E11.38648
G1 X65.91 Y114.564 E11.41068
G1 X65.334 Y114.061 E11.44518
G1 X65.297 Y114.021 E11.44764
G1 X64.963 Y113.601 E11.47185
G1 X64.696 Y113.136 E11.49604
G1 X64.5 Y112.637 E11.52023
G1 X64.38 Y112.114 E11.54444
G1 X64.332 Y111.356 E11.5787
G1 X64.329 Y108.368 E11.71351
G1 X64.331 Y107.329 E11.76039
G1 X64.331 Y98.58 E12.15512
G1 X64.292 Y95.799 E12.2806
G1 X64.176 Y93.07 E12.40383
G1 X63.983 Y90.35 E12.52686
G1 X63.704 Y87.554 E12.65363
G1 X63.583 Y86.496 E12.70168
G1 X63.55 Y85.765 E12.73469
G1 X63.549 Y68.423 E13.5171
G1 X63.559 Y67.735 E13.54815
G1 X63.607 Y67.201 E13.57234
G1 X63.734 Y66.679 E13.59657
G1 X63.936 Y66.183 E13.62074
G1 X64.21 Y65.722 E13.64493
G1 X64.55 Y65.307 E13.66914
G0 F3000 X64.606 Y65.858
G1 F1500 X64.942 Y65.48 E13.69195
G1 X65.333 Y65.159 E13.71478
G1 X65.769 Y64.904 E13.73757
G1 X66.241 Y64.722 E13.76039
G1 X66.663 Y64.626 E13.77992
G1 X69.576 Y64.169 E13.91295
G1 X72.282 Y63.663 E14.03715
G1 X74.984 Y63.079 E14.16187
G1 X77.674 Y62.417 E14.28686
G1 X78.659 Y62.161 E14.33277
G1 X79.374 Y62.059 E14.36536
G1 X79.784 Y62.049 E14.38386
G1 X83.183 Y62.049 E14.53721
G1 X83.886 Y62.059 E14.56893
G1 X84.389 Y62.106 E14.59172
G1 X84.879 Y62.232 E14.61455
G1 X85.44 Y62.488 E14.64237
G1 X85.847 Y62.723 E14.66358
G1 X86.768 Y63.272 E14.71195
G1 X87.165 Y63.517 E14.733
G1 X87.572 Y63.815 E14.75576
G1 X87.928 Y64.175 E14.7786
G1 X88.223 Y64.585 E14.80139
G1 X88.531 Y65.263 E14.83499
G1 X88.664 Y65.681 E14.85478
G1 X89.057 Y67.019 E14.91769
G1 X89.164 Y67.54 E14.94169
G1 X89.196 Y68.1 E14.96699
G1 X89.199 Y68.323 E14.97706
G1 X89.199 Y74.758 E15.26738
G1 X89.239 Y77.556 E15.39363
G1 X89.354 Y80.273 E15.51632
G1 X89.549 Y83.019 E15.64053
G1 X89.817 Y85.723 E15.76312
G1 X90.165 Y88.447 E15.88702
G1 X90.59 Y91.147 E16.01033
G1 X91.093 Y93.856 E16.13464
G1 X91.651 Y96.45 E16.25435
G1 X92.353 Y99.309 E16.38717
G1 X92.396 Y99.474 E16.39486
G1 X92.498 Y100.183 E16.42718
G1 X92.509 Y100.609 E16.44641
G1 X92.509 Y104.007 E16.59971
G1 X92.499 Y104.711 E16.63148
G1 X92.452 Y105.215 E16.65432
G1 X92.27 Y105.856 E16.68438
G1 X91.872 Y106.847 E16.73256
G1 X90.892 Y109.393 E16.85564
G1 X89.987 Y111.957 E16.97832
G1 X89.806 Y112.493 E17.00384
G1 X89.607 Y112.958 E17.02666
G1 X89.337 Y113.385 E17.04946
G1 X88.882 Y113.885 E17.07996
G1 X88.496 Y114.212 E17.10278
G1 X88.064 Y114.474 E17.12557
G1 X87.596 Y114.665 E17.14838
G1 X87.103 Y114.779 E17.17121
G1 X86.507 Y114.821 E17.19817
G1 X86.138 Y114.825 E17.21481
G1 X68.592 Y114.826 E18.00643
G1 X67.929 Y114.816 E18.03635
G1 X67.425 Y114.768 E18.05919
G1 X66.936 Y114.642 E18.08197
G1 X66.472 Y114.44 E18.1048
G1 X66.046 Y114.168 E18.12761
G1 X65.628 Y113.789 E18.15306
G1 X65.591 Y113.749 E18.15552
G1 X65.278 Y113.352 E18.17833
G1 X65.032 Y112.91 E18.20115
G1 X64.858 Y112.436 E18.22393
G1 X64.761 Y111.939 E18.24678
G1 X64.732 Y111.345 E18.27361
G1 X64.729 Y108.369 E18.40788
G1 X64.731 Y107.33 E18.45476
G1 X64.731 Y98.574 E18.8498
G1 X64.691 Y95.776 E18.97605
G1 X64.576 Y93.059 E19.09874
G1 X64.382 Y90.317 E19.22276
G1 X64.097 Y87.462 E19.35221
G1 X63.981 Y86.451 E19.39812
G1 X63.95 Y85.754 E19.4296
G1 X63.949 Y68.428 E20.21129
G1 X63.959 Y67.74 E20.24233
G1 X64.007 Y67.237 E20.26513
G1 X64.133 Y66.748 E20.28791
G1 X64.334 Y66.284 E20.31072
G1 X64.606 Y65.858 E20.33353
G1 F2400 E19.13353
G0 F3000 X67.349 Y71.928
;TYPE:SUPPORT
G1 F2400 E20.33353
G1 F1500 X67.884 Y71.928 E20.35767
G1 X67.946 Y71.99 E20.36162
G1 X68.526 Y71.946 E20.38786
G1 X68.539 Y71.928 E20.38887
G1 X69.111 Y71.928 E20.41467
G1 X69.579 Y71.691 E20.43834
G1 X70.804 Y70.028 E20.53153
G1 X75.649 Y70.028 E20.75012
G1 X75.649 Y83.828 E21.37273
G1 X70.804 Y83.828 E21.59132
G1 X69.579 Y82.165 E21.68451
G1 X69.111 Y81.928 E21.70817
G1 X68.539 Y81.928 E21.73398
G1 X68.526 Y81.91 E21.73498
G1 X67.946 Y81.866 E21.76123
G1 X67.884 Y81.928 E21.76518
G1 X67.349 Y81.928 E21.78932
G1 X67.349 Y71.928 E22.24049
G1 F2400 E21.04049
G0 F3000 X69.305 Y72.009
G1 F2400 E22.24049
G1 F1500 X75.489 Y72.009 E22.51949
G1 F2400 E21.31949
G0 F3000 X74.676 Y70.188
G1 F2400 E22.51949
G1 F1500 X74.676 Y83.668 E23.12766
G1 F2400 E21.92766
G0 F3000 X75.489 Y82.677
G1 F2400 E23.12766
G1 F1500 X70.155 Y82.677 E23.36831
G1 F2400 E22.16831
G0 F3000 X69.342 Y81.865
G1 F2400 E23.36831
G1 F1500 X69.342 Y71.99 E23.81384
G1 F2400 E22.61384
G0 F3000 X72.009 Y70.188
G1 F2400 E23.81384
G1 F1500 X72.009 Y83.668 E24.42201
G1 F2400 E23.22201
G0 F3000 X75.489 Y80.01
G1 F2400 E24.42201
G1 F1500 X67.509 Y80.01 E24.78205
G1 F2400 E23.58205
G0 F3000 X67.509 Y77.343
G1 F2400 E24.78205
G1 F1500 X75.489 Y77.343 E25.14208
G1 F2400 E23.94208
G0 F3000 X75.489 Y74.676
G1 F2400 E25.14208
G1 F1500 X67.509 Y74.676 E25.50211
G1 F2400 E24.30211
G0 F3000 X78.005 Y66.728
G1 F2400 E25.50211
G1 F1500 X78.005 Y66.433 E25.51542
G1 X79.255 Y66.433 E25.57181
G1 X79.654 Y66.034 E25.59727
G1 X79.654 Y65.449 E25.62367
G1 X83.644 Y65.449 E25.80368
G1 X83.644 Y66.034 E25.83007
G1 X84.043 Y66.433 E25.85553
G1 X85.293 Y66.433 E25.91193
G1 X85.293 Y66.728 E25.92524
G1 X78.005 Y66.728 E26.25405
G1 F2400 E25.05405
G0 F3000 X80.01 Y66.568
G1 F2400 E26.25405
G1 F1500 X80.01 Y65.609 E26.29732
G1 F2400 E25.09732
G0 F3000 X82.677 Y65.609
G1 F2400 E26.29732
G1 F1500 X82.677 Y66.568 E26.34058
G1 F2400 E25.14058
G0 F3000 X85.294 Y87.128
G1 F2400 E26.34058
G1 F1500 X85.294 Y87.423 E26.35389
G1 X84.043 Y87.423 E26.41033
G1 X83.644 Y87.822 E26.43579
G1 X83.644 Y88.406 E26.46214
G1 X79.654 Y88.406 E26.64215
G1 X79.654 Y87.822 E26.6685
G1 X79.255 Y87.423 E26.69396
G1 X78.005 Y87.423 E26.75036
G1 X78.005 Y87.128 E26.76367
G1 X85.294 Y87.128 E27.09252
G1 F2400 E25.89252
G0 F3000 X83.484 Y88.011
G1 F2400 E27.09252
G1 F1500 X79.814 Y88.011 E27.2581
G0 F3000 X80.01 Y88.246
G1 F1500 X80.01 Y87.288 E27.30132
G1 F2400 E26.10132
G0 F3000 X82.677 Y87.288
G1 F2400 E27.30132
G1 F1500 X82.677 Y88.246 E27.34454
G1 F2400 E26.14454
G0 F3000 X76.431 Y95.575
G1 F2400 E27.34454
G1 F1500 X76.431 Y109.375 E27.96715
G1 X71.586 Y109.375 E28.18574
G1 X70.361 Y107.712 E28.27893
G1 X69.893 Y107.475 E28.3026
G1 X69.321 Y107.475 E28.32841
G1 X69.308 Y107.457 E28.32941
G1 X68.728 Y107.413 E28.35565
G1 X68.666 Y107.475 E28.35961
G1 X68.131 Y107.475 E28.38374
G1 X68.131 Y97.475 E28.83491
G1 X68.666 Y97.475 E28.85905
G1 X68.728 Y97.537 E28.863
G1 X69.308 Y97.493 E28.88925
G1 X69.321 Y97.475 E28.89025
G1 X69.893 Y97.475 E28.91606
G1 X70.361 Y97.238 E28.93972
G1 X71.586 Y95.575 E29.03291
G1 X76.431 Y95.575 E29.2515
G0 F3000 X76.271 Y96.012
G1 F1500 X71.463 Y96.012 E29.46842
G0 F3000 X72.009 Y95.735
G1 F1500 X72.009 Y109.215 E30.0766
G1 F2400 E28.8766
G0 F3000 X74.676 Y109.215
G1 F2400 E30.0766
G1 F1500 X74.676 Y95.735 E30.68477
G1 F2400 E29.48477
G0 F3000 X76.271 Y98.679
G1 F2400 E30.68477
G1 F1500 X68.291 Y98.679 E31.0448
G1 F2400 E29.8448
G0 F3000 X69.342 Y97.65
G1 F2400 E31.0448
G1 F1500 X69.342 Y107.299 E31.48013
G1 F2400 E30.28013
G0 F3000 X68.291 Y106.68
G1 F2400 E31.48013
G1 F1500 X76.271 Y106.68 E31.84016
G1 F2400 E30.64016
G0 F3000 X76.271 Y104.013
G1 F2400 E31.84016
G1 F1500 X68.291 Y104.013 E32.20019
G1 F2400 E31.00019
G0 F3000 X68.291 Y101.346
G1 F2400 E32.20019
G1 F1500 X76.271 Y101.346 E32.56023
G1 F2400 E31.36023
G0 F3000 X87.831 Y98.83
G1 F2400 E32.56023
G1 F1500 X88.126 Y98.83 E32.57354
G1 X88.126 Y100.08 E32.62993
G1 X88.525 Y100.479 E32.65539
G1 X89.109 Y100.479 E32.68174
G1 X89.109 Y104.469 E32.86175
G1 X88.525 Y104.469 E32.8881
G1 X88.126 Y104.868 E32.91356
G1 X88.126 Y106.119 E32.97
G1 X87.831 Y106.119 E32.98331
G1 X87.831 Y98.83 E33.31217
G1 F2400 E32.11217
G0 F3000 X88.011 Y100.232
G1 F2400 E33.31217
G1 F1500 X88.011 Y104.715 E33.51442
G0 F3000 X87.991 Y104.013
G1 F1500 X88.949 Y104.013 E33.55765
G1 F2400 E32.35765
G0 F3000 X88.949 Y101.346
G1 F2400 E33.55765
G1 F1500 X87.991 Y101.346 E33.60087
G1 F2400 E32.40087
;MESH:m4_dovetail_mount-dovetail_cube_side.stl
G0 F3000 X85.4 Y85.478
;TYPE:WALL-INNER
G1 F2400 E33.60087
G1 F1500 X77.149 Y85.478 E33.97313
G1 X70.047 Y85.478 E34.29354
G1 X67.749 Y85.479 E34.39722
G1 X67.749 Y83.428 E34.48976
G1 X68.646 Y83.428 E34.53023
G1 X70.046 Y85.328 E34.63671
G1 X77.149 Y85.328 E34.7572
G1 X77.149 Y68.528 E35.51516
G1 X70.046 Y68.528 E35.83562
G1 X68.646 Y70.428 E35.9421
G1 X67.749 Y70.428 E35.98257
G1 X67.749 Y68.377 E36.0751
G1 X70.046 Y68.377 E36.17874
G1 X77.149 Y68.377 E36.30001
G1 X85.399 Y68.377 E36.67223
G1 X85.4 Y85.478 E37.44377
G0 F3000 X85.766 Y85.878
;TYPE:WALL-OUTER
G1 F1500 X67.349 Y85.879 E38.27468
G1 X67.349 Y83.028 E38.40331
G1 X68.848 Y83.028 E38.47094
G1 X70.248 Y84.928 E38.57742
G1 X76.749 Y84.928 E38.87072
G1 X76.749 Y68.928 E39.59259
G1 X70.248 Y68.928 E39.88589
G1 X68.848 Y70.828 E39.99237
G1 X67.349 Y70.828 E40.06
G1 X67.349 Y67.977 E40.18863
G1 X85.766 Y67.977 E41.01955
G1 X85.799 Y68.011 E41.02168
G1 X85.8 Y85.845 E41.82629
G1 X85.766 Y85.878 E41.82843
G0 F3000 X85.566 Y85.878
G0 X85.359 Y85.437
G0 X85.01 Y85.088
;TYPE:SKIN
G1 F1500 X77.539 Y85.088 E42.17194
G1 X77.539 Y68.767 E42.92236
G1 X85.009 Y68.767 E43.26582
G1 X85.01 Y85.088 E44.01624
G1 F2400 E42.81624
G0 F3000 X78.119 Y84.907
G1 F2400 E44.01624
G1 F1500 X77.718 Y84.506 E44.04232
G0 F3000 X77.718 Y83.94
G1 F1500 X78.684 Y84.907 E44.10516
G0 F3000 X79.25 Y84.907
G1 F1500 X77.718 Y83.374 E44.20481
G0 F3000 X77.718 Y82.809
G1 F1500 X79.816 Y84.907 E44.34123
G0 F3000 X80.381 Y84.907
G1 F1500 X77.718 Y82.243 E44.51442
G0 F3000 X77.718 Y81.677
G1 F1500 X80.947 Y84.907 E44.72442
G0 F3000 X81.513 Y84.907
G1 F1500 X77.718 Y81.112 E44.97118
G0 F3000 X77.718 Y80.546
G1 F1500 X82.078 Y84.907 E45.25472
G0 F3000 X82.644 Y84.907
G1 F1500 X77.718 Y79.98 E45.57506
G0 F3000 X77.718 Y79.415
G1 F1500 X83.21 Y84.907 E45.93217
G0 F3000 X83.775 Y84.907
G1 F1500 X77.718 Y78.849 E46.32605
G0 F3000 X77.718 Y78.283
G1 F1500 X84.341 Y84.907 E46.75674
G0 F3000 X84.829 Y84.829
G1 F1500 X77.718 Y77.718 E47.21912
G0 F3000 X77.718 Y77.152
G1 F1500 X84.829 Y84.263 E47.68151
G0 F3000 X84.829 Y83.698
G1 F1500 X77.718 Y76.586 E48.14392
G0 F3000 X77.718 Y76.021
G1 F1500 X84.829 Y83.132 E48.60631
G0 F3000 X84.829 Y82.566
G1 F1500 X77.718 Y75.455 E49.06869
G0 F3000 X77.718 Y74.889
G1 F1500 X84.829 Y82.001 E49.53111
G0 F3000 X84.829 Y81.435
G1 F1500 X77.718 Y74.323 E49.99353
G0 F3000 X77.718 Y73.758
G1 F1500 X84.829 Y80.869 E50.45591
G0 F3000 X84.829 Y80.303
G1 F1500 X77.718 Y73.192 E50.9183
G0 F3000 X77.718 Y72.626
G1 F1500 X84.829 Y79.738 E51.38071
G0 F3000 X84.829 Y79.172
G1 F1500 X77.718 Y72.061 E51.8431
G0 F3000 X77.718 Y71.495
G1 F1500 X84.829 Y78.606 E52.30548
G0 F3000 X84.829 Y78.041
G1 F1500 X77.718 Y70.929 E52.7679
G0 F3000 X77.718 Y70.364
