;FLAVOR:Marlin
;TIME:1936
;Filament used: 3.11361m
;Layer height: 0.3
;MINX:39.5
;MINY:54.899
;MINZ:0.3
;MAXX:140.5
;MAXY:114.8
;MAXZ:15
;Generated with Cura_SteamEngine 4.12.1
M82 ;absolute extrusion mode
G21 ;metric values
G90 ;absolute positioning
M82 ;set extruder to absolute mode
M107 ;start with the fan off

M104 S200 T0 ; start heating T0 to what is set in Cura
M140 S60 ; start heating the bed to what is set in Cura
M190 S60 ; start heating the bed to what is set in Cura
M109 S200 T0 ; start heating T0 to what is set in Cura

G28 X0 Y0 ;move X/Y to min endstops
G28 Z0 ;move Z to min endstops
G1 Z15.0 F2400 ;move the platform down 15mm
G92 E0 ;zero the extruded length
G1 F200 E3 ;extrude 3mm of feed stock
G92 E0 ;zero the extruded length again
G1 F2400
G0 Y20 F2400
M117 Printing...
G5
G92 E0
G92 E0
G1 F2400 E-1.2
;LAYER_COUNT:50
;LAYER:0
M107
G0 F3000 X41.87 Y81.659 Z0.3
;TYPE:SKIRT
G1 F2400 E0
G1 F1500 X42.282 Y81.5 E0.01992
G1 X43.487 Y81.111 E0.07705
G1 X46.051 Y80.242 E0.1992
G1 X48.606 Y79.296 E0.32212
G1 X51.122 Y78.283 E0.44448
G1 X53.606 Y77.198 E0.56678
G1 X56.061 Y76.044 E0.68917
G1 X58.496 Y74.813 E0.81227
G1 X60.88 Y73.522 E0.93458
G1 X63.246 Y72.152 E1.05793
G1 X65.528 Y70.745 E1.17889
G1 X67.813 Y69.245 E1.30221
G1 X69.914 Y67.781 E1.41774
G1 X70.265 Y67.531 E1.43718
G1 X70.748 Y67.236 E1.46272
G1 X71.15 Y67.056 E1.48259
G1 X71.735 Y66.831 E1.51087
G1 X74.314 Y65.798 E1.63621
G1 X76.786 Y64.725 E1.75779
G1 X79.276 Y63.561 E1.8818
G1 X81.683 Y62.351 E2.00335
G1 X84.07 Y61.065 E2.12567
G1 X86.519 Y59.653 E2.25321
G1 X87.291 Y59.223 E2.29308
G1 X88.347 Y58.746 E2.34536
G1 X88.984 Y58.47 E2.37668
G1 X91.406 Y57.335 E2.49736
G1 X93.875 Y56.092 E2.62207
G1 X94.261 Y55.883 E2.64188
G1 X95.248 Y55.369 E2.69208
G1 X95.767 Y55.144 E2.7176
G1 X96.312 Y54.995 E2.74309
G1 X97.007 Y54.918 E2.77464
G1 X97.589 Y54.905 E2.80091
G1 X98.216 Y54.911 E2.8292
G1 X100.936 Y54.911 E2.95191
G1 X102.005 Y54.899 E3.00015
G1 X102.355 Y54.904 E3.01594
G1 X102.918 Y54.952 E3.04143
G1 X103.469 Y55.079 E3.06694
G1 X103.997 Y55.283 E3.09248
G1 X104.49 Y55.558 E3.11795
G1 X104.94 Y55.901 E3.14348
G1 X105.278 Y56.236 E3.16495
G1 X106.146 Y57.207 E3.22371
G1 X107.122 Y58.346 E3.29138
G1 X108.941 Y60.351 E3.41352
G1 X110.828 Y62.316 E3.53643
G1 X112.772 Y64.229 E3.65949
G1 X114.747 Y66.067 E3.78121
G1 X116.782 Y67.853 E3.90336
G1 X118.901 Y69.611 E4.02758
G1 X121.023 Y71.273 E4.14919
G1 X123.201 Y72.881 E4.27134
G1 X125.41 Y74.416 E4.3927
G1 X127.718 Y75.927 E4.51716
G1 X130.026 Y77.345 E4.63937
G1 X132.345 Y78.681 E4.76012
G1 X134.763 Y79.985 E4.88406
G1 X137.797 Y81.487 E5.0368
G1 X138.294 Y81.738 E5.06192
G1 X138.78 Y82.027 E5.08743
G1 X139.219 Y82.383 E5.11293
G1 X139.604 Y82.797 E5.13844
G1 X139.927 Y83.261 E5.16395
G1 X140.182 Y83.766 E5.18947
G1 X140.362 Y84.301 E5.21494
G1 X140.465 Y84.857 E5.24045
G1 X140.498 Y85.518 E5.27031
G1 X140.5 Y85.63 E5.27536
G1 X140.5 Y97.042 E5.79023
G1 X140.495 Y98.528 E5.85728
G1 X140.5 Y99.195 E5.88737
G1 X140.5 Y110.114 E6.38
G1 X140.491 Y110.841 E6.4128
G1 X140.444 Y111.404 E6.43829
G1 X140.318 Y111.955 E6.46379
G1 X140.116 Y112.483 E6.4893
G1 X139.841 Y112.977 E6.51481
G1 X139.499 Y113.427 E6.54031
G1 X139.097 Y113.825 E6.56583
G1 X138.644 Y114.162 E6.5913
G1 X138.147 Y114.432 E6.61682
G1 X137.617 Y114.629 E6.64233
G1 X137.065 Y114.75 E6.66783
G1 X136.282 Y114.798 E6.70322
G1 X136.17 Y114.8 E6.70827
G1 X44.155 Y114.8 E10.85969
G1 X43.457 Y114.791 E10.89118
G1 X42.894 Y114.743 E10.91667
G1 X42.343 Y114.617 E10.94217
G1 X41.815 Y114.415 E10.96768
G1 X41.321 Y114.14 E10.99319
G1 X40.871 Y113.798 E11.01869
G1 X40.473 Y113.396 E11.04421
G1 X40.137 Y112.942 E11.06969
G1 X39.867 Y112.445 E11.09521
G1 X39.67 Y111.915 E11.12072
G1 X39.55 Y111.363 E11.14621
G1 X39.501 Y110.566 E11.18223
G1 X39.5 Y99.058 E11.70144
G1 X39.505 Y97.572 E11.76848
G1 X39.5 Y96.905 E11.79857
G1 X39.501 Y85.908 E12.29472
G1 X39.512 Y85.241 E12.32482
G1 X39.561 Y84.678 E12.35032
G1 X39.689 Y84.127 E12.37584
G1 X39.893 Y83.6 E12.40133
G1 X40.17 Y83.107 E12.42685
G1 X40.514 Y82.658 E12.45237
G1 X40.917 Y82.262 E12.47786
G1 X41.372 Y81.927 E12.50335
G1 X41.87 Y81.659 E12.52886
G0 F3000 X41.752 Y82.166
G1 F1500 X42.405 Y81.881 E12.56101
G1 X43.61 Y81.492 E12.61814
G1 X46.181 Y80.621 E12.74061
G1 X48.758 Y79.666 E12.8646
G1 X51.282 Y78.65 E12.98735
G1 X53.757 Y77.569 E13.1092
G1 X56.247 Y76.398 E13.23335
G1 X58.674 Y75.171 E13.35604
G1 X61.079 Y73.869 E13.47943
G1 X63.435 Y72.505 E13.60225
G1 X65.761 Y71.071 E13.72554
G1 X68.014 Y69.592 E13.84713
G1 X70.177 Y68.085 E13.96607
G1 X70.497 Y67.857 E13.98379
G1 X70.956 Y67.579 E14.008
G1 X71.294 Y67.429 E14.02469
G1 X71.884 Y67.202 E14.05321
G1 X74.473 Y66.165 E14.17904
G1 X76.979 Y65.077 E14.3023
G1 X79.404 Y63.943 E14.42308
G1 X81.887 Y62.695 E14.54845
G1 X84.265 Y61.414 E14.67032
G1 X86.71 Y60.005 E14.79763
G1 X87.456 Y59.588 E14.83619
G1 X88.507 Y59.113 E14.88823
G1 X89.135 Y58.841 E14.91911
G1 X91.606 Y57.683 E15.04222
G1 X94.023 Y56.466 E15.16431
G1 X94.446 Y56.238 E15.18599
G1 X95.433 Y55.724 E15.2362
G1 X95.926 Y55.512 E15.26041
G1 X96.445 Y55.376 E15.28462
G1 X97.016 Y55.318 E15.31051
G1 X97.598 Y55.305 E15.33678
G1 X98.21 Y55.311 E15.36439
G1 X100.941 Y55.311 E15.4876
G1 X101.999 Y55.299 E15.53534
G1 X102.349 Y55.304 E15.55113
G1 X102.884 Y55.352 E15.57537
G1 X103.405 Y55.478 E15.59955
G1 X103.901 Y55.681 E15.62373
G1 X104.362 Y55.955 E15.64793
G1 X104.778 Y56.294 E15.67214
G1 X104.98 Y56.503 E15.68525
G1 X105.842 Y57.467 E15.7436
G1 X106.821 Y58.609 E15.81146
G1 X108.639 Y60.614 E15.93357
G1 X110.559 Y62.613 E16.05862
G1 X112.484 Y64.508 E16.18049
G1 X114.494 Y66.377 E16.30432
G1 X116.525 Y68.161 E16.42628
G1 X118.627 Y69.904 E16.54948
G1 X120.785 Y71.594 E16.67315
G1 X122.958 Y73.198 E16.795
G1 X125.21 Y74.763 E16.91873
G1 X127.496 Y76.26 E17.04201
G1 X129.797 Y77.674 E17.16386
G1 X132.177 Y79.045 E17.28778
G1 X134.563 Y80.332 E17.41009
G1 X137.617 Y81.844 E17.56384
G1 X138.114 Y82.095 E17.58896
G1 X138.573 Y82.371 E17.61312
G1 X138.986 Y82.713 E17.63731
G1 X139.344 Y83.113 E17.66153
G1 X139.639 Y83.561 E17.68573
G1 X139.863 Y84.048 E17.70992
G1 X140.013 Y84.563 E17.73412
G1 X140.09 Y85.207 E17.76338
G1 X140.1 Y85.63 E17.78247
G1 X140.1 Y97.041 E18.2973
G1 X140.095 Y98.527 E18.36434
G1 X140.1 Y99.198 E18.39462
G1 X140.1 Y110.109 E18.88688
G1 X140.091 Y110.836 E18.91969
G1 X140.044 Y111.37 E18.94387
G1 X139.919 Y111.891 E18.96805
G1 X139.717 Y112.388 E18.99225
G1 X139.444 Y112.85 E19.01646
G1 X139.106 Y113.266 E19.04064
G1 X138.709 Y113.627 E19.06485
G1 X138.263 Y113.925 E19.08905
G1 X137.778 Y114.153 E19.11323
G1 X137.264 Y114.307 E19.13744
G1 X136.592 Y114.39 E19.16799
G1 X136.17 Y114.4 E19.18703
G1 X44.161 Y114.4 E23.33818
G1 X43.463 Y114.391 E23.36967
G1 X42.928 Y114.344 E23.3939
G1 X42.407 Y114.218 E23.41808
G1 X41.91 Y114.016 E23.44229
G1 X41.449 Y113.743 E23.46646
G1 X41.033 Y113.404 E23.49067
G1 X40.672 Y113.008 E23.51485
G1 X40.374 Y112.562 E23.53905
G1 X40.146 Y112.076 E23.56327
G1 X39.993 Y111.562 E23.58746
G1 X39.91 Y110.888 E23.6181
G1 X39.9 Y110.458 E23.63751
G1 X39.9 Y99.059 E24.15179
G1 X39.905 Y97.573 E24.21884
G1 X39.9 Y96.902 E24.24911
G1 X39.9 Y85.915 E24.74481
G1 X39.911 Y85.248 E24.77491
G1 X39.96 Y84.714 E24.7991
G1 X40.088 Y84.193 E24.8233
G1 X40.291 Y83.697 E24.84748
G1 X40.566 Y83.236 E24.8717
G1 X40.907 Y82.822 E24.8959
G1 X41.305 Y82.462 E24.92011
G1 X41.752 Y82.166 E24.9443
G0 F3000 X42.127 Y82.422
G1 F1500 X42.528 Y82.262 E24.96378
G1 X43.689 Y81.887 E25.01882
G1 X46.333 Y80.991 E25.14478
G1 X48.898 Y80.041 E25.26818
G1 X51.425 Y79.023 E25.3911
G1 X53.938 Y77.926 E25.51481
G1 X56.419 Y76.759 E25.63851
G1 X58.865 Y75.522 E25.76217
G1 X61.291 Y74.21 E25.8866
G1 X63.613 Y72.865 E26.00767
G1 X65.986 Y71.402 E26.13345
G1 X68.241 Y69.921 E26.25516
G1 X70.406 Y68.414 E26.37417
G1 X70.73 Y68.183 E26.39213
G1 X71.163 Y67.923 E26.41491
G1 X71.437 Y67.802 E26.42843
G1 X72.047 Y67.567 E26.45792
G1 X74.645 Y66.527 E26.58418
G1 X77.115 Y65.454 E26.70568
G1 X79.617 Y64.285 E26.83027
G1 X82.051 Y63.062 E26.95317
G1 X84.449 Y61.769 E27.07608
G1 X86.941 Y60.333 E27.20584
G1 X87.621 Y59.952 E27.24101
G1 X88.666 Y59.48 E27.29274
G1 X89.285 Y59.212 E27.32318
G1 X91.79 Y58.038 E27.44799
G1 X94.214 Y56.817 E27.57044
G1 X94.631 Y56.593 E27.5918
G1 X95.618 Y56.079 E27.64201
G1 X96.083 Y55.881 E27.66481
G1 X96.574 Y55.76 E27.68762
G1 X97.025 Y55.718 E27.70806
G1 X97.725 Y55.704 E27.73965
G1 X98.205 Y55.711 E27.76131
G1 X100.946 Y55.711 E27.88497
G1 X101.994 Y55.699 E27.93226
G1 X102.344 Y55.704 E27.94805
G1 X102.847 Y55.751 E27.97084
G1 X103.337 Y55.877 E27.99367
G1 X103.8 Y56.079 E28.01646
G1 X104.227 Y56.351 E28.0393
G1 X104.682 Y56.77 E28.06721
G1 X105.539 Y57.727 E28.12516
G1 X106.54 Y58.895 E28.19457
G1 X108.37 Y60.912 E28.31744
G1 X110.238 Y62.857 E28.43911
G1 X112.232 Y64.82 E28.56535
G1 X114.204 Y66.654 E28.68685
G1 X116.272 Y68.47 E28.81102
G1 X118.388 Y70.225 E28.93505
G1 X120.524 Y71.898 E29.05746
G1 X122.738 Y73.532 E29.1816
G1 X124.992 Y75.099 E29.30546
G1 X127.288 Y76.603 E29.42929
G1 X129.593 Y78.019 E29.55134
G1 X131.994 Y79.401 E29.67633
G1 X134.374 Y80.686 E29.79836
G1 X137.437 Y82.201 E29.95253
G1 X137.934 Y82.452 E29.97765
G1 X138.365 Y82.714 E30.00041
G1 X138.751 Y83.042 E30.02326
G1 X139.079 Y83.426 E30.04605
G1 X139.343 Y83.857 E30.06885
G1 X139.536 Y84.325 E30.09169
G1 X139.653 Y84.817 E30.11451
G1 X139.699 Y85.541 E30.14724
G1 X139.7 Y97.04 E30.66603
G1 X139.695 Y98.526 E30.73308
G1 X139.7 Y99.2 E30.76349
G1 X139.7 Y110.104 E31.25544
G1 X139.691 Y110.831 E31.28824
G1 X139.645 Y111.334 E31.31103
G1 X139.52 Y111.824 E31.33384
G1 X139.319 Y112.288 E31.35666
G1 X139.048 Y112.715 E31.37948
G1 X138.713 Y113.094 E31.4023
G1 X138.323 Y113.415 E31.42509
G1 X137.887 Y113.671 E31.4479
G1 X137.416 Y113.854 E31.47069
G1 X136.922 Y113.962 E31.49351
G1 X136.26 Y113.999 E31.52342
G1 X44.166 Y114 E35.6784
G1 X43.468 Y113.991 E35.70989
G1 X42.964 Y113.944 E35.73273
G1 X42.474 Y113.819 E35.75555
G1 X42.01 Y113.618 E35.77836
G1 X41.584 Y113.347 E35.80114
G1 X41.205 Y113.012 E35.82396
G1 X40.884 Y112.621 E35.84679
G1 X40.629 Y112.185 E35.86957
G1 X40.445 Y111.714 E35.89239
G1 X40.338 Y111.22 E35.91519
G1 X40.301 Y110.544 E35.94574
G1 X40.3 Y99.06 E36.46386
G1 X40.305 Y97.574 E36.5309
G1 X40.3 Y96.9 E36.56131
G1 X40.3 Y85.921 E37.05665
G1 X40.311 Y85.254 E37.08674
G1 X40.36 Y84.751 E37.10955
G1 X40.487 Y84.262 E37.13234
G1 X40.689 Y83.798 E37.15517
G1 X40.962 Y83.373 E37.17796
G1 X41.298 Y82.995 E37.20078
G1 X41.69 Y82.676 E37.22358
G1 X42.127 Y82.422 E37.24638
G1 F2400 E36.04638
;MESH:clip.stl(1)
G0 F3000 X72.577 Y82.859
;TYPE:WALL-INNER
G1 F2400 E37.24638
G1 F1500 X72.577 Y81.525 E37.30657
G1 X73.177 Y80.926 E37.34482
G1 X73.177 Y79.752 E37.39779
G1 X73.177 Y77.882 E37.48216
G1 X72.377 Y77.282 E37.52727
G1 X72.377 Y77.277 E37.5275
G1 X73.177 Y76.677 E37.57262
G1 X73.177 Y74.806 E37.65703
G1 X73.177 Y73.632 E37.71
G1 X72.577 Y73.033 E37.74825
G1 X72.577 Y71.699 E37.80843
G1 X72.847 Y71.384 E37.82715
G1 X73.187 Y71.724 E37.84884
G1 X73.187 Y73.163 E37.91377
G1 X73.187 Y73.632 E37.92621
G1 X73.187 Y74.806 E37.92753
G1 X73.348 Y76.619 E37.94628
G1 X75.182 Y76.88 E38.02986
G1 X77.016 Y76.619 E38.11343
G1 X77.177 Y74.806 E38.19555
G1 X77.177 Y73.632 E38.24852
G1 X77.177 Y73.163 E38.26968
G1 X77.177 Y71.724 E38.3346
G1 X77.517 Y71.384 E38.3563
G1 X77.787 Y71.699 E38.37501
G1 X77.787 Y73.033 E38.4352
G1 X77.187 Y73.632 E38.46472
G1 X77.187 Y74.806 E38.46605
G1 X77.187 Y76.677 E38.48709
G1 X77.987 Y77.277 E38.53221
G1 X77.987 Y77.282 E38.53243
G1 X77.187 Y77.882 E38.57755
G1 X77.187 Y79.752 E38.66192
G1 X77.187 Y80.926 E38.71489
G1 X77.787 Y81.525 E38.75314
G1 X77.787 Y82.859 E38.81332
G1 X77.517 Y83.174 E38.83204
G1 X77.177 Y82.834 E38.85373
G1 X77.177 Y81.395 E38.91866
G1 X77.177 Y80.926 E38.9311
G1 X77.177 Y79.752 E38.93242
G1 X77.016 Y77.939 E38.95119
G1 X75.182 Y77.678 E39.03476
G1 X73.348 Y77.939 E39.11834
G1 X73.187 Y79.752 E39.1371
G1 X73.187 Y80.926 E39.13843
G1 X73.187 Y81.395 E39.15087
G1 X73.187 Y82.834 E39.21579
G1 X72.847 Y83.174 E39.23749
G1 X72.577 Y82.859 E39.2562
G0 F3000 X72.182 Y83.005
;TYPE:WALL-OUTER
G1 F1500 X72.182 Y81.361 E39.33038
G1 X72.782 Y80.762 E39.36863
G1 X72.782 Y78.079 E39.48968
G1 X71.982 Y77.479 E39.53479
G1 X71.982 Y77.079 E39.55284
G1 X72.782 Y76.479 E39.59796
G1 X72.782 Y73.796 E39.719
G1 X72.182 Y73.197 E39.75725
G1 X72.182 Y71.553 E39.83143
G1 X72.674 Y70.979 E39.86553
G1 X73 Y70.979 E39.88024
G1 X73.582 Y71.561 E39.91738
G1 X73.582 Y74.788 E40.06297
G1 X73.714 Y76.272 E40.13019
G1 X75.182 Y76.481 E40.19709
G1 X76.65 Y76.272 E40.26398
G1 X76.782 Y74.788 E40.3312
G1 X76.782 Y71.561 E40.47679
G1 X77.364 Y70.979 E40.51393
G1 X77.69 Y70.979 E40.52864
G1 X78.182 Y71.553 E40.56274
G1 X78.182 Y73.197 E40.63692
G1 X77.582 Y73.796 E40.67517
G1 X77.582 Y76.479 E40.79622
G1 X78.382 Y77.079 E40.84133
G1 X78.382 Y77.479 E40.85938
G1 X77.582 Y78.079 E40.9045
G1 X77.582 Y80.762 E41.02554
G1 X78.182 Y81.361 E41.06379
G1 X78.182 Y83.005 E41.13797
G1 X77.69 Y83.579 E41.17207
G1 X77.364 Y83.579 E41.18678
G1 X76.782 Y82.997 E41.22392
G1 X76.782 Y79.77 E41.36951
G1 X76.65 Y78.286 E41.43673
G1 X75.182 Y78.077 E41.50363
G1 X73.714 Y78.286 E41.57052
G1 X73.582 Y79.77 E41.63774
G1 X73.582 Y82.997 E41.78333
G1 X73 Y83.579 E41.82047
G1 X72.674 Y83.579 E41.83518
G1 X72.182 Y83.005 E41.86928
G0 F3000 X72.182 Y82.805
G0 X72.622 Y82.805
G0 X73.006 Y82.623
;TYPE:SKIN
G1 F1500 X72.757 Y82.373 E41.88551
G0 F3000 X73.006 Y82.057
G1 F1500 X72.757 Y81.808 E41.9017
G0 F3000 X73.006 Y81.491
G1 F1500 X72.935 Y81.42 E41.90632
G1 F2400 E40.70632
G0 F3000 X77.607 Y82.698
G1 F2400 E41.90632
G1 F1500 X77.356 Y82.447 E41.92264
G0 F3000 X77.607 Y82.132
G1 F1500 X77.356 Y81.882 E41.93893
G1 F2400 E40.73893
G0 F3000 X76.991 Y77.541
G1 F2400 E41.93893
G1 F1500 X75.182 Y77.284 E42.02294
G1 X73.373 Y77.541 E42.10695
G1 X73.024 Y77.279 E42.12701
G1 X73.374 Y77.017 E42.14711
G1 X75.182 Y77.274 E42.23108
G1 X76.99 Y77.017 E42.31504
G1 X77.34 Y77.279 E42.33515
G1 X76.991 Y77.541 E42.35521
G0 F3000 X76.759 Y77.324
G1 F1500 X76.677 Y77.243 E42.36051
G1 F2400 E41.16051
G0 F3000 X72.756 Y72.756
G1 F2400 E42.36051
G1 F1500 X73.006 Y73.006 E42.37677
G0 F3000 X73.006 Y72.44
G1 F1500 X72.756 Y72.19 E42.39302
G0 F3000 X73.006 Y71.875
G1 F1500 X72.821 Y71.69 E42.40505
G1 F2400 E41.20505
G0 F3000 X77.405 Y71.748
G1 F2400 E42.40505
G1 F1500 X77.606 Y71.949 E42.41812
G0 F3000 X77.356 Y72.264
G1 F1500 X77.606 Y72.515 E42.43441
G0 F3000 X77.356 Y72.83
G1 F1500 X77.545 Y73.02 E42.44673
G1 F2400 E41.24673
;MESH:clip.stl
G0 F3000 X81.644 Y75.884
;TYPE:WALL-INNER
G1 F2400 E42.44673
G1 F1500 X83.478 Y76.145 E42.53031
G1 X85.312 Y75.884 E42.61389
G1 X85.473 Y74.071 E42.69601
G1 X85.473 Y72.897 E42.74897
G1 X85.473 Y72.428 E42.77013
G1 X85.473 Y70.989 E42.83506
G1 X85.813 Y70.649 E42.85675
G1 X86.083 Y70.964 E42.87547
G1 X86.083 Y72.298 E42.93565
G1 X85.483 Y72.897 E42.96518
G1 X85.483 Y74.071 E42.9665
G1 X85.483 Y75.942 E42.98755
G1 X86.283 Y76.542 E43.03266
G1 X86.283 Y76.547 E43.03289
G1 X85.483 Y77.147 E43.07801
G1 X85.483 Y79.017 E43.16237
G1 X85.483 Y80.191 E43.21534
G1 X86.083 Y80.79 E43.25359
G1 X86.083 Y82.124 E43.31378
G1 X85.813 Y82.439 E43.3325
G1 X85.473 Y82.099 E43.35419
G1 X85.473 Y80.66 E43.41911
G1 X85.473 Y80.191 E43.43155
G1 X85.473 Y79.017 E43.43288
G1 X85.312 Y77.204 E43.45164
G1 X83.478 Y76.943 E43.53522
G1 X81.644 Y77.204 E43.6188
G1 X81.483 Y79.017 E43.70092
G1 X81.483 Y80.191 E43.75388
G1 X81.483 Y80.66 E43.77504
G1 X81.483 Y82.099 E43.83996
G1 X81.143 Y82.439 E43.86166
G1 X80.873 Y82.124 E43.88038
G1 X80.873 Y80.79 E43.94056
G1 X81.473 Y80.191 E43.97008
G1 X81.473 Y79.017 E43.97141
G1 X81.473 Y77.147 E43.99243
G1 X80.673 Y76.547 E44.03754
G1 X80.673 Y76.542 E44.03777
G1 X81.473 Y75.942 E44.08289
G1 X81.473 Y74.071 E44.1673
G1 X81.473 Y72.897 E44.22027
G1 X80.873 Y72.298 E44.25852
G1 X80.873 Y70.964 E44.3187
G1 X81.143 Y70.649 E44.33742
G1 X81.483 Y70.989 E44.35912
G1 X81.483 Y72.428 E44.42404
G1 X81.483 Y72.897 E44.43648
G1 X81.483 Y74.071 E44.43781
