;FLAVOR:Marlin
;TIME:1243
;Filament used: 1.93979m
;Layer height: 0.3
;MINX:70.105
;MINY:59.253
;MINZ:0.3
;MAXX:109.895
;MAXY:102.447
;MAXZ:9.9
;Generated with Cura_SteamEngine 4.12.1
M82 ;absolute extrusion mode
G21 ;metric values
G90 ;absolute positioning
M82 ;set extruder to absolute mode
M107 ;start with the fan off

M104 S205.0 T0 ; start heating T0 to what is set in Cura
M140 S60 ; start heating the bed to what is set in Cura
M190 S60 ; start heating the bed to what is set in Cura
M109 S205.0 T0 ; start heating T0 to what is set in Cura

G28 X0 Y0 ;move X/Y to min endstops
G28 Z0 ;move Z to min endstops
G1 Z15.0 F2400 ;move the platform down 15mm
G92 E0 ;zero the extruded length
G1 F200 E3 ;extrude 3mm of feed stock
G92 E0 ;zero the extruded length again
G1 F2400
G0 Y20 F2400
M117 Printing...
G5
G92 E0
G92 E0
G1 F2400 E-1.2
;LAYER_COUNT:33
;LAYER:0
M107
G0 F3000 X71.109 Y60.627 Z0.3
;TYPE:SKIRT
G1 F2400 E0
G1 F1500 X71.511 Y60.23 E0.02549
G1 X71.965 Y59.893 E0.051
G1 X72.462 Y59.624 E0.0765
G1 X72.992 Y59.427 E0.10201
G1 X73.545 Y59.308 E0.12753
G1 X74.323 Y59.26 E0.16269
G1 X74.435 Y59.258 E0.16775
G1 X85.291 Y59.258 E0.65754
G1 X86.293 Y59.253 E0.70274
G1 X95.67 Y59.253 E1.1258
G1 X96.5 Y59.258 E1.16325
G1 X97.726 Y59.277 E1.21857
G1 X99.601 Y59.329 E1.3032
G1 X102.325 Y59.329 E1.42609
G1 X103.196 Y59.302 E1.46541
G1 X105.554 Y59.262 E1.57181
G1 X105.947 Y59.268 E1.58954
G1 X106.51 Y59.317 E1.61504
G1 X107.061 Y59.444 E1.64055
G1 X107.588 Y59.648 E1.66605
G1 X108.082 Y59.924 E1.69158
G1 X108.531 Y60.267 E1.71707
G1 X108.928 Y60.67 E1.74259
G1 X109.264 Y61.125 E1.76811
G1 X109.532 Y61.623 E1.79363
G1 X109.727 Y62.153 E1.8191
G1 X109.846 Y62.706 E1.84462
G1 X109.893 Y63.476 E1.87943
G1 X109.895 Y63.588 E1.88448
G1 X109.895 Y72.578 E2.29008
G1 X109.88 Y73.548 E2.33385
G1 X109.813 Y75.899 E2.43996
G1 X109.813 Y78.645 E2.56385
G1 X109.844 Y80.12 E2.63042
G1 X109.895 Y81.901 E2.7108
G1 X109.895 Y90.867 E3.11532
G1 X109.885 Y91.597 E3.14826
G1 X109.837 Y92.16 E3.17375
G1 X109.71 Y92.711 E3.19926
G1 X109.507 Y93.239 E3.22478
G1 X109.232 Y93.732 E3.25025
G1 X108.89 Y94.182 E3.27575
G1 X108.487 Y94.58 E3.30131
G1 X108.031 Y94.917 E3.32689
G1 X107.148 Y95.479 E3.37411
G1 X106.479 Y95.891 E3.40956
G1 X104.209 Y97.382 E3.53209
G1 X101.982 Y98.936 E3.65461
G1 X99.811 Y100.542 E3.77644
G1 X99.277 Y100.961 E3.80707
G1 X98.419 Y101.616 E3.85577
G1 X97.947 Y101.927 E3.88127
G1 X97.435 Y102.168 E3.9068
G1 X96.895 Y102.334 E3.93229
G1 X96.114 Y102.435 E3.96782
G1 X95.665 Y102.447 E3.98808
G1 X86.65 Y102.447 E4.39481
G1 X85.945 Y102.436 E4.42662
G1 X85.381 Y102.387 E4.45216
G1 X84.831 Y102.259 E4.47764
G1 X84.303 Y102.055 E4.50318
G1 X83.817 Y101.783 E4.52831
G1 X82.777 Y101.103 E4.58437
G1 X82.663 Y101.026 E4.59057
G1 X80.405 Y99.588 E4.71135
G1 X78.081 Y98.2 E4.83348
G1 X75.681 Y96.856 E4.95758
G1 X73.157 Y95.537 E5.08607
G1 X72.314 Y95.112 E5.12866
G1 X71.829 Y94.822 E5.15416
G1 X71.389 Y94.467 E5.17966
G1 X71.003 Y94.054 E5.20517
G1 X70.68 Y93.59 E5.23067
G1 X70.425 Y93.085 E5.2562
G1 X70.244 Y92.549 E5.28172
G1 X70.141 Y91.994 E5.30719
G1 X70.107 Y91.341 E5.33669
G1 X70.105 Y91.217 E5.34229
G1 X70.105 Y82.207 E5.74879
G1 X70.12 Y81.257 E5.79165
G1 X70.187 Y78.906 E5.89777
G1 X70.187 Y76.16 E6.02166
G1 X70.155 Y74.652 E6.08971
G1 X70.105 Y72.904 E6.1686
G1 X70.105 Y63.878 E6.57583
G1 X70.114 Y63.213 E6.60583
G1 X70.162 Y62.65 E6.63133
G1 X70.288 Y62.099 E6.65683
G1 X70.491 Y61.571 E6.68235
G1 X70.767 Y61.077 E6.70788
G1 X71.109 Y60.627 E6.73338
G0 F3000 X71.502 Y60.789
G1 F1500 X71.899 Y60.429 E6.75756
G1 X72.346 Y60.131 E6.7818
G1 X72.831 Y59.903 E6.80598
G1 X73.345 Y59.75 E6.83017
G1 X74.013 Y59.668 E6.86053
G1 X74.435 Y59.658 E6.87958
G1 X85.293 Y59.658 E7.36946
G1 X86.295 Y59.653 E7.41466
G1 X95.668 Y59.653 E7.83754
G1 X96.494 Y59.658 E7.87481
G1 X97.715 Y59.676 E7.9299
G1 X99.626 Y59.729 E8.01615
G1 X102.338 Y59.729 E8.13851
G1 X103.203 Y59.702 E8.17756
G1 X105.548 Y59.662 E8.28337
G1 X105.941 Y59.668 E8.3011
G1 X106.475 Y59.717 E8.3253
G1 X106.996 Y59.843 E8.34948
G1 X107.493 Y60.046 E8.3737
G1 X107.953 Y60.321 E8.39788
G1 X108.368 Y60.661 E8.42209
G1 X108.728 Y61.058 E8.44626
G1 X109.025 Y61.505 E8.47048
G1 X109.252 Y61.991 E8.49468
G1 X109.404 Y62.505 E8.51886
G1 X109.485 Y63.167 E8.54895
G1 X109.495 Y63.588 E8.56795
G1 X109.495 Y72.572 E8.97328
G1 X109.481 Y73.537 E9.01682
G1 X109.413 Y75.923 E9.12451
G1 X109.413 Y78.654 E9.24773
G1 X109.444 Y80.132 E9.31442
G1 X109.495 Y81.901 E9.39427
G1 X109.495 Y90.861 E9.79851
G1 X109.485 Y91.591 E9.83145
G1 X109.437 Y92.126 E9.85569
G1 X109.311 Y92.647 E9.87987
G1 X109.109 Y93.143 E9.90403
G1 X108.835 Y93.605 E9.92827
G1 X108.496 Y94.02 E9.95244
G1 X108.099 Y94.381 E9.97665
G1 X107.817 Y94.58 E9.99222
G1 X106.938 Y95.138 E10.0392
G1 X106.271 Y95.549 E10.07455
G1 X103.99 Y97.046 E10.19764
G1 X101.761 Y98.602 E10.32028
G1 X99.571 Y100.222 E10.44318
G1 X99.034 Y100.643 E10.47397
G1 X98.176 Y101.298 E10.52267
G1 X97.727 Y101.591 E10.54686
G1 X97.239 Y101.814 E10.57107
G1 X96.724 Y101.962 E10.59524
G1 X96.102 Y102.035 E10.6235
G1 X95.665 Y102.047 E10.64322
G1 X86.656 Y102.047 E11.04968
G1 X85.951 Y102.036 E11.08149
G1 X85.417 Y101.987 E11.10568
G1 X84.896 Y101.86 E11.12988
G1 X84.399 Y101.657 E11.1541
G1 X84.036 Y101.449 E11.17297
G1 X83.002 Y100.772 E11.22873
G1 X82.897 Y100.701 E11.23445
G1 X80.62 Y99.251 E11.35624
G1 X78.26 Y97.841 E11.48028
G1 X75.897 Y96.518 E11.60246
G1 X73.337 Y95.18 E11.73278
G1 X72.494 Y94.755 E11.77538
G1 X72.035 Y94.478 E11.79956
G1 X71.621 Y94.137 E11.82376
G1 X71.263 Y93.737 E11.84798
G1 X70.969 Y93.289 E11.87216
G1 X70.744 Y92.802 E11.89636
G1 X70.593 Y92.288 E11.92053
G1 X70.517 Y91.651 E11.94947
G1 X70.505 Y91.217 E11.96906
G1 X70.505 Y82.213 E12.37529
G1 X70.519 Y81.268 E12.41793
G1 X70.587 Y78.882 E12.52562
G1 X70.587 Y76.151 E12.64884
G1 X70.555 Y74.643 E12.71689
G1 X70.505 Y72.904 E12.79538
G1 X70.505 Y63.883 E13.20238
G1 X70.514 Y63.218 E13.23238
G1 X70.562 Y62.684 E13.25657
G1 X70.688 Y62.163 E13.28076
G1 X70.89 Y61.666 E13.30496
G1 X71.163 Y61.205 E13.32913
G1 X71.502 Y60.789 E13.35334
G0 F3000 X71.559 Y61.34
G1 F1500 X71.894 Y60.962 E13.37613
G1 X72.285 Y60.641 E13.39895
G1 X72.722 Y60.386 E13.42178
G1 X73.193 Y60.202 E13.4446
G1 X73.687 Y60.096 E13.46739
G1 X74.345 Y60.059 E13.49712
G1 X85.295 Y60.058 E13.99115
G1 X86.297 Y60.053 E14.03636
G1 X95.665 Y60.053 E14.45901
G1 X96.488 Y60.058 E14.49615
G1 X97.704 Y60.076 E14.55101
G1 X99.615 Y60.129 E14.63726
G1 X102.351 Y60.129 E14.7607
G1 X103.21 Y60.101 E14.79948
G1 X105.437 Y60.062 E14.89997
G1 X105.935 Y60.068 E14.92244
G1 X106.438 Y60.116 E14.94524
G1 X106.928 Y60.242 E14.96806
G1 X107.391 Y60.444 E14.99085
G1 X107.817 Y60.716 E15.01366
G1 X108.195 Y61.052 E15.03647
G1 X108.515 Y61.444 E15.0593
G1 X108.77 Y61.881 E15.08213
G1 X108.952 Y62.352 E15.10491
G1 X109.058 Y62.846 E15.12771
G1 X109.094 Y63.498 E15.15717
G1 X109.095 Y72.567 E15.56633
G1 X109.081 Y73.525 E15.60956
G1 X109.013 Y75.911 E15.71725
G1 X109.013 Y78.683 E15.84231
G1 X109.045 Y80.144 E15.90825
G1 X109.094 Y81.807 E15.98331
G1 X109.095 Y90.856 E16.39157
G1 X109.085 Y91.586 E16.42451
G1 X109.038 Y92.089 E16.4473
G1 X108.912 Y92.579 E16.47013
G1 X108.711 Y93.043 E16.49294
G1 X108.44 Y93.469 E16.51572
G1 X108.104 Y93.847 E16.53854
G1 X107.602 Y94.242 E16.56736
G1 X106.728 Y94.798 E16.61409
G1 X106.047 Y95.218 E16.65019
G1 X103.763 Y96.717 E16.77345
G1 X101.516 Y98.285 E16.89707
G1 X99.332 Y99.901 E17.01964
G1 X98.792 Y100.326 E17.05064
G1 X97.934 Y100.981 E17.09935
G1 X97.509 Y101.255 E17.12216
G1 X97.046 Y101.458 E17.14497
G1 X96.557 Y101.587 E17.16779
G1 X95.763 Y101.646 E17.20371
G1 X86.662 Y101.647 E17.61431
G1 X85.957 Y101.636 E17.64612
G1 X85.454 Y101.588 E17.66892
G1 X84.964 Y101.461 E17.69176
G1 X84.501 Y101.259 E17.71455
G1 X84.255 Y101.114 E17.72743
G1 X83.227 Y100.441 E17.78287
G1 X83.122 Y100.37 E17.78859
G1 X80.818 Y98.903 E17.91182
G1 X78.481 Y97.507 E18.03464
G1 X76.072 Y96.157 E18.15922
G1 X73.494 Y94.81 E18.29045
G1 X72.674 Y94.397 E18.33188
G1 X72.242 Y94.135 E18.35467
G1 X71.857 Y93.808 E18.37746
G1 X71.528 Y93.424 E18.40028
G1 X71.264 Y92.993 E18.42308
G1 X71.071 Y92.526 E18.44588
G1 X70.953 Y92.034 E18.4687
G1 X70.907 Y91.316 E18.50116
G1 X70.905 Y91.217 E18.50563
G1 X70.905 Y82.218 E18.91164
G1 X70.919 Y81.28 E18.95396
G1 X70.987 Y78.894 E19.06165
G1 X70.987 Y76.122 E19.18672
G1 X70.955 Y74.661 E19.25265
G1 X70.906 Y72.998 E19.32771
G1 X70.905 Y63.889 E19.73868
G1 X70.914 Y63.224 E19.76868
G1 X70.961 Y62.72 E19.79152
G1 X71.087 Y62.231 E19.8143
G1 X71.288 Y61.767 E19.83712
G1 X71.559 Y61.34 E19.85993
G1 F2400 E18.65993
;MESH:ptfe_tube-holder.stl(1)
G0 F3000 X89.084 Y73.97
;TYPE:WALL-INNER
G1 F2400 E19.85993
G1 F1500 X88.869 Y74.371 E19.88046
G1 X88.74 Y74.804 E19.90085
G1 X88.695 Y75.253 E19.92121
G1 X88.74 Y75.701 E19.94152
G1 X88.869 Y76.134 E19.9619
G1 X89.084 Y76.535 E19.98243
G1 X89.371 Y76.884 E20.00282
G1 X89.719 Y77.168 E20.02308
G1 X90.118 Y77.382 E20.04351
G1 X90.551 Y77.513 E20.06392
G1 X91 Y77.557 E20.08428
G1 X91.449 Y77.513 E20.10463
G1 X91.882 Y77.382 E20.12504
G1 X92.281 Y77.168 E20.14547
G1 X92.629 Y76.884 E20.16573
G1 X92.916 Y76.535 E20.18612
G1 X93.131 Y76.134 E20.20665
G1 X93.26 Y75.701 E20.22703
G1 X93.305 Y75.253 E20.24734
G1 X93.26 Y74.804 E20.2677
G1 X93.131 Y74.371 E20.28809
G1 X92.916 Y73.97 E20.30862
G1 X92.629 Y73.621 E20.329
G1 X92.281 Y73.337 E20.34927
G1 X91.882 Y73.123 E20.36969
G1 X91.449 Y72.992 E20.3901
G1 X91 Y72.947 E20.41046
G1 X90.551 Y72.992 E20.43082
G1 X90.118 Y73.123 E20.45123
G1 X89.719 Y73.337 E20.47166
G1 X89.371 Y73.621 E20.49193
G1 X89.084 Y73.97 E20.51231
G0 F3000 X89.418 Y74.194
G1 F1500 X89.241 Y74.524 E20.52921
G1 X89.134 Y74.882 E20.54606
G1 X89.097 Y75.253 E20.56289
G1 X89.134 Y75.623 E20.57966
G1 X89.241 Y75.981 E20.59652
G1 X89.418 Y76.311 E20.61341
G1 X89.655 Y76.599 E20.63024
G1 X89.942 Y76.834 E20.64698
G1 X90.272 Y77.011 E20.66387
G1 X90.629 Y77.119 E20.6807
G1 X91 Y77.155 E20.69752
G1 X91.371 Y77.119 E20.71433
G1 X91.728 Y77.011 E20.73116
G1 X92.058 Y76.834 E20.74806
G1 X92.345 Y76.599 E20.76479
G1 X92.582 Y76.311 E20.78162
G1 X92.759 Y75.981 E20.79851
G1 X92.866 Y75.623 E20.81537
G1 X92.903 Y75.253 E20.83215
G1 X92.866 Y74.882 E20.84897
G1 X92.759 Y74.524 E20.86583
G1 X92.582 Y74.194 E20.88272
G1 X92.345 Y73.906 E20.89955
G1 X92.058 Y73.671 E20.91629
G1 X91.728 Y73.494 E20.93318
G1 X91.371 Y73.386 E20.95001
G1 X91 Y73.349 E20.96683
G1 X90.629 Y73.386 E20.98365
G1 X90.272 Y73.494 E21.00048
G1 X89.942 Y73.671 E21.01737
G1 X89.655 Y73.906 E21.03411
G1 X89.418 Y74.194 E21.05094
G0 F3000 X89.752 Y74.418
;TYPE:WALL-OUTER
G1 F1500 X89.613 Y74.678 E21.06424
G1 X89.528 Y74.96 E21.07753
G1 X89.499 Y75.253 E21.09081
G1 X89.528 Y75.545 E21.10405
G1 X89.613 Y75.827 E21.11734
G1 X89.752 Y76.087 E21.13064
G1 X89.939 Y76.314 E21.14391
G1 X90.166 Y76.5 E21.15715
G1 X90.426 Y76.64 E21.17047
G1 X90.707 Y76.725 E21.18372
G1 X91 Y76.753 E21.197
G1 X91.293 Y76.725 E21.21027
G1 X91.574 Y76.64 E21.22352
G1 X91.834 Y76.5 E21.23684
G1 X92.061 Y76.314 E21.25008
G1 X92.248 Y76.087 E21.26335
G1 X92.387 Y75.827 E21.27665
G1 X92.472 Y75.545 E21.28994
G1 X92.501 Y75.253 E21.30318
G1 X92.472 Y74.96 E21.31646
G1 X92.387 Y74.678 E21.32975
G1 X92.248 Y74.418 E21.34305
G1 X92.061 Y74.191 E21.35632
G1 X91.834 Y74.005 E21.36956
G1 X91.574 Y73.865 E21.38289
G1 X91.293 Y73.78 E21.39613
G1 X91 Y73.751 E21.40942
G1 X90.707 Y73.78 E21.4227
G1 X90.426 Y73.865 E21.43594
G1 X90.166 Y74.005 E21.44927
G1 X89.939 Y74.191 E21.46251
G1 X89.752 Y74.418 E21.47578
G0 F3000 X89.658 Y74.594
G0 X89.269 Y74.385
G1 F2400 E20.27578
G0 F3000 X87.005 Y72.247
;TYPE:WALL-INNER
G1 F2400 E21.47578
G1 F1500 X75.105 Y72.247 E22.01267
G1 X75.105 Y64.258 E22.3731
G1 X87 Y64.258 E22.90977
G1 X87 Y64.253 E22.90999
G1 X95 Y64.253 E23.27093
G1 X95 Y64.258 E23.27115
G1 X96.426 Y64.258 E23.33549
G1 X96.64 Y64.905 E23.36623
G1 X97.123 Y65.967 E23.41887
G1 X97.608 Y66.785 E23.46177
G1 X98.088 Y67.418 E23.49762
G1 X98.565 Y67.909 E23.5285
G1 X99.042 Y68.29 E23.55604
G1 X99.522 Y68.576 E23.58125
G1 X100.009 Y68.776 E23.605
G1 X100.505 Y68.897 E23.62804
G1 X101 Y68.936 E23.65044
G1 X101.498 Y68.896 E23.67298
G1 X101.99 Y68.776 E23.69583
G1 X102.477 Y68.576 E23.71958
G1 X102.958 Y68.29 E23.74483
G1 X103.435 Y67.909 E23.77237
G1 X103.913 Y67.417 E23.80332
G1 X104.393 Y66.784 E23.83916
G1 X104.877 Y65.967 E23.88201
G1 X104.895 Y65.927 E23.88398
G1 X104.895 Y66.622 E23.90232
G1 X104.895 Y72.247 E24.1561
G1 X94.995 Y72.247 E24.60276
G1 X94.995 Y79.148 E24.91411
G1 X87.005 Y79.148 E25.27459
G1 X87.005 Y72.247 E25.58594
G0 F3000 X86.605 Y72.647
G1 F1500 X74.705 Y72.647 E26.12283
G1 X74.705 Y63.858 E26.51936
G1 X86.6 Y63.858 E27.05602
G1 X86.6 Y63.853 E27.05625
G1 X95.4 Y63.853 E27.45327
G1 X95.4 Y63.858 E27.4535
G1 X96.715 Y63.858 E27.51283
G1 X97.013 Y64.759 E27.55564
G1 X97.478 Y65.782 E27.60634
G1 X97.94 Y66.561 E27.64721
G1 X98.392 Y67.157 E27.68095
G1 X98.834 Y67.612 E27.70957
G1 X99.27 Y67.96 E27.73474
G1 X99.702 Y68.217 E27.75742
G1 X100.133 Y68.395 E27.77846
G1 X100.568 Y68.501 E27.79866
G1 X101 Y68.535 E27.81821
G1 X101.434 Y68.5 E27.83785
G1 X101.866 Y68.395 E27.85791
G1 X102.298 Y68.217 E27.87899
G1 X102.73 Y67.96 E27.90167
G1 X103.166 Y67.612 E27.92684
G1 X103.609 Y67.156 E27.95552
G1 X104.061 Y66.56 E27.98927
G1 X104.522 Y65.782 E28.03007
G1 X104.987 Y64.758 E28.08081
G1 X105.286 Y63.858 E28.1236
G1 X105.295 Y63.858 E28.124
G1 X105.295 Y64.758 E28.13981
G1 X105.295 Y72.647 E28.49573
G1 X95.395 Y72.647 E28.94239
G1 X95.395 Y79.548 E29.25374
G1 X86.605 Y79.548 E29.65031
G1 X86.605 Y72.647 E29.96166
G0 F3000 X86.205 Y73.047
;TYPE:WALL-OUTER
G1 F1500 X74.305 Y73.047 E30.49855
G1 X74.305 Y63.458 E30.93118
G1 X86.2 Y63.458 E31.46784
G1 X86.2 Y63.453 E31.46807
G1 X95.8 Y63.453 E31.90119
G1 X95.8 Y63.458 E31.90141
G1 X97.004 Y63.458 E31.95573
G1 X97.386 Y64.613 E32.01062
G1 X97.833 Y65.597 E32.05938
G1 X98.272 Y66.337 E32.0982
G1 X98.696 Y66.896 E32.12985
G1 X99.103 Y67.315 E32.15621
G1 X99.498 Y67.63 E32.179
G1 X99.882 Y67.858 E32.19915
G1 X100.258 Y68.014 E32.21751
G1 X100.631 Y68.105 E32.23484
G1 X101 Y68.134 E32.25154
G1 X101.37 Y68.104 E32.26828
G1 X101.742 Y68.014 E32.28555
G1 X102.118 Y67.858 E32.30392
G1 X102.502 Y67.63 E32.32407
G1 X102.897 Y67.315 E32.34686
G1 X103.305 Y66.895 E32.37328
G1 X103.729 Y66.336 E32.40493
G1 X104.167 Y65.597 E32.44369
G1 X104.614 Y64.612 E32.49249
G1 X104.997 Y63.458 E32.54735
G1 X105.695 Y63.458 E32.57884
G1 X105.695 Y73.047 E33.01146
G1 X95.795 Y73.047 E33.45812
G1 X95.795 Y79.948 E33.76947
G1 X86.205 Y79.948 E34.20214
G1 X86.205 Y73.047 E34.51349
G0 F3000 X86.005 Y73.047
G0 X86.005 Y72.607
G1 F2400 E33.31349
G0 F3000 X87.395 Y71.857
;TYPE:SKIN
G1 F2400 E34.51349
G1 F1500 X75.495 Y71.857 E35.06064
G1 X75.495 Y64.648 E35.3921
G1 X87.39 Y64.648 E35.93902
G1 X87.39 Y64.643 E35.93925
G1 X94.61 Y64.643 E36.27121
G1 X94.61 Y64.648 E36.27144
G1 X96.144 Y64.648 E36.34198
G1 X96.276 Y65.047 E36.3613
G1 X96.776 Y66.148 E36.4169
G1 X97.284 Y67.003 E36.46262
G1 X97.792 Y67.673 E36.50128
G1 X98.302 Y68.198 E36.53494
G1 X98.82 Y68.612 E36.56543
G1 X99.347 Y68.925 E36.59361
G1 X99.888 Y69.148 E36.62051
G1 X100.443 Y69.283 E36.64678
G1 X101 Y69.328 E36.67247
G1 X101.56 Y69.282 E36.6983
G1 X102.111 Y69.148 E36.72438
G1 X102.652 Y68.925 E36.75128
G1 X103.18 Y68.612 E36.7795
G1 X103.698 Y68.198 E36.80999
G1 X104.209 Y67.672 E36.84371
G1 X104.505 Y67.282 E36.86622
G1 X104.505 Y71.857 E37.07658
G1 X94.605 Y71.857 E37.53177
G1 X94.605 Y78.758 E37.84907
G1 X87.395 Y78.758 E38.18057
G1 X87.395 Y71.857 E38.49787
G1 F2400 E37.29787
G0 F3000 X88.506 Y74.221
G1 F2400 E38.49787
G1 F1500 X88.356 Y74.728 E38.52218
G1 X88.303 Y75.253 E38.54645
G1 X88.356 Y75.777 E38.57066
G1 X88.506 Y76.284 E38.59497
G1 X88.758 Y76.753 E38.61945
G1 X89.094 Y77.161 E38.64375
G1 X89.501 Y77.494 E38.66793
G1 X89.968 Y77.744 E38.69229
G1 X90.475 Y77.897 E38.71664
G1 X91 Y77.949 E38.74089
G1 X91.525 Y77.897 E38.76515
G1 X92.032 Y77.744 E38.7895
G1 X92.499 Y77.494 E38.81386
G1 X92.906 Y77.161 E38.83803
