;FLAVOR:Marlin
;TIME:3239
;Filament used: 5.01115m
;Layer height: 0.3
;MINX:33.21
;MINY:33.453
;MINZ:0.3
;MAXX:146.79
;MAXY:146.548
;MAXZ:17.7
;Generated with Cura_SteamEngine 4.12.1
M82 ;absolute extrusion mode
G21 ;metric values
G90 ;absolute positioning
M82 ;set extruder to absolute mode
M107 ;start with the fan off

M104 S200 T0 ; start heating T0 to what is set in Cura
M140 S60 ; start heating the bed to what is set in Cura
M190 S60 ; start heating the bed to what is set in Cura
M109 S200 T0 ; start heating T0 to what is set in Cura

G28 X0 Y0 ;move X/Y to min endstops
G28 Z0 ;move Z to min endstops
G1 Z15.0 F2400 ;move the platform down 15mm
G92 E0 ;zero the extruded length
G1 F200 E3 ;extrude 3mm of feed stock
G92 E0 ;zero the extruded length again
G1 F2400
G0 Y20 F2400
M117 Printing...
G5
G92 E0
G92 E0
G1 F2400 E-1.2
;LAYER_COUNT:59
;LAYER:0
M107
G0 F3000 X42.995 Y55.509 Z0.3
;TYPE:SKIRT
G1 F2400 E0
G1 F1500 X43.563 Y55.113 E0.03124
G1 X44.056 Y54.836 E0.05675
G1 X44.346 Y54.713 E0.07096
G1 X46.958 Y53.726 E0.19694
G1 X49.425 Y52.713 E0.31726
G1 X51.96 Y51.587 E0.44241
G1 X54.38 Y50.429 E0.56345
G1 X56.793 Y49.19 E0.68583
G1 X59.17 Y47.883 E0.80821
G1 X61.521 Y46.502 E0.93123
G1 X63.803 Y45.073 E1.0527
G1 X66.711 Y43.12 E1.21075
G1 X67.41 Y42.632 E1.24921
G1 X67.701 Y42.447 E1.26476
G1 X68.205 Y42.156 E1.29102
G1 X69.74 Y41.296 E1.3704
G1 X72.097 Y39.886 E1.49432
G1 X74.357 Y38.446 E1.61522
G1 X76.626 Y36.907 E1.73892
G1 X78.817 Y35.331 E1.86069
G1 X79.007 Y35.186 E1.87147
G1 X80.018 Y34.438 E1.92821
G1 X80.495 Y34.135 E1.9537
G1 X81.01 Y33.902 E1.97921
G1 X81.553 Y33.744 E2.00472
G1 X82.337 Y33.654 E2.04033
G1 X82.934 Y33.645 E2.06726
G1 X85.649 Y33.568 E2.1898
G1 X87.715 Y33.457 E2.28315
G1 X88.554 Y33.453 E2.321
G1 X89.347 Y33.486 E2.35681
G1 X90.8 Y33.568 E2.42247
G1 X93.589 Y33.648 E2.54835
G1 X94.056 Y33.655 E2.56942
G1 X94.619 Y33.703 E2.59492
G1 X95.17 Y33.831 E2.62044
G1 X95.848 Y34.111 E2.65353
G1 X96.109 Y34.258 E2.66705
G1 X96.826 Y34.699 E2.70503
G1 X99.182 Y36.103 E2.82876
G1 X101.563 Y37.431 E2.95177
G1 X103.943 Y38.673 E3.07289
G1 X106.394 Y39.866 E3.19587
G1 X108.887 Y40.991 E3.31927
G1 X111.413 Y42.047 E3.44279
G1 X111.981 Y42.282 E3.47052
G1 X113.137 Y42.824 E3.52813
G1 X113.26 Y42.872 E3.53408
G1 X114.686 Y43.537 E3.60507
G1 X117.191 Y44.62 E3.7282
G1 X119.714 Y45.627 E3.85076
G1 X122.243 Y46.554 E3.97228
G1 X124.847 Y47.427 E4.09619
G1 X127.419 Y48.209 E4.21748
G1 X130.048 Y48.926 E4.34042
G1 X133.903 Y49.839 E4.51916
G1 X135.117 Y50.1 E4.57518
G1 X135.66 Y50.257 E4.60068
G1 X136.176 Y50.49 E4.62623
G1 X136.653 Y50.793 E4.65172
G1 X137.083 Y51.16 E4.67723
G1 X137.596 Y51.777 E4.71343
G1 X137.73 Y51.976 E4.72426
G1 X138.012 Y52.466 E4.74976
G1 X138.29 Y53.229 E4.7864
G1 X138.973 Y55.929 E4.91205
G1 X139.539 Y57.93 E5.00587
G1 X139.723 Y58.711 E5.04207
G1 X139.871 Y59.707 E5.0875
G1 X140.306 Y62.361 E5.20884
G1 X140.826 Y65.055 E5.33263
G1 X141.414 Y67.698 E5.45479
G1 X142.077 Y70.328 E5.57716
G1 X142.815 Y72.94 E5.69961
G1 X143.63 Y75.542 E5.82263
G1 X144.512 Y78.095 E5.9445
G1 X145.815 Y81.505 E6.10919
G1 X146.298 Y82.703 E6.16747
G1 X146.472 Y83.241 E6.19298
G1 X146.569 Y83.798 E6.21849
G1 X146.589 Y84.14 E6.23394
G1 X146.598 Y84.74 E6.26102
G1 X146.675 Y87.455 E6.38356
G1 X146.786 Y89.521 E6.4769
G1 X146.79 Y90.359 E6.51471
G1 X146.757 Y91.153 E6.55057
G1 X146.675 Y92.589 E6.61546
G1 X146.595 Y95.412 E6.74288
G1 X146.588 Y95.863 E6.76323
G1 X146.54 Y96.426 E6.78872
G1 X146.412 Y96.977 E6.81424
G1 X146.303 Y97.285 E6.82898
G1 X145.769 Y98.618 E6.89377
G1 X145.61 Y99.008 E6.91277
G1 X144.604 Y101.646 E7.04015
G1 X143.736 Y104.144 E7.15946
G1 X142.907 Y106.759 E7.28322
G1 X142.159 Y109.37 E7.40576
G1 X141.498 Y111.953 E7.52606
G1 X140.889 Y114.647 E7.65067
G1 X140.363 Y117.321 E7.77362
G1 X139.923 Y119.957 E7.89419
G1 X139.848 Y120.48 E7.91803
G1 X139.716 Y121.317 E7.95626
G1 X139.622 Y121.755 E7.97647
G1 X139.32 Y122.85 E8.02772
G1 X139.122 Y123.535 E8.05989
G1 X138.468 Y126.051 E8.17717
G1 X138.275 Y126.834 E8.21356
G1 X138.101 Y127.372 E8.23907
G1 X137.853 Y127.88 E8.26457
G1 X137.536 Y128.348 E8.29008
G1 X137.159 Y128.765 E8.31544
G1 X137.039 Y128.88 E8.32294
G1 X136.604 Y129.241 E8.34844
G1 X136.122 Y129.538 E8.37398
G1 X135.604 Y129.763 E8.39946
G1 X135.094 Y129.906 E8.42336
G1 X134.497 Y130.032 E8.45089
G1 X131.767 Y130.642 E8.5771
G1 X129.198 Y131.294 E8.69667
G1 X126.562 Y132.04 E8.82027
G1 X123.913 Y132.873 E8.94556
G1 X121.426 Y133.734 E9.0643
G1 X118.822 Y134.718 E9.18989
G1 X116.351 Y135.732 E9.31039
G1 X113.17 Y137.16 E9.46771
G1 X111.995 Y137.711 E9.52626
G1 X111.796 Y137.798 E9.53606
G1 X111.316 Y137.992 E9.55942
G1 X108.788 Y139.053 E9.68311
G1 X106.338 Y140.164 E9.80448
G1 X103.912 Y141.347 E9.92625
G1 X101.48 Y142.62 E10.0501
G1 X99.13 Y143.937 E10.17164
G1 X96.734 Y145.369 E10.29757
G1 X96.145 Y145.734 E10.32883
G1 X95.646 Y146 E10.35435
G1 X95.115 Y146.193 E10.37984
G1 X94.562 Y146.31 E10.40534
G1 X94.076 Y146.347 E10.42733
G1 X93.476 Y146.356 E10.4544
G1 X90.761 Y146.433 E10.57694
G1 X88.695 Y146.544 E10.67029
G1 X87.857 Y146.548 E10.7081
G1 X87.063 Y146.515 E10.74395
G1 X85.61 Y146.433 E10.80961
G1 X82.861 Y146.355 E10.93368
G1 X82.365 Y146.348 E10.95607
G1 X81.801 Y146.3 E10.9816
G1 X81.25 Y146.173 E11.00711
G1 X80.723 Y145.97 E11.03259
G1 X80.045 Y145.566 E11.0682
G1 X79.028 Y144.815 E11.12524
G1 X78.75 Y144.604 E11.14099
G1 X76.594 Y143.058 E11.26068
G1 X74.3 Y141.509 E11.38556
G1 X72.03 Y140.068 E11.50687
G1 X69.692 Y138.675 E11.62966
G1 X68.191 Y137.835 E11.70726
G1 X67.706 Y137.556 E11.7325
G1 X67.414 Y137.371 E11.7481
G1 X66.564 Y136.779 E11.79483
G1 X64.282 Y135.238 E11.91907
G1 X61.995 Y133.785 E12.04131
G1 X59.647 Y132.386 E12.16462
G1 X57.298 Y131.076 E12.28597
G1 X54.902 Y129.826 E12.4079
G1 X52.45 Y128.633 E12.53092
G1 X49.97 Y127.514 E12.65367
G1 X47.432 Y126.451 E12.77782
G1 X44.925 Y125.487 E12.899
G1 X44.228 Y125.228 E12.93255
G1 X43.713 Y124.994 E12.95807
G1 X43.236 Y124.69 E12.98359
G1 X42.808 Y124.321 E13.00908
G1 X42.444 Y123.915 E13.03368
G1 X42.111 Y123.458 E13.05919
G1 X41.846 Y122.958 E13.08473
G1 X41.655 Y122.426 E13.11023
G1 X41.488 Y121.605 E13.14803
G1 X40.961 Y118.89 E13.27281
G1 X40.367 Y116.233 E13.39564
G1 X39.703 Y113.611 E13.51767
G1 X38.965 Y111.01 E13.63965
G1 X38.13 Y108.355 E13.76522
G1 X37.265 Y105.856 E13.88453
G1 X36.3 Y103.302 E14.00771
G1 X35.27 Y100.793 E14.13007
G1 X33.778 Y97.473 E14.29429
G1 X33.578 Y96.944 E14.31981
G1 X33.455 Y96.393 E14.34528
G1 X33.411 Y95.859 E14.36945
G1 X33.402 Y95.26 E14.39648
G1 X33.325 Y92.545 E14.51902
G1 X33.214 Y90.479 E14.61237
G1 X33.21 Y89.64 E14.65022
G1 X33.243 Y88.847 E14.68603
G1 X33.325 Y87.394 E14.75169
G1 X33.403 Y84.645 E14.87576
G1 X33.41 Y84.147 E14.89823
G1 X33.458 Y83.583 E14.92377
G1 X33.585 Y83.033 E14.94924
G1 X33.791 Y82.498 E14.9751
G1 X33.897 Y82.273 E14.98632
G1 X35.008 Y79.812 E15.10815
G1 X36.073 Y77.263 E15.23278
G1 X37.029 Y74.782 E15.35274
G1 X37.935 Y72.214 E15.4756
G1 X38.77 Y69.618 E15.59863
G1 X39.531 Y67.004 E15.72146
G1 X40.214 Y64.376 E15.84397
G1 X40.822 Y61.743 E15.96589
G1 X41.365 Y59.026 E16.09089
G1 X41.576 Y57.889 E16.14307
G1 X41.719 Y57.342 E16.16857
G1 X41.937 Y56.82 E16.1941
G1 X42.226 Y56.335 E16.21957
G1 X42.581 Y55.895 E16.24508
G1 X42.995 Y55.509 E16.27061
G0 F3000 X43.531 Y55.612
G1 F1500 X43.782 Y55.447 E16.28417
G1 X44.487 Y55.087 E16.31988
G1 X47.115 Y54.094 E16.44663
G1 X49.603 Y53.072 E16.56798
G1 X52.102 Y51.962 E16.69135
G1 X54.57 Y50.782 E16.81477
G1 X56.963 Y49.553 E16.93614
G1 X59.386 Y48.221 E17.06089
G1 X61.715 Y46.853 E17.18275
G1 X64.024 Y45.407 E17.30566
G1 X66.941 Y43.448 E17.46419
G1 X67.639 Y42.96 E17.50262
G1 X67.901 Y42.793 E17.51664
G1 X68.4 Y42.505 E17.54263
G1 X69.977 Y41.622 E17.62417
G1 X72.27 Y40.249 E17.74475
G1 X74.591 Y38.77 E17.86892
G1 X76.846 Y37.242 E17.99182
G1 X79.064 Y35.646 E18.1151
G1 X79.245 Y35.508 E18.12537
G1 X80.256 Y34.76 E18.18211
G1 X80.71 Y34.474 E18.20632
G1 X81.201 Y34.259 E18.2305
G1 X81.718 Y34.119 E18.25467
G1 X82.343 Y34.054 E18.28302
G1 X82.91 Y34.045 E18.3086
G1 X85.682 Y33.966 E18.43372
G1 X87.644 Y33.86 E18.52236
G1 X88.153 Y33.847 E18.54534
G1 X88.648 Y33.856 E18.56767
G1 X89.324 Y33.886 E18.5982
G1 X90.73 Y33.966 E18.66174
G1 X93.571 Y34.046 E18.78997
G1 X94.05 Y34.054 E18.81158
G1 X94.584 Y34.103 E18.83577
G1 X95.105 Y34.23 E18.85997
G1 X95.662 Y34.465 E18.88724
G1 X95.899 Y34.599 E18.89953
G1 X96.594 Y35.026 E18.93633
G1 X98.989 Y36.453 E19.06211
G1 X101.362 Y37.777 E19.18471
G1 X103.791 Y39.044 E19.30831
G1 X106.232 Y40.232 E19.43079
G1 X108.716 Y41.353 E19.55374
G1 X111.233 Y42.406 E19.67684
G1 X111.811 Y42.644 E19.70504
G1 X113.015 Y43.208 E19.76502
G1 X113.091 Y43.235 E19.76866
G1 X114.525 Y43.903 E19.84003
G1 X117.033 Y44.988 E19.96332
G1 X119.545 Y45.99 E20.08534
G1 X122.146 Y46.944 E20.21033
G1 X124.687 Y47.796 E20.33125
G1 X127.325 Y48.598 E20.45564
G1 X129.94 Y49.312 E20.57794
G1 X133.823 Y50.231 E20.75797
G1 X135.033 Y50.491 E20.81381
G1 X135.548 Y50.642 E20.83802
G1 X136.034 Y50.868 E20.8622
G1 X136.482 Y51.164 E20.88643
G1 X136.88 Y51.523 E20.91061
G1 X137.264 Y52 E20.93824
G1 X137.398 Y52.199 E20.94906
G1 X137.664 Y52.665 E20.97327
G1 X137.902 Y53.327 E21.00501
G1 X138.586 Y56.031 E21.13085
G1 X139.153 Y58.035 E21.22481
G1 X139.327 Y58.77 E21.25889
G1 X139.475 Y59.766 E21.30432
G1 X139.912 Y62.43 E21.42611
G1 X140.436 Y65.146 E21.55091
G1 X141.021 Y67.777 E21.67251
G1 X141.69 Y70.43 E21.79595
G1 X142.431 Y73.053 E21.91893
G1 X143.25 Y75.665 E22.04243
G1 X144.14 Y78.242 E22.16543
G1 X145.43 Y81.622 E22.32866
G1 X145.927 Y82.852 E22.38851
G1 X146.09 Y83.363 E22.41271
G1 X146.189 Y84.146 E22.44831
G1 X146.197 Y84.697 E22.47318
G1 X146.277 Y87.488 E22.59915
G1 X146.383 Y89.45 E22.6878
G1 X146.396 Y89.959 E22.71077
G1 X146.387 Y90.453 E22.73306
G1 X146.357 Y91.13 E22.76363
G1 X146.277 Y92.536 E22.82717
G1 X146.196 Y95.401 E22.95648
G1 X146.189 Y95.857 E22.97706
G1 X146.14 Y96.391 E23.00125
G1 X145.931 Y97.136 E23.03616
G1 X145.399 Y98.467 E23.10083
G1 X145.226 Y98.893 E23.12157
G1 X144.228 Y101.509 E23.2479
G1 X143.36 Y104.007 E23.36721
G1 X142.527 Y106.633 E23.4915
G1 X141.773 Y109.266 E23.61507
G1 X141.098 Y111.906 E23.73801
G1 X140.5 Y114.553 E23.86044
G1 X139.976 Y117.216 E23.98289
G1 X139.525 Y119.914 E24.10631
G1 X139.453 Y120.418 E24.12928
G1 X139.321 Y121.255 E24.16751
G1 X139.236 Y121.649 E24.18569
G1 X138.936 Y122.739 E24.2367
G1 X138.734 Y123.437 E24.26948
G1 X138.068 Y125.999 E24.38891
G1 X137.886 Y126.739 E24.42329
G1 X137.72 Y127.248 E24.44745
G1 X137.479 Y127.728 E24.47168
G1 X137.17 Y128.166 E24.49586
G1 X136.762 Y128.591 E24.52244
G1 X136.348 Y128.932 E24.54664
G1 X135.888 Y129.208 E24.57084
G1 X135.393 Y129.413 E24.59502
G1 X135.012 Y129.515 E24.61281
G1 X134.365 Y129.651 E24.64264
G1 X131.728 Y130.24 E24.76454
G1 X129.062 Y130.916 E24.88863
G1 X126.428 Y131.662 E25.01214
G1 X123.821 Y132.482 E25.13544
G1 X121.248 Y133.372 E25.25828
G1 X118.708 Y134.333 E25.3808
G1 X116.189 Y135.366 E25.50364
G1 X112.962 Y136.815 E25.66323
G1 X111.825 Y137.348 E25.71989
G1 X108.634 Y138.683 E25.87594
G1 X106.177 Y139.799 E25.9977
G1 X103.702 Y141.005 E26.12191
G1 X101.306 Y142.26 E26.24394
G1 X98.92 Y143.596 E26.36732
G1 X96.528 Y145.026 E26.49305
G1 X95.932 Y145.395 E26.52468
G1 X95.458 Y145.646 E26.54887
G1 X94.952 Y145.823 E26.57306
G1 X94.425 Y145.924 E26.59727
G1 X94.07 Y145.947 E26.61332
G1 X93.5 Y145.956 E26.63904
G1 X90.728 Y146.035 E26.76415
G1 X88.766 Y146.141 E26.8528
G1 X88.257 Y146.154 E26.87577
G1 X87.763 Y146.145 E26.89806
G1 X87.086 Y146.115 E26.92864
G1 X85.68 Y146.035 E26.99218
G1 X82.835 Y145.955 E27.12058
G1 X82.37 Y145.948 E27.14156
G1 X81.836 Y145.9 E27.16575
G1 X81.315 Y145.774 E27.18994
G1 X80.818 Y145.572 E27.21414
G1 X80.283 Y145.244 E27.24245
G1 X79.27 Y144.496 E27.29927
G1 X79.003 Y144.293 E27.3144
G1 X76.805 Y142.717 E27.43642
G1 X74.532 Y141.183 E27.56014
G1 X72.228 Y139.719 E27.6833
G1 X69.87 Y138.315 E27.80712
G1 X68.391 Y137.489 E27.88355
G1 X67.906 Y137.21 E27.90879
G1 X67.643 Y137.043 E27.92284
G1 X66.766 Y136.432 E27.97107
G1 X64.515 Y134.912 E28.09361
G1 X62.218 Y133.453 E28.21638
G1 X59.856 Y132.045 E28.34045
G1 X57.484 Y130.722 E28.46298
G1 X55.055 Y129.455 E28.58658
G1 X52.612 Y128.267 E28.70915
G1 X50.141 Y127.151 E28.83147
G1 X47.576 Y126.077 E28.95693
G1 X45.064 Y125.112 E29.07834
G1 X44.367 Y124.853 E29.11189
G1 X43.88 Y124.629 E29.13607
G1 X43.431 Y124.335 E29.16028
G1 X42.867 Y123.796 E29.19548
G1 X42.75 Y123.657 E29.20368
G1 X42.436 Y123.222 E29.22788
G1 X42.19 Y122.746 E29.25206
G1 X42.018 Y122.238 E29.27625
G1 X41.349 Y118.79 E29.43472
G1 X40.762 Y116.161 E29.55625
G1 X40.09 Y113.509 E29.67968
G1 X39.343 Y110.876 E29.80316
G1 X38.521 Y108.263 E29.92675
G1 X37.631 Y105.69 E30.04958
G1 X36.68 Y103.176 E30.17085
G1 X35.636 Y100.631 E30.29496
G1 X34.142 Y97.306 E30.45942
G1 X33.954 Y96.803 E30.48364
G1 X33.843 Y96.279 E30.50781
G1 X33.811 Y95.853 E30.52708
G1 X33.802 Y95.254 E30.55411
G1 X33.723 Y92.508 E30.67805
G1 X33.617 Y90.55 E30.76652
G1 X33.604 Y90.041 E30.78949
G1 X33.613 Y89.546 E30.81183
G1 X33.643 Y88.87 E30.84236
G1 X33.723 Y87.464 E30.9059
G1 X33.804 Y84.599 E31.03521
G1 X33.81 Y84.152 E31.05538
G1 X33.858 Y83.618 E31.07956
G1 X33.984 Y83.097 E31.10375
G1 X34.259 Y82.444 E31.13572
G1 X35.384 Y79.953 E31.25903
G1 X36.422 Y77.468 E31.38053
G1 X37.408 Y74.911 E31.50418
G1 X38.321 Y72.322 E31.62803
G1 X39.149 Y69.748 E31.75003
G1 X39.916 Y67.112 E31.87389
G1 X40.597 Y64.496 E31.99584
G1 X41.223 Y61.781 E32.12155
G1 X41.758 Y59.104 E32.24472
G1 X41.97 Y57.962 E32.29712
G1 X42.107 Y57.444 E32.32129
G1 X42.319 Y56.951 E32.34551
G1 X42.602 Y56.496 E32.36968
G1 X42.95 Y56.088 E32.39387
G1 X43.531 Y55.612 E32.42776
G0 F3000 X43.317 Y56.288
G1 F1500 X43.751 Y55.946 E32.45269
G1 X44.002 Y55.781 E32.46624
G1 X44.629 Y55.462 E32.49798
G1 X47.229 Y54.479 E32.62339
G1 X49.738 Y53.449 E32.74575
G1 X52.272 Y52.324 E32.87084
G1 X54.733 Y51.147 E32.99392
G1 X57.186 Y49.887 E33.11833
G1 X59.575 Y48.574 E33.24132
G1 X61.94 Y47.184 E33.36509
G1 X64.23 Y45.75 E33.48699
G1 X67.18 Y43.769 E33.64731
G1 X67.868 Y43.288 E33.68519
G1 X68.101 Y43.14 E33.69764
G1 X68.596 Y42.854 E33.72343
G1 X70.157 Y41.98 E33.80415
G1 X72.485 Y40.587 E33.92655
G1 X74.809 Y39.106 E34.05088
G1 X77.098 Y37.554 E34.17565
G1 X79.295 Y35.973 E34.29777
G1 X79.483 Y35.83 E34.30842
G1 X80.494 Y35.082 E34.36516
G1 X80.923 Y34.814 E34.38799
G1 X81.388 Y34.617 E34.41077
G1 X81.879 Y34.496 E34.43359
G1 X82.349 Y34.454 E34.45487
G1 X82.927 Y34.445 E34.48096
G1 X85.714 Y34.365 E34.60675
G1 X87.74 Y34.257 E34.69828
G1 X88.631 Y34.256 E34.73848
G1 X89.301 Y34.285 E34.76874
G1 X90.73 Y34.366 E34.83331
G1 X93.555 Y34.446 E34.96082
G1 X94.043 Y34.454 E34.98284
G1 X94.547 Y34.502 E35.00568
G1 X95.036 Y34.629 E35.02848
G1 X95.498 Y34.83 E35.05121
G1 X95.69 Y34.939 E35.06117
G1 X96.428 Y35.393 E35.10026
G1 X98.768 Y36.788 E35.22317
G1 X101.188 Y38.138 E35.34819
G1 X103.61 Y39.401 E35.47143
G1 X106.043 Y40.585 E35.59351
G1 X108.563 Y41.723 E35.71826
G1 X111.103 Y42.785 E35.84247
G1 X111.641 Y43.007 E35.86872
G1 X112.779 Y43.54 E35.92542
G1 X112.923 Y43.597 E35.93241
G1 X114.39 Y44.28 E36.00541
G1 X116.875 Y45.355 E36.12757
G1 X119.426 Y46.373 E36.25149
G1 X121.986 Y47.313 E36.37453
G1 X124.581 Y48.182 E36.498
G1 X127.209 Y48.981 E36.62192
G1 X129.833 Y49.697 E36.74464
G1 X133.735 Y50.621 E36.92555
G1 X134.95 Y50.882 E36.98162
G1 X135.434 Y51.027 E37.00441
G1 X135.889 Y51.246 E37.02719
G1 X136.305 Y51.535 E37.05005
G1 X136.669 Y51.885 E37.07283
G1 X137.066 Y52.423 E37.103
G1 X137.315 Y52.863 E37.12581
G1 X137.514 Y53.425 E37.1527
G1 X138.199 Y56.132 E37.27868
G1 X138.767 Y58.139 E37.37279
G1 X138.931 Y58.829 E37.40479
G1 X139.072 Y59.777 E37.44803
G1 X139.524 Y62.534 E37.57408
G1 X140.038 Y65.196 E37.6964
G1 X140.639 Y67.898 E37.82128
G1 X141.303 Y70.532 E37.94384
G1 X142.037 Y73.131 E38.06568
G1 X142.873 Y75.799 E38.19182
G1 X143.767 Y78.388 E38.3154
G1 X145.06 Y81.774 E38.47892
G1 X145.556 Y83.002 E38.53867
G1 X145.708 Y83.484 E38.56148
