;FLAVOR:Marlin
;TIME:3365
;Filament used: 5.45632m
;Layer height: 0.3
;MINX:41.5
;MINY:50.993
;MINZ:0.3
;MAXX:138.502
;MAXY:129.007
;MAXZ:17.7
;Generated with Cura_SteamEngine 4.12.1
M82 ;absolute extrusion mode
G21 ;metric values
G90 ;absolute positioning
M82 ;set extruder to absolute mode
M107 ;start with the fan off

M104 S200 T0 ; start heating T0 to what is set in Cura
M140 S60 ; start heating the bed to what is set in Cura
M190 S60 ; start heating the bed to what is set in Cura
M109 S200 T0 ; start heating T0 to what is set in Cura

G28 X0 Y0 ;move X/Y to min endstops
G28 Z0 ;move Z to min endstops
G1 Z15.0 F2400 ;move the platform down 15mm
G92 E0 ;zero the extruded length
G1 F200 E3 ;extrude 3mm of feed stock
G92 E0 ;zero the extruded length again
G1 F2400
G0 Y20 F2400
M117 Printing...
G5
G92 E0
G92 E0
G1 F2400 E-1.2
;LAYER_COUNT:59
;LAYER:0
M107
G0 F3000 X42.912 Y51.961 Z0.3
;TYPE:SKIRT
G1 F2400 E0
G1 F1500 X43.366 Y51.625 E0.02548
G1 X43.864 Y51.356 E0.05102
G1 X44.394 Y51.161 E0.0765
G1 X44.947 Y51.042 E0.10202
G1 X45.718 Y50.995 E0.13687
G1 X45.83 Y50.993 E0.14192
G1 X55.951 Y50.993 E0.59855
G1 X57.462 Y51.016 E0.66673
G1 X58.58 Y51.048 E0.71719
G1 X61.324 Y51.05 E0.84099
G1 X62.905 Y51.016 E0.91233
G1 X63.733 Y50.993 E0.94971
G1 X73.05 Y50.993 E1.37006
G1 X73.75 Y51.003 E1.40164
G1 X74.237 Y51.04 E1.42368
G1 X74.664 Y51.121 E1.44329
G1 X75.635 Y51.36 E1.4884
G1 X78.312 Y51.976 E1.61234
G1 X81.021 Y52.524 E1.73703
G1 X83.651 Y52.972 E1.8574
G1 X86.35 Y53.357 E1.9804
G1 X89.025 Y53.662 E2.10187
G1 X91.745 Y53.894 E2.22503
G1 X94.49 Y54.05 E2.34908
G1 X97.161 Y54.127 E2.46964
G1 X99.905 Y54.127 E2.59344
G1 X102.577 Y54.052 E2.71404
G1 X105.315 Y53.898 E2.83776
G1 X108.017 Y53.669 E2.9601
G1 X110.737 Y53.361 E3.0836
G1 X113.387 Y52.985 E3.20436
G1 X116.11 Y52.519 E3.329
G1 X118.72 Y51.997 E3.44909
G1 X121.411 Y51.378 E3.57367
G1 X122.405 Y51.127 E3.61992
G1 X122.942 Y51.029 E3.64455
G1 X123.617 Y50.995 E3.67504
G1 X123.73 Y50.993 E3.68014
G1 X133.845 Y50.993 E4.13649
G1 X134.543 Y51.002 E4.16799
G1 X135.106 Y51.05 E4.19348
G1 X135.657 Y51.176 E4.21898
G1 X136.185 Y51.378 E4.24449
G1 X136.679 Y51.653 E4.27
G1 X137.129 Y51.995 E4.2955
G1 X137.527 Y52.397 E4.32102
G1 X137.863 Y52.851 E4.3465
G1 X138.133 Y53.348 E4.37202
G1 X138.33 Y53.878 E4.39753
G1 X138.45 Y54.43 E4.42302
G1 X138.498 Y55.211 E4.45832
G1 X138.5 Y55.322 E4.46333
G1 X138.502 Y66.217 E4.95487
G1 X138.5 Y67.256 E5.00175
G1 X138.5 Y124.326 E7.57656
G1 X138.49 Y125.053 E7.60936
G1 X138.442 Y125.616 E7.63486
G1 X138.315 Y126.167 E7.66037
G1 X138.112 Y126.695 E7.68589
G1 X137.837 Y127.189 E7.7114
G1 X137.495 Y127.639 E7.7369
G1 X137.092 Y128.036 E7.76242
G1 X136.638 Y128.372 E7.7879
G1 X136.141 Y128.641 E7.8134
G1 X135.611 Y128.838 E7.83891
G1 X135.058 Y128.957 E7.86443
G1 X134.282 Y129.005 E7.89951
G1 X134.17 Y129.007 E7.90456
G1 X124.05 Y129.007 E8.36114
G1 X123.35 Y128.997 E8.39273
G1 X122.895 Y128.964 E8.41331
G1 X122.434 Y128.879 E8.43446
G1 X121.449 Y128.636 E8.48023
G1 X118.788 Y128.024 E8.60342
G1 X116.079 Y127.476 E8.72812
G1 X113.449 Y127.028 E8.84848
G1 X110.75 Y126.643 E8.97149
G1 X108.075 Y126.338 E9.09296
G1 X105.355 Y126.106 E9.21612
G1 X102.61 Y125.95 E9.34016
G1 X99.939 Y125.873 E9.46072
G1 X97.195 Y125.873 E9.58452
G1 X94.523 Y125.948 E9.70512
G1 X91.785 Y126.102 E9.82885
G1 X89.083 Y126.331 E9.95119
G1 X86.363 Y126.639 E10.07469
G1 X83.713 Y127.015 E10.19545
G1 X80.99 Y127.481 E10.32009
G1 X78.38 Y128.003 E10.44017
G1 X75.696 Y128.62 E10.56442
G1 X74.695 Y128.873 E10.61101
G1 X74.158 Y128.971 E10.63563
G1 X73.483 Y129.005 E10.66613
G1 X73.37 Y129.007 E10.67122
G1 X64.049 Y129.007 E11.09176
G1 X62.54 Y128.984 E11.15985
G1 X61.421 Y128.952 E11.21035
G1 X58.676 Y128.95 E11.3342
G1 X57.095 Y128.984 E11.40554
G1 X56.267 Y129.007 E11.44292
G1 X46.15 Y129.007 E11.89936
G1 X45.452 Y128.997 E11.93086
G1 X44.888 Y128.949 E11.95639
G1 X44.338 Y128.822 E11.98186
G1 X43.81 Y128.618 E12.0074
G1 X43.316 Y128.343 E12.03291
G1 X42.867 Y128 E12.0584
G1 X42.47 Y127.598 E12.08389
G1 X42.133 Y127.143 E12.10943
G1 X41.865 Y126.646 E12.13491
G1 X41.669 Y126.116 E12.1604
G1 X41.549 Y125.563 E12.18593
G1 X41.501 Y124.773 E12.22164
G1 X41.5 Y55.607 E15.34219
G1 X41.51 Y54.942 E15.37219
G1 X41.559 Y54.379 E15.39769
G1 X41.686 Y53.828 E15.4232
G1 X41.89 Y53.3 E15.44874
G1 X42.166 Y52.807 E15.47423
G1 X42.509 Y52.358 E15.49972
G1 X42.912 Y51.961 E15.52524
G0 F3000 X43.3 Y52.161
G1 F1500 X43.746 Y51.864 E15.54942
G1 X44.232 Y51.636 E15.57364
G1 X44.746 Y51.484 E15.59782
G1 X45.409 Y51.403 E15.62795
G1 X45.83 Y51.393 E15.64695
G1 X55.945 Y51.393 E16.10331
G1 X57.45 Y51.415 E16.17122
G1 X58.604 Y51.448 E16.2233
G1 X61.333 Y51.45 E16.34643
G1 X62.914 Y51.416 E16.41777
G1 X63.733 Y51.393 E16.45474
G1 X73.044 Y51.393 E16.87482
G1 X73.744 Y51.403 E16.9064
G1 X74.568 Y51.509 E16.94389
G1 X75.579 Y51.758 E16.99086
G1 X78.221 Y52.366 E17.11318
G1 X80.935 Y52.915 E17.2381
G1 X83.6 Y53.369 E17.36007
G1 X86.285 Y53.751 E17.48243
G1 X89.017 Y54.064 E17.6065
G1 X91.724 Y54.294 E17.72907
G1 X94.421 Y54.448 E17.85094
G1 X97.184 Y54.527 E17.97565
G1 X99.88 Y54.527 E18.09729
G1 X102.647 Y54.45 E18.22217
G1 X105.336 Y54.298 E18.34369
G1 X108.06 Y54.067 E18.46703
G1 X110.772 Y53.76 E18.59016
G1 X113.475 Y53.376 E18.71334
G1 X116.144 Y52.92 E18.8355
G1 X118.816 Y52.385 E18.95844
G1 X121.46 Y51.777 E19.08085
G1 X122.503 Y51.514 E19.12938
G1 X123.013 Y51.424 E19.15274
G1 X123.628 Y51.394 E19.18052
G1 X133.839 Y51.393 E19.64121
G1 X134.537 Y51.402 E19.6727
G1 X135.072 Y51.449 E19.69693
G1 X135.593 Y51.575 E19.72112
G1 X136.09 Y51.777 E19.74532
G1 X136.551 Y52.05 E19.76949
G1 X136.967 Y52.389 E19.7937
G1 X137.328 Y52.785 E19.81788
G1 X137.626 Y53.231 E19.84208
G1 X137.854 Y53.717 E19.8663
G1 X138.007 Y54.231 E19.89049
G1 X138.09 Y54.901 E19.92095
G1 X138.1 Y55.322 E19.93995
G1 X138.102 Y66.216 E20.43145
G1 X138.1 Y67.255 E20.47833
G1 X138.1 Y124.321 E23.05296
G1 X138.09 Y125.048 E23.08576
G1 X138.042 Y125.582 E23.10995
G1 X137.916 Y126.103 E23.13414
G1 X137.714 Y126.6 E23.15834
G1 X137.44 Y127.061 E23.18254
G1 X137.101 Y127.476 E23.20671
G1 X136.704 Y127.837 E23.23092
G1 X136.258 Y128.134 E23.2551
G1 X135.772 Y128.362 E23.27932
G1 X135.258 Y128.515 E23.30351
G1 X134.591 Y128.597 E23.33383
G1 X134.17 Y128.607 E23.35283
G1 X124.056 Y128.607 E23.80914
G1 X123.356 Y128.597 E23.84073
G1 X122.53 Y128.491 E23.8783
G1 X121.519 Y128.242 E23.92527
G1 X118.879 Y127.634 E24.0475
G1 X116.165 Y127.085 E24.17243
G1 X113.5 Y126.631 E24.2944
G1 X110.815 Y126.249 E24.41675
G1 X108.083 Y125.936 E24.54082
G1 X105.376 Y125.706 E24.66339
G1 X102.679 Y125.552 E24.78527
G1 X99.916 Y125.473 E24.90998
G1 X97.22 Y125.473 E25.03161
G1 X94.453 Y125.55 E25.1565
G1 X91.764 Y125.702 E25.27801
G1 X89.04 Y125.933 E25.40135
G1 X86.328 Y126.24 E25.52449
G1 X83.625 Y126.624 E25.64766
G1 X80.956 Y127.08 E25.76982
G1 X78.284 Y127.615 E25.89277
G1 X75.639 Y128.223 E26.01521
G1 X74.597 Y128.486 E26.0637
G1 X74.087 Y128.576 E26.08706
G1 X73.472 Y128.606 E26.11484
G1 X64.055 Y128.607 E26.53971
G1 X62.551 Y128.585 E26.60757
G1 X61.396 Y128.552 E26.6597
G1 X58.667 Y128.55 E26.78283
G1 X57.086 Y128.584 E26.85417
G1 X56.267 Y128.607 E26.89114
G1 X46.155 Y128.607 E27.34736
G1 X45.457 Y128.597 E27.37885
G1 X44.923 Y128.549 E27.40304
G1 X44.402 Y128.423 E27.42722
G1 X43.905 Y128.22 E27.45145
G1 X43.444 Y127.946 E27.47564
G1 X43.029 Y127.607 E27.49982
G1 X42.669 Y127.209 E27.52403
G1 X42.372 Y126.763 E27.54821
G1 X42.144 Y126.277 E27.57243
G1 X41.992 Y125.763 E27.59661
G1 X41.91 Y125.095 E27.62697
G1 X41.9 Y124.665 E27.64638
G1 X41.9 Y55.613 E30.76178
G1 X41.91 Y54.948 E30.79178
G1 X41.958 Y54.414 E30.81597
G1 X42.085 Y53.893 E30.84017
G1 X42.288 Y53.396 E30.86439
G1 X42.562 Y52.935 E30.88858
G1 X42.902 Y52.52 E30.91279
G1 X43.3 Y52.161 E30.93697
G0 F3000 X43.294 Y52.694
G1 F1500 X43.685 Y52.373 E30.95979
G1 X44.122 Y52.119 E30.9826
G1 X44.593 Y51.936 E31.0054
G1 X45.088 Y51.83 E31.02823
G1 X45.74 Y51.794 E31.0577
G1 X55.939 Y51.793 E31.51784
G1 X57.439 Y51.815 E31.58552
G1 X58.592 Y51.848 E31.63756
G1 X61.34 Y51.85 E31.76154
G1 X62.896 Y51.816 E31.83176
G1 X63.638 Y51.794 E31.86525
G1 X73.039 Y51.793 E32.2894
G1 X73.739 Y51.803 E32.32098
G1 X74.473 Y51.898 E32.35437
G1 X75.474 Y52.144 E32.40088
G1 X78.123 Y52.754 E32.52352
G1 X80.86 Y53.308 E32.64951
G1 X83.547 Y53.765 E32.77248
G1 X86.254 Y54.151 E32.89585
G1 X88.967 Y54.461 E33.01904
G1 X91.671 Y54.691 E33.14148
G1 X94.421 Y54.848 E33.26575
G1 X97.173 Y54.927 E33.38996
G1 X99.892 Y54.927 E33.51264
G1 X102.643 Y54.85 E33.6368
G1 X105.359 Y54.697 E33.75953
G1 X108.102 Y54.465 E33.88373
G1 X110.837 Y54.155 E34.00791
G1 X113.527 Y53.773 E34.1305
G1 X116.218 Y53.312 E34.25367
G1 X118.886 Y52.779 E34.37642
G1 X121.596 Y52.156 E34.50188
G1 X122.601 Y51.902 E34.54865
G1 X123.321 Y51.803 E34.58144
G1 X123.73 Y51.793 E34.59989
G1 X133.834 Y51.793 E35.05575
G1 X134.532 Y51.802 E35.08725
G1 X135.036 Y51.849 E35.11009
G1 X135.526 Y51.974 E35.1329
G1 X135.99 Y52.175 E35.15571
G1 X136.416 Y52.446 E35.17849
G1 X136.795 Y52.781 E35.20132
G1 X137.116 Y53.172 E35.22414
G1 X137.371 Y53.608 E35.24693
G1 X137.555 Y54.079 E35.26974
G1 X137.662 Y54.573 E35.29255
G1 X137.699 Y55.233 E35.32237
G1 X137.702 Y66.215 E35.81784
G1 X137.7 Y67.254 E35.86472
G1 X137.7 Y124.315 E38.43912
G1 X137.69 Y125.042 E38.47193
G1 X137.643 Y125.545 E38.49472
G1 X137.517 Y126.035 E38.51754
G1 X137.316 Y126.499 E38.54036
G1 X137.044 Y126.925 E38.56316
G1 X136.709 Y127.304 E38.58598
G1 X136.318 Y127.624 E38.60878
G1 X135.882 Y127.879 E38.63157
G1 X135.411 Y128.063 E38.65438
G1 X134.916 Y128.169 E38.67722
G1 X134.26 Y128.206 E38.70686
G1 X124.061 Y128.207 E39.16701
G1 X123.361 Y128.197 E39.19859
G1 X122.626 Y128.102 E39.23203
G1 X121.626 Y127.856 E39.27849
G1 X118.977 Y127.246 E39.40113
G1 X116.24 Y126.692 E39.52712
G1 X113.549 Y126.234 E39.65028
G1 X110.846 Y125.849 E39.77346
G1 X108.133 Y125.539 E39.89666
G1 X105.429 Y125.309 E40.01909
G1 X102.679 Y125.152 E40.14337
G1 X99.927 Y125.073 E40.26758
G1 X97.208 Y125.073 E40.39025
G1 X94.457 Y125.15 E40.51442
G1 X91.741 Y125.303 E40.63715
G1 X88.998 Y125.535 E40.76134
G1 X86.263 Y125.845 E40.88553
G1 X83.573 Y126.227 E41.00811
G1 X80.882 Y126.688 E41.13129
G1 X78.214 Y127.221 E41.25404
G1 X75.504 Y127.844 E41.37949
G1 X74.499 Y128.098 E41.42626
G1 X73.779 Y128.197 E41.45905
G1 X73.37 Y128.207 E41.47751
G1 X64.061 Y128.207 E41.8975
G1 X62.562 Y128.185 E41.96514
G1 X61.408 Y128.152 E42.01722
G1 X58.66 Y128.15 E42.1412
G1 X57.104 Y128.184 E42.21142
G1 X56.362 Y128.206 E42.24491
G1 X46.161 Y128.207 E42.70515
G1 X45.463 Y128.197 E42.73664
G1 X44.96 Y128.15 E42.75944
G1 X44.47 Y128.024 E42.78226
G1 X44.006 Y127.822 E42.80509
G1 X43.58 Y127.55 E42.8279
G1 X43.202 Y127.215 E42.85069
G1 X42.882 Y126.824 E42.87348
G1 X42.627 Y126.387 E42.89631
G1 X42.444 Y125.916 E42.91911
G1 X42.337 Y125.422 E42.94191
G1 X42.301 Y124.752 E42.97218
G1 X42.3 Y55.619 E46.09124
G1 X42.31 Y54.954 E46.12124
G1 X42.358 Y54.451 E46.14404
G1 X42.484 Y53.961 E46.16686
G1 X42.686 Y53.497 E46.1897
G1 X42.958 Y53.071 E46.2125
G1 X43.294 Y52.694 E46.23528
G1 F2400 E45.03528
G0 F3000 X45.7 Y67.109
;TYPE:SUPPORT
G1 F2400 E46.23528
G1 F1500 X46.958 Y67.109 E46.29204
G1 X46.958 Y67.639 E46.31595
G1 X47.124 Y68.044 E46.3357
G1 X48.318 Y69.238 E46.41188
G1 X48.723 Y69.404 E46.43163
G1 X51.3 Y69.404 E46.5479
G1 X51.3 Y110.596 E48.40634
G1 X48.723 Y110.596 E48.52261
G1 X48.318 Y110.762 E48.54236
G1 X47.124 Y111.956 E48.61854
G1 X46.958 Y112.361 E48.63829
G1 X46.958 Y112.891 E48.6622
G1 X45.7 Y112.891 E48.71896
G1 X45.7 Y67.109 E50.78449
G1 F2400 E49.58449
G0 F3000 X45.859 Y68
G1 F2400 E50.78449
G1 F1500 X46.932 Y68 E50.8329
G1 F2400 E49.6329
G0 F3000 X48 Y69.147
G1 F2400 E50.8329
G1 F1500 X48 Y110.853 E52.71454
G1 F2400 E51.51454
G0 F3000 X46.931 Y112
G1 F2400 E52.71454
G1 F1500 X45.859 Y112 E52.7629
G1 F2400 E51.5629
G0 F3000 X45.859 Y108
G1 F2400 E52.7629
G1 F1500 X51.139 Y108 E53.00112
G1 F2400 E51.80112
G0 F3000 X51.139 Y104
G1 F2400 E53.00112
G1 F1500 X45.859 Y104 E53.23933
G1 F2400 E52.03933
G0 F3000 X45.859 Y100
G1 F2400 E53.23933
G1 F1500 X51.139 Y100 E53.47755
G1 F2400 E52.27755
G0 F3000 X51.139 Y96
G1 F2400 E53.47755
G1 F1500 X45.859 Y96 E53.71577
G1 F2400 E52.51577
G0 F3000 X45.859 Y92
G1 F2400 E53.71577
G1 F1500 X51.139 Y92 E53.95398
G1 F2400 E52.75398
G0 F3000 X51.139 Y88
G1 F2400 E53.95398
G1 F1500 X45.859 Y88 E54.1922
G1 F2400 E52.9922
G0 F3000 X45.859 Y84
G1 F2400 E54.1922
G1 F1500 X51.139 Y84 E54.43042
G1 F2400 E53.23042
G0 F3000 X51.139 Y80
G1 F2400 E54.43042
G1 F1500 X45.859 Y80 E54.66863
G1 F2400 E53.46863
G0 F3000 X45.859 Y76
G1 F2400 E54.66863
G1 F1500 X51.139 Y76 E54.90685
G1 F2400 E53.70685
G0 F3000 X51.139 Y72
G1 F2400 E54.90685
G1 F1500 X45.859 Y72 E55.14506
G1 F2400 E53.94506
G0 F3000 X128.7 Y67.109
G1 F2400 E55.14506
G1 F1500 X134.3 Y67.109 E55.39772
G1 X134.3 Y112.891 E57.46325
G1 X128.7 Y112.891 E57.7159
G1 X128.7 Y67.109 E59.78144
G1 F2400 E58.58144
G0 F3000 X128.86 Y68
G1 F2400 E59.78144
G1 F1500 X134.14 Y68 E60.01965
G1 F2400 E58.81965
G0 F3000 X132 Y67.269
G1 F2400 E60.01965
G1 F1500 X132 Y112.731 E62.07075
G1 F2400 E60.87075
G0 F3000 X134.14 Y112
G1 F2400 E62.07075
G1 F1500 X128.86 Y112 E62.30897
G1 F2400 E61.10897
G0 F3000 X128.86 Y108
G1 F2400 E62.30897
G1 F1500 X134.14 Y108 E62.54718
G1 F2400 E61.34718
G0 F3000 X134.14 Y104
G1 F2400 E62.54718
G1 F1500 X128.86 Y104 E62.7854
G1 F2400 E61.5854
G0 F3000 X128.86 Y100
G1 F2400 E62.7854
G1 F1500 X134.14 Y100 E63.02361
G1 F2400 E61.82361
G0 F3000 X134.14 Y96
G1 F2400 E63.02361
G1 F1500 X128.86 Y96 E63.26183
G1 F2400 E62.06183
G0 F3000 X128.86 Y92
G1 F2400 E63.26183
G1 F1500 X134.14 Y92 E63.50005
G1 F2400 E62.30005
G0 F3000 X134.14 Y88
G1 F2400 E63.50005
G1 F1500 X128.86 Y88 E63.73826
G1 F2400 E62.53826
G0 F3000 X128.86 Y84
G1 F2400 E63.73826
G1 F1500 X134.14 Y84 E63.97648
G1 F2400 E62.77648
G0 F3000 X134.14 Y80
G1 F2400 E63.97648
G1 F1500 X128.86 Y80 E64.2147
G1 F2400 E63.0147
G0 F3000 X128.86 Y76
G1 F2400 E64.2147
G1 F1500 X134.14 Y76 E64.45291
G1 F2400 E63.25291
G0 F3000 X134.14 Y72
G1 F2400 E64.45291
G1 F1500 X128.86 Y72 E64.69113
G1 F2400 E63.49113
;MESH:raspberry_pi_plate-holder.stl
G0 F3000 X132.279 Y64.809
;TYPE:WALL-INNER
G1 F2400 E64.69113
G1 F1500 X132.619 Y64.469 E64.71282
G1 X133.1 Y63.988 E64.74351
G1 X133.1 Y64.809 E64.7649
G1 X132.279 Y64.809 E64.7883
G1 F2400 E63.5883
G0 F3000 X123.2 Y62.293
G1 F2400 E64.7883
G1 F1500 X110.758 Y62.297 E65.34964
G1 X110.758 Y66.924 E65.5584
G1 X110.578 Y67.104 E65.56988
G1 X107.438 Y67.104 E65.71155
G1 X107.258 Y66.924 E65.72303
G1 X107.258 Y62.299 E65.9317
G1 X90 Y62.304 E66.71032
G1 X73.6 Y62.299 E67.45024
G1 X73.6 Y59.893 E67.55879
G1 X90.715 Y59.904 E68.33096
G1 X123.2 Y59.893 E69.79658
G1 X123.2 Y62.293 E69.90486
G1 F2400 E68.70486
G0 F3000 X63.2 Y62.296
G1 F2400 E69.90486
G1 F1500 X55.2 Y62.293 E70.26579
G1 X55.2 Y64.797 E70.37876
G1 X52.758 Y64.805 E70.48894
G1 X52.758 Y66.924 E70.58454
G1 X52.578 Y67.104 E70.59603
G1 X49.438 Y67.104 E70.73769
G1 X49.258 Y66.924 E70.74918
G1 X49.258 Y64.809 E70.8446
G1 X46.9 Y64.809 E70.95098
G1 X46.9 Y56.393 E71.33069
G1 X55.2 Y56.393 E71.70515
G1 X55.2 Y59.893 E71.86306
G1 X63.2 Y59.893 E72.224
G1 X63.2 Y62.296 E72.33241
G0 F3000 X63.6 Y62.696
G1 F1500 X55.6 Y62.693 E72.69335
G1 X55.6 Y65.196 E72.80627
G1 X53.158 Y65.204 E72.91645
G1 X53.158 Y67.09 E73.00154
G1 X52.744 Y67.504 E73.02795
G1 X49.272 Y67.504 E73.1846
G1 X48.858 Y67.09 E73.21101
G1 X48.858 Y65.209 E73.29588
G1 X46.5 Y65.209 E73.40226
G1 X46.5 Y55.993 E73.81806
G1 X55.6 Y55.993 E74.22862
G1 X55.6 Y59.493 E74.38653
G1 X63.6 Y59.493 E74.74746
G1 X63.6 Y62.696 E74.89197
G1 F2400 E73.69197
G0 F3000 X72.529 Y63.993
G1 F2400 E74.89197
G1 F1500 X72.7 Y63.822 E74.90288
G1 X72.7 Y63.993 E74.90328
G1 X72.529 Y63.993 E74.90422
G1 F2400 E73.70422
G0 F3000 X73.2 Y62.699
G1 F2400 E74.90422
G1 F1500 X73.2 Y59.493 E75.04887
G1 X90.715 Y59.504 E75.83908
G1 X123.6 Y59.493 E77.32275
G1 X123.6 Y62.693 E77.46712
G1 X111.158 Y62.697 E78.02846
G1 X111.158 Y67.09 E78.22666
