;FLAVOR:Marlin
;TIME:2531
;Filament used: 4.08589m
;Layer height: 0.3
;MINX:41.5
;MINY:50.007
;MINZ:0.3
;MAXX:139.777
;MAXY:129.993
;MAXZ:17.7
;Generated with Cura_SteamEngine 4.12.1
M82 ;absolute extrusion mode
G21 ;metric values
G90 ;absolute positioning
M82 ;set extruder to absolute mode
M107 ;start with the fan off

M104 S200 T0 ; start heating T0 to what is set in Cura
M140 S60 ; start heating the bed to what is set in Cura
M190 S60 ; start heating the bed to what is set in Cura
M109 S200 T0 ; start heating T0 to what is set in Cura

G28 X0 Y0 ;move X/Y to min endstops
G28 Z0 ;move Z to min endstops
G1 Z15.0 F2400 ;move the platform down 15mm
G92 E0 ;zero the extruded length
G1 F200 E3 ;extrude 3mm of feed stock
G92 E0 ;zero the extruded length again
G1 F2400
G0 Y20 F2400
M117 Printing...
G5
G92 E0
G92 E0
G1 F2400 E-1.2
;LAYER_COUNT:59
;LAYER:0
M107
G0 F3000 X43.171 Y55.369 Z0.3
;TYPE:SKIRT
G1 F2400 E0
G1 F1500 X43.637 Y55.049 E0.0255
G1 X44.143 Y54.797 E0.05101
G1 X44.68 Y54.62 E0.07652
G1 X48.08 Y53.961 E0.23277
G1 X50.737 Y53.367 E0.3556
G1 X53.341 Y52.708 E0.47679
G1 X55.977 Y51.959 E0.60043
G1 X58.583 Y51.139 E0.72368
G1 X61.215 Y50.229 E0.84933
G1 X61.761 Y50.083 E0.87483
G1 X62.376 Y50.013 E0.90275
G1 X63.071 Y50.01 E0.93411
G1 X64.305 Y50.062 E0.98983
G1 X67.038 Y50.14 E1.11319
G1 X69.781 Y50.14 E1.23694
G1 X72.45 Y50.065 E1.35741
G1 X73.2 Y50.027 E1.39129
G1 X73.787 Y50.007 E1.41779
G1 X74.334 Y50.01 E1.44247
G1 X74.898 Y50.058 E1.468
G1 X75.519 Y50.195 E1.49669
G1 X78.17 Y50.805 E1.61942
G1 X80.862 Y51.348 E1.74332
G1 X83.51 Y51.799 E1.86451
G1 X86.202 Y52.182 E1.98719
G1 X88.874 Y52.486 E2.10852
G1 X91.603 Y52.718 E2.23209
G1 X94.341 Y52.873 E2.35582
G1 X97.013 Y52.949 E2.47642
G1 X99.757 Y52.949 E2.60022
G1 X102.428 Y52.873 E2.72077
G1 X105.171 Y52.718 E2.84472
G1 X107.901 Y52.486 E2.96834
G1 X110.556 Y52.185 E3.08889
G1 X113.245 Y51.802 E3.21143
G1 X115.941 Y51.341 E3.33483
G1 X118.615 Y50.804 E3.45788
G1 X120.613 Y50.351 E3.55031
G1 X121.603 Y50.117 E3.59621
G1 X122.376 Y50.013 E3.6314
G1 X123.07 Y50.01 E3.66271
G1 X124.304 Y50.062 E3.71843
G1 X127.037 Y50.14 E3.84179
G1 X129.781 Y50.14 E3.96559
G1 X132.451 Y50.065 E4.0861
G1 X133.2 Y50.027 E4.11993
G1 X133.787 Y50.007 E4.14643
G1 X134.334 Y50.01 E4.17111
G1 X134.898 Y50.058 E4.19665
G1 X135.449 Y50.185 E4.22216
G1 X135.976 Y50.388 E4.24764
G1 X136.47 Y50.664 E4.27317
G1 X136.92 Y51.006 E4.29867
G1 X137.317 Y51.409 E4.32419
G1 X137.735 Y51.984 E4.35627
G1 X138.016 Y52.474 E4.38175
G1 X138.29 Y53.229 E4.41799
G1 X138.971 Y55.919 E4.54318
G1 X139.533 Y57.906 E4.63634
G1 X139.627 Y58.253 E4.65256
G1 X139.736 Y58.808 E4.67808
G1 X139.772 Y59.399 E4.7048
G1 X139.776 Y59.779 E4.72194
G1 X139.776 Y62.436 E4.84182
G1 X139.766 Y63.139 E4.87354
G1 X139.717 Y63.704 E4.89912
G1 X139.672 Y63.989 E4.91214
G1 X139.279 Y66.745 E5.03774
G1 X138.973 Y69.436 E5.15993
G1 X138.745 Y72.105 E5.28079
G1 X138.587 Y74.879 E5.40614
G1 X138.51 Y77.533 E5.52593
G1 X138.5 Y78.978 E5.59113
G1 X138.5 Y100.936 E6.5818
G1 X138.54 Y103.737 E6.70819
G1 X138.653 Y106.406 E6.82871
G1 X138.845 Y109.113 E6.95115
G1 X139.115 Y111.834 E7.07451
G1 X139.463 Y114.554 E7.19823
G1 X139.56 Y115.174 E7.22654
G1 X139.726 Y116.329 E7.27919
G1 X139.775 Y117.108 E7.3144
G1 X139.777 Y117.229 E7.31986
G1 X139.777 Y120.009 E7.44529
G1 X139.767 Y120.732 E7.47791
G1 X139.741 Y121.137 E7.49622
G1 X139.621 Y121.759 E7.5248
G1 X139.31 Y122.883 E7.57742
G1 X139.124 Y123.525 E7.60757
G1 X138.469 Y126.046 E7.72509
G1 X138.284 Y126.801 E7.76016
G1 X138.111 Y127.339 E7.78566
G1 X137.864 Y127.848 E7.81118
G1 X137.456 Y128.429 E7.84321
G1 X137.337 Y128.57 E7.85154
G1 X136.943 Y128.975 E7.87703
G1 X136.495 Y129.321 E7.90257
G1 X136.003 Y129.6 E7.92809
G1 X135.477 Y129.807 E7.95359
G1 X134.927 Y129.937 E7.97909
G1 X134.42 Y129.988 E8.00208
G1 X133.729 Y129.99 E8.03325
G1 X132.495 Y129.938 E8.08898
G1 X129.762 Y129.86 E8.21233
G1 X127.02 Y129.86 E8.33604
G1 X124.349 Y129.935 E8.45659
G1 X123.6 Y129.973 E8.49043
G1 X123.014 Y129.993 E8.51688
G1 X122.466 Y129.99 E8.54161
G1 X121.903 Y129.942 E8.5671
G1 X121.281 Y129.805 E8.59584
G1 X118.63 Y129.195 E8.71857
G1 X115.938 Y128.652 E8.84247
G1 X113.29 Y128.201 E8.96366
G1 X110.598 Y127.818 E9.08633
G1 X107.926 Y127.514 E9.20766
G1 X105.197 Y127.282 E9.33123
G1 X102.459 Y127.127 E9.45496
G1 X99.787 Y127.051 E9.57556
G1 X97.043 Y127.051 E9.69936
G1 X94.372 Y127.127 E9.81991
G1 X91.629 Y127.282 E9.94387
G1 X88.899 Y127.514 E10.06748
G1 X86.244 Y127.815 E10.18803
G1 X83.555 Y128.198 E10.31057
G1 X80.859 Y128.659 E10.43397
G1 X78.185 Y129.196 E10.55703
G1 X76.187 Y129.649 E10.64946
G1 X75.197 Y129.883 E10.69535
G1 X74.42 Y129.987 E10.73072
G1 X73.729 Y129.99 E10.7619
G1 X72.495 Y129.938 E10.81762
G1 X69.762 Y129.86 E10.94097
G1 X67.02 Y129.86 E11.06468
G1 X64.349 Y129.935 E11.18524
G1 X63.6 Y129.973 E11.21907
G1 X63.014 Y129.993 E11.24553
G1 X62.451 Y129.988 E11.27093
G1 X61.887 Y129.939 E11.29647
G1 X61.237 Y129.779 E11.32667
G1 X60.669 Y129.586 E11.35374
G1 X59.088 Y129.028 E11.42938
G1 X56.471 Y128.187 E11.5534
G1 X53.875 Y127.433 E11.67536
G1 X51.256 Y126.751 E11.79746
G1 X48.561 Y126.13 E11.92224
G1 X45.916 Y125.602 E12.04393
G1 X44.891 Y125.411 E12.09097
G1 X44.344 Y125.269 E12.11646
G1 X43.822 Y125.051 E12.14199
G1 X43.337 Y124.761 E12.16748
G1 X42.807 Y124.32 E12.19859
G1 X42.694 Y124.208 E12.20577
G1 X42.322 Y123.783 E12.23125
G1 X42.013 Y123.309 E12.25678
G1 X41.774 Y122.797 E12.28227
G1 X41.61 Y122.256 E12.30777
G1 X41.512 Y121.502 E12.34208
G1 X41.5 Y120.811 E12.37326
G1 X41.5 Y116.136 E12.58418
G1 X41.502 Y115.06 E12.63272
G1 X41.5 Y114.819 E12.6436
G1 X41.5 Y64.885 E14.89646
G1 X41.502 Y63.808 E14.94505
G1 X41.5 Y63.567 E14.95592
G1 X41.5 Y59.24 E15.15114
G1 X41.51 Y58.56 E15.18182
G1 X41.559 Y57.997 E15.20732
G1 X41.686 Y57.446 E15.23283
G1 X41.889 Y56.919 E15.25831
G1 X42.165 Y56.425 E15.28384
G1 X42.508 Y55.976 E15.30933
G1 X43.019 Y55.49 E15.34115
G1 X43.171 Y55.369 E15.34991
G0 F3000 X43.42 Y55.681
G1 F1500 X43.863 Y55.38 E15.37408
G1 X44.346 Y55.147 E15.39827
G1 X45.029 Y54.954 E15.43029
G1 X45.476 Y54.874 E15.45078
G1 X48.18 Y54.349 E15.57505
G1 X50.818 Y53.76 E15.697
G1 X53.444 Y53.095 E15.81922
G1 X56.102 Y52.339 E15.9439
G1 X58.687 Y51.526 E16.06615
G1 X61.346 Y50.607 E16.19308
G1 X61.865 Y50.471 E16.21729
G1 X62.391 Y50.412 E16.24117
G1 X63.066 Y50.41 E16.27162
G1 X64.277 Y50.46 E16.32631
G1 X67.061 Y50.54 E16.45196
G1 X69.756 Y50.54 E16.57355
G1 X72.524 Y50.463 E16.69848
G1 X73.213 Y50.427 E16.72961
G1 X73.8 Y50.407 E16.75611
G1 X74.329 Y50.41 E16.77998
G1 X74.863 Y50.458 E16.80417
G1 X75.425 Y50.584 E16.83015
G1 X78.072 Y51.193 E16.9527
G1 X80.781 Y51.74 E17.07738
G1 X83.458 Y52.196 E17.1999
G1 X86.141 Y52.577 E17.32216
G1 X88.862 Y52.887 E17.44572
G1 X91.58 Y53.118 E17.56879
G1 X94.273 Y53.271 E17.69048
G1 X97.038 Y53.349 E17.81528
G1 X99.732 Y53.349 E17.93683
G1 X102.497 Y53.271 E18.06162
G1 X105.193 Y53.118 E18.18345
G1 X107.909 Y52.888 E18.30643
G1 X110.62 Y52.58 E18.42953
G1 X113.338 Y52.193 E18.55339
G1 X115.975 Y51.741 E18.6741
G1 X118.712 Y51.192 E18.80004
G1 X120.738 Y50.733 E18.89377
G1 X121.695 Y50.507 E18.93813
G1 X122.391 Y50.412 E18.96982
G1 X123.065 Y50.41 E19.00023
G1 X124.276 Y50.46 E19.05492
G1 X127.06 Y50.54 E19.18057
G1 X129.756 Y50.54 E19.30221
G1 X132.524 Y50.463 E19.42714
G1 X133.213 Y50.427 E19.45827
G1 X133.8 Y50.407 E19.48476
G1 X134.329 Y50.41 E19.50863
G1 X134.863 Y50.458 E19.53282
G1 X135.384 Y50.584 E19.557
G1 X135.881 Y50.786 E19.58121
G1 X136.342 Y51.06 E19.6054
G1 X136.757 Y51.4 E19.62961
G1 X137.269 Y52.006 E19.6654
G1 X137.403 Y52.206 E19.67626
G1 X137.667 Y52.673 E19.70047
G1 X137.902 Y53.327 E19.73182
G1 X138.584 Y56.02 E19.85715
G1 X139.147 Y58.011 E19.9505
G1 X139.241 Y58.358 E19.96672
G1 X139.363 Y59.147 E20.00274
G1 X139.376 Y59.783 E20.03144
G1 X139.376 Y62.43 E20.15087
G1 X139.366 Y63.133 E20.18259
G1 X139.322 Y63.642 E20.20564
G1 X139.276 Y63.933 E20.21893
G1 X138.884 Y66.681 E20.34417
G1 X138.576 Y69.393 E20.46731
G1 X138.343 Y72.119 E20.59075
G1 X138.189 Y74.81 E20.71235
G1 X138.109 Y77.608 E20.83864
G1 X138.1 Y78.975 E20.90032
G1 X138.1 Y100.942 E21.8914
G1 X138.139 Y103.724 E22.01692
G1 X138.255 Y106.451 E22.14007
G1 X138.449 Y109.18 E22.2635
G1 X138.714 Y111.857 E22.38487
G1 X139.064 Y114.595 E22.5094
G1 X139.164 Y115.231 E22.53845
G1 X139.33 Y116.386 E22.5911
G1 X139.375 Y117.12 E22.62427
G1 X139.377 Y117.229 E22.62919
G1 X139.377 Y120.004 E22.75439
G1 X139.367 Y120.727 E22.78701
G1 X139.343 Y121.093 E22.80356
G1 X139.235 Y121.653 E22.82929
G1 X138.926 Y122.772 E22.88167
G1 X138.736 Y123.427 E22.91244
G1 X138.081 Y125.951 E23.03008
G1 X137.896 Y126.706 E23.06516
G1 X137.729 Y127.216 E23.08937
G1 X137.49 Y127.695 E23.11352
G1 X137.15 Y128.171 E23.13991
G1 X137.031 Y128.312 E23.14823
G1 X136.656 Y128.695 E23.17242
G1 X136.228 Y129.018 E23.19661
G1 X135.756 Y129.273 E23.22081
G1 X135.252 Y129.456 E23.24501
G1 X134.726 Y129.562 E23.26921
G1 X134.086 Y129.595 E23.29813
G1 X133.633 Y129.587 E23.31857
G1 X132.523 Y129.54 E23.36869
G1 X129.739 Y129.46 E23.49435
G1 X127.045 Y129.46 E23.61589
G1 X124.276 Y129.537 E23.74087
G1 X123.587 Y129.573 E23.772
G1 X123.001 Y129.593 E23.79845
G1 X122.471 Y129.59 E23.82236
G1 X121.937 Y129.542 E23.84655
G1 X121.375 Y129.416 E23.87254
G1 X118.728 Y128.807 E23.99508
G1 X116.019 Y128.26 E24.11977
G1 X113.342 Y127.804 E24.24229
G1 X110.659 Y127.423 E24.36455
G1 X107.938 Y127.113 E24.48811
G1 X105.22 Y126.882 E24.61118
G1 X102.527 Y126.729 E24.73287
G1 X99.762 Y126.651 E24.85767
G1 X97.068 Y126.651 E24.97921
G1 X94.303 Y126.729 E25.10401
G1 X91.607 Y126.882 E25.22584
G1 X88.891 Y127.112 E25.34882
G1 X86.18 Y127.42 E25.47191
G1 X83.462 Y127.807 E25.59578
G1 X80.825 Y128.259 E25.71649
G1 X78.088 Y128.808 E25.84243
G1 X76.062 Y129.267 E25.93615
G1 X75.105 Y129.493 E25.98052
G1 X74.405 Y129.588 E26.01239
G1 X73.735 Y129.59 E26.04262
G1 X72.523 Y129.54 E26.09734
G1 X69.739 Y129.46 E26.223
G1 X67.045 Y129.46 E26.34455
G1 X64.276 Y129.537 E26.46952
G1 X63.587 Y129.573 E26.50065
G1 X63.001 Y129.593 E26.5271
G1 X62.457 Y129.589 E26.55165
G1 X61.923 Y129.54 E26.57584
G1 X61.365 Y129.4 E26.6018
G1 X60.802 Y129.209 E26.62862
G1 X59.196 Y128.642 E26.70546
G1 X56.6 Y127.808 E26.82848
G1 X53.983 Y127.047 E26.95144
G1 X51.349 Y126.362 E27.07423
G1 X48.65 Y125.74 E27.19919
G1 X46.003 Y125.211 E27.32098
G1 X44.964 Y125.018 E27.36866
G1 X44.446 Y124.881 E27.39283
G1 X43.953 Y124.668 E27.41706
G1 X43.498 Y124.385 E27.44123
G1 X43.089 Y124.036 E27.46549
G1 X42.976 Y123.924 E27.47267
G1 X42.624 Y123.519 E27.49688
G1 X42.336 Y123.066 E27.5211
G1 X42.119 Y122.576 E27.54528
G1 X41.977 Y122.059 E27.56946
G1 X41.912 Y121.489 E27.59535
G1 X41.9 Y120.807 E27.62612
G1 X41.9 Y116.136 E27.83686
G1 X41.902 Y115.06 E27.88541
G1 X41.9 Y114.816 E27.89642
G1 X41.9 Y64.885 E30.14914
G1 X41.902 Y63.808 E30.19773
G1 X41.9 Y63.564 E30.20874
G1 X41.9 Y59.246 E30.40355
G1 X41.91 Y58.566 E30.43424
G1 X41.958 Y58.032 E30.45843
G1 X42.085 Y57.511 E30.48262
G1 X42.287 Y57.014 E30.50682
G1 X42.562 Y56.553 E30.53104
G1 X42.901 Y56.138 E30.55522
G1 X43.42 Y55.681 E30.58642
G0 F3000 X43.669 Y55.994
G1 F1500 X44.088 Y55.712 E30.6092
G1 X44.547 Y55.499 E30.63203
G1 X45.1 Y55.348 E30.6579
G1 X45.545 Y55.269 E30.67829
G1 X48.237 Y54.746 E30.80201
G1 X50.931 Y54.144 E30.92655
G1 X53.546 Y53.482 E31.04826
G1 X56.226 Y52.72 E31.17396
G1 X58.833 Y51.9 E31.29726
G1 X61.477 Y50.986 E31.42348
G1 X61.966 Y50.859 E31.44627
G1 X62.542 Y50.807 E31.47236
G1 X63.06 Y50.81 E31.49573
G1 X64.257 Y50.86 E31.54979
G1 X67.05 Y50.94 E31.67585
G1 X69.768 Y50.94 E31.79848
G1 X72.514 Y50.863 E31.92242
G1 X73.227 Y50.827 E31.95462
G1 X73.814 Y50.807 E31.98112
G1 X74.323 Y50.81 E32.00409
G1 X75.034 Y50.901 E32.03643
G1 X75.291 Y50.963 E32.04836
G1 X78.01 Y51.588 E32.17423
G1 X80.707 Y52.132 E32.29836
G1 X83.406 Y52.592 E32.42188
G1 X86.106 Y52.976 E32.54492
G1 X88.819 Y53.285 E32.66812
G1 X91.524 Y53.515 E32.7906
G1 X94.274 Y53.671 E32.91487
G1 X97.026 Y53.749 E33.03908
G1 X99.743 Y53.749 E33.16166
G1 X102.496 Y53.671 E33.28592
G1 X105.214 Y53.517 E33.40874
G1 X107.952 Y53.285 E33.53271
G1 X110.69 Y52.974 E33.65704
G1 X113.385 Y52.59 E33.77986
G1 X116.09 Y52.127 E33.90367
G1 X118.754 Y51.592 E34.02626
G1 X120.826 Y51.123 E34.12211
G1 X121.787 Y50.896 E34.16666
G1 X122.405 Y50.812 E34.1948
G1 X123.059 Y50.81 E34.2243
G1 X124.256 Y50.86 E34.27836
G1 X127.049 Y50.94 E34.40442
G1 X129.768 Y50.94 E34.52709
G1 X132.515 Y50.863 E34.65108
G1 X133.227 Y50.827 E34.68324
G1 X133.814 Y50.807 E34.70974
G1 X134.323 Y50.81 E34.7327
G1 X134.826 Y50.857 E34.7555
G1 X135.316 Y50.983 E34.77832
G1 X135.78 Y51.184 E34.80114
G1 X136.206 Y51.456 E34.82394
G1 X136.584 Y51.792 E34.84676
G1 X136.936 Y52.229 E34.87207
G1 X137.07 Y52.429 E34.88293
G1 X137.318 Y52.87 E34.90576
G1 X137.514 Y53.425 E34.93232
G1 X138.195 Y56.115 E35.05751
G1 X138.761 Y58.115 E35.15129
G1 X138.855 Y58.462 E35.16751
G1 X138.963 Y59.164 E35.19955
G1 X138.976 Y59.787 E35.22766
G1 X138.976 Y62.425 E35.34668
G1 X138.966 Y63.128 E35.3784
G1 X138.873 Y63.923 E35.41452
G1 X138.485 Y66.646 E35.53861
G1 X138.178 Y69.35 E35.66139
G1 X137.945 Y72.064 E35.78429
G1 X137.789 Y74.81 E35.90838
G1 X137.71 Y77.573 E36.03308
G1 X137.7 Y78.972 E36.0962
G1 X137.7 Y100.948 E37.08769
G1 X137.74 Y103.746 E37.21394
G1 X137.855 Y106.462 E37.33659
G1 X138.05 Y109.208 E37.46079
G1 X138.318 Y111.914 E37.58347
G1 X138.666 Y114.637 E37.70732
G1 X138.768 Y115.288 E37.73705
G1 X138.934 Y116.443 E37.7897
G1 X138.976 Y117.132 E37.82084
G1 X138.977 Y119.998 E37.95014
G1 X138.967 Y120.721 E37.98277
G1 X138.945 Y121.048 E37.99755
G1 X138.85 Y121.546 E38.02043
G1 X138.542 Y122.661 E38.07262
G1 X138.351 Y123.321 E38.10362
G1 X137.681 Y125.899 E38.22379
G1 X137.507 Y126.611 E38.25686
G1 X137.348 Y127.091 E38.27967
G1 X137.116 Y127.54 E38.30247
G1 X136.725 Y128.054 E38.33161
G1 X136.37 Y128.413 E38.35439
G1 X135.962 Y128.712 E38.37721
G1 X135.512 Y128.943 E38.40003
G1 X135.032 Y129.1 E38.42282
G1 X134.392 Y129.188 E38.45196
G1 X133.74 Y129.19 E38.48138
G1 X132.543 Y129.14 E38.53543
G1 X129.75 Y129.06 E38.66149
G1 X127.033 Y129.06 E38.78408
G1 X124.285 Y129.137 E38.90811
G1 X123.573 Y129.173 E38.94027
G1 X122.987 Y129.193 E38.96672
G1 X122.477 Y129.19 E38.98973
G1 X121.766 Y129.099 E39.02207
G1 X121.509 Y129.037 E39.034
G1 X118.79 Y128.412 E39.15987
G1 X116.093 Y127.868 E39.284
G1 X113.394 Y127.408 E39.40753
G1 X110.694 Y127.024 E39.53057
G1 X107.981 Y126.715 E39.65376
G1 X105.276 Y126.485 E39.77624
G1 X102.526 Y126.329 E39.90051
G1 X99.774 Y126.251 E40.02472
G1 X97.057 Y126.251 E40.14731
G1 X94.304 Y126.329 E40.27156
G1 X91.586 Y126.483 E40.39439
G1 X88.848 Y126.715 E40.51836
G1 X86.11 Y127.026 E40.64268
G1 X83.415 Y127.41 E40.7655
G1 X80.71 Y127.873 E40.88932
G1 X78.046 Y128.408 E41.01191
G1 X75.974 Y128.877 E41.10775
G1 X75.013 Y129.104 E41.1523
G1 X74.391 Y129.188 E41.18062
G1 X73.74 Y129.19 E41.20999
G1 X72.543 Y129.14 E41.26404
G1 X69.75 Y129.06 E41.39011
G1 X67.033 Y129.06 E41.51269
G1 X64.285 Y129.137 E41.63672
G1 X63.573 Y129.173 E41.66888
G1 X62.987 Y129.193 E41.69534
G1 X62.464 Y129.189 E41.71893
G1 X61.961 Y129.14 E41.74173
G1 X61.493 Y129.021 E41.76352
G1 X60.935 Y128.832 E41.7901
G1 X59.314 Y128.26 E41.86765
G1 X56.729 Y127.429 E41.99016
G1 X54.089 Y126.662 E42.11419
G1 X51.426 Y125.969 E42.23834
G1 X48.753 Y125.353 E42.3621
G1 X46.076 Y124.818 E42.48526
G1 X45.037 Y124.625 E42.53294
G1 X44.549 Y124.493 E42.55575
G1 X44.088 Y124.287 E42.57853
G1 X43.665 Y124.01 E42.60134
G1 X43.257 Y123.64 E42.62619
G1 X42.927 Y123.257 E42.649
G1 X42.662 Y122.826 E42.67183
G1 X42.468 Y122.36 E42.6946
G1 X42.349 Y121.868 E42.71744
G1 X42.307 Y121.327 E42.74192
G1 X42.3 Y120.802 E42.76561
G1 X42.3 Y116.137 E42.97608
G1 X42.302 Y115.061 E43.02462
G1 X42.3 Y114.813 E43.03581
G1 X42.3 Y64.886 E45.28836
G1 X42.302 Y63.809 E45.33695
G1 X42.3 Y63.561 E45.34814
G1 X42.3 Y59.252 E45.54254
G1 X42.31 Y58.572 E45.57323
G1 X42.358 Y58.069 E45.59602
G1 X42.484 Y57.579 E45.61885
G1 X42.685 Y57.115 E45.64166
G1 X42.957 Y56.689 E45.66447
