;FLAVOR:Marlin
;TIME:2668
;Filament used: 4.44866m
;Layer height: 0.3
;MINX:64.331
;MINY:35.55
;MINZ:0.3
;MAXX:125.867
;MAXY:143.55
;MAXZ:17.4
;Generated with Cura_SteamEngine 4.12.1
M82 ;absolute extrusion mode
G21 ;metric values
G90 ;absolute positioning
M82 ;set extruder to absolute mode
M107 ;start with the fan off

M104 S205.0 T0 ; start heating T0 to what is set in Cura
M140 S60 ; start heating the bed to what is set in Cura
M190 S60 ; start heating the bed to what is set in Cura
M109 S205.0 T0 ; start heating T0 to what is set in Cura

G28 X0 Y0 ;move X/Y to min endstops
G28 Z0 ;move Z to min endstops
G1 Z15.0 F2400 ;move the platform down 15mm
G92 E0 ;zero the extruded length
G1 F200 E3 ;extrude 3mm of feed stock
G92 E0 ;zero the extruded length again
G1 F2400
G0 Y20 F2400
M117 Printing...
G5
G92 E0
G92 E0
G1 F2400 E-1.2
;LAYER_COUNT:58
;LAYER:0
M107
G0 F3000 X64.993 Y37.379 Z0.3
;TYPE:SKIRT
G1 F2400 E0
G1 F1500 X65.335 Y36.929 E0.0255
G1 X65.737 Y36.532 E0.05099
G1 X66.191 Y36.195 E0.0765
G1 X66.688 Y35.926 E0.102
G1 X67.218 Y35.729 E0.12751
G1 X67.771 Y35.61 E0.15303
G1 X68.549 Y35.562 E0.1882
G1 X68.661 Y35.56 E0.19325
G1 X71.255 Y35.56 E0.31028
G1 X72.62 Y35.55 E0.37187
G1 X91.232 Y35.55 E1.21158
G1 X92.646 Y35.56 E1.27538
G1 X94.881 Y35.56 E1.37621
G1 X95.582 Y35.57 E1.40784
G1 X96.145 Y35.618 E1.43334
G1 X96.696 Y35.745 E1.45885
G1 X97.224 Y35.949 E1.48438
G1 X97.717 Y36.224 E1.50985
G1 X98.167 Y36.567 E1.53538
G1 X98.564 Y36.969 E1.56087
G1 X98.9 Y37.424 E1.58639
G1 X99.169 Y37.921 E1.61189
G1 X99.333 Y38.347 E1.63248
G1 X99.49 Y38.835 E1.65561
G1 X100.384 Y41.475 E1.78136
G1 X101.322 Y44.008 E1.90323
G1 X102.335 Y46.523 E2.02555
G1 X103.419 Y49.006 E2.14779
G1 X104.581 Y51.478 E2.27102
G1 X105.797 Y53.885 E2.39269
G1 X107.103 Y56.297 E2.51644
G1 X108.439 Y58.606 E2.6368
G1 X109.884 Y60.949 E2.76099
G1 X111.379 Y63.228 E2.88396
G1 X112.915 Y65.428 E3.00502
G1 X114.529 Y67.607 E3.12736
G1 X116.215 Y69.753 E3.25049
G1 X117.977 Y71.87 E3.37475
G1 X119.728 Y73.856 E3.49421
G1 X120.886 Y75.1 E3.57088
G1 X121.269 Y75.524 E3.59666
G1 X121.618 Y75.969 E3.62218
G1 X121.9 Y76.459 E3.64768
G1 X122.11 Y76.984 E3.6732
G1 X122.244 Y77.533 E3.69869
G1 X122.299 Y78.082 E3.72359
G1 X122.311 Y78.53 E3.7438
G1 X122.311 Y81.05 E3.8575
G1 X122.301 Y81.749 E3.88904
G1 X122.291 Y81.974 E3.8992
G1 X122.204 Y83.205 E3.95488
G1 X122.047 Y85.999 E4.08113
G1 X121.971 Y88.673 E4.20182
G1 X121.971 Y91.418 E4.32567
G1 X122.047 Y94.09 E4.44627
G1 X122.203 Y96.851 E4.57103
G1 X122.289 Y97.962 E4.62131
G1 X122.31 Y98.507 E4.64592
G1 X122.312 Y98.629 E4.65142
G1 X122.312 Y101.15 E4.76516
G1 X122.302 Y101.853 E4.79688
G1 X122.254 Y102.416 E4.82237
G1 X122.127 Y102.967 E4.84788
G1 X121.923 Y103.495 E4.87342
G1 X121.649 Y103.986 E4.89879
G1 X120.949 Y105.056 E4.95648
G1 X119.503 Y107.332 E5.07814
G1 X118.096 Y109.694 E5.20217
G1 X116.777 Y112.054 E5.32415
G1 X115.515 Y114.471 E5.44717
G1 X114.336 Y116.896 E5.56882
G1 X113.218 Y119.371 E5.69135
G1 X112.167 Y121.883 E5.8142
G1 X111.182 Y124.433 E5.93753
G1 X110.283 Y126.984 E6.05957
G1 X109.461 Y129.542 E6.18079
G1 X108.694 Y132.177 E6.3046
G1 X108.012 Y134.794 E6.42662
G1 X107.403 Y137.437 E6.54898
G1 X106.843 Y140.228 E6.67742
G1 X106.693 Y140.773 E6.70292
G1 X106.467 Y141.292 E6.72846
G1 X106.171 Y141.773 E6.75394
G1 X105.809 Y142.208 E6.77947
G1 X105.391 Y142.588 E6.80496
G1 X104.922 Y142.904 E6.83047
G1 X104.414 Y143.152 E6.85598
G1 X103.876 Y143.325 E6.88147
G1 X103.319 Y143.421 E6.90697
G1 X102.713 Y143.448 E6.93434
G1 X102.601 Y143.45 E6.9394
G1 X100.034 Y143.45 E7.05521
G1 X97.235 Y143.49 E7.18151
G1 X97.055 Y143.497 E7.18963
G1 X95.201 Y143.55 E7.27331
G1 X89.85 Y143.55 E7.51473
G1 X81.866 Y143.545 E7.87494
G1 X68.976 Y143.55 E8.4565
G1 X68.282 Y143.54 E8.48781
G1 X67.719 Y143.492 E8.51331
G1 X67.168 Y143.365 E8.53882
G1 X66.641 Y143.161 E8.56431
G1 X66.147 Y142.885 E8.58984
G1 X65.697 Y142.543 E8.61534
G1 X65.301 Y142.14 E8.64083
G1 X64.964 Y141.686 E8.66634
G1 X64.695 Y141.188 E8.69188
G1 X64.499 Y140.658 E8.71737
G1 X64.38 Y140.106 E8.74285
G1 X64.332 Y139.31 E8.77883
G1 X64.331 Y40.18 E13.25125
G1 X64.34 Y39.515 E13.28125
G1 X64.388 Y38.952 E13.30675
G1 X64.514 Y38.401 E13.33225
G1 X64.717 Y37.873 E13.35777
G1 X64.993 Y37.379 E13.3833
G0 F3000 X65.389 Y37.507
G1 F1500 X65.728 Y37.091 E13.40751
G1 X66.125 Y36.731 E13.43169
G1 X66.572 Y36.433 E13.45593
G1 X67.057 Y36.205 E13.48011
G1 X67.571 Y36.052 E13.5043
G1 X68.239 Y35.97 E13.53467
G1 X68.661 Y35.96 E13.55371
G1 X71.258 Y35.96 E13.67088
G1 X72.623 Y35.95 E13.73247
G1 X91.229 Y35.95 E14.57191
G1 X92.643 Y35.96 E14.6357
G1 X94.875 Y35.96 E14.7364
G1 X95.576 Y35.97 E14.76803
G1 X96.111 Y36.018 E14.79227
G1 X96.632 Y36.144 E14.81645
G1 X97.128 Y36.347 E14.84063
G1 X97.589 Y36.621 E14.86483
G1 X98.005 Y36.96 E14.88904
G1 X98.365 Y37.357 E14.91322
G1 X98.662 Y37.804 E14.93743
G1 X98.953 Y38.469 E14.97018
G1 X99.129 Y39.017 E14.99615
G1 X100.001 Y41.594 E15.11889
G1 X100.947 Y44.147 E15.24172
G1 X101.962 Y46.666 E15.36425
G1 X103.062 Y49.187 E15.48835
G1 X104.227 Y51.664 E15.61185
G1 X105.438 Y54.062 E15.73305
G1 X106.748 Y56.482 E15.8572
G1 X108.111 Y58.837 E15.97996
G1 X109.552 Y61.173 E16.10379
G1 X111.033 Y63.432 E16.22566
G1 X112.582 Y65.649 E16.34768
G1 X114.226 Y67.869 E16.47232
G1 X115.909 Y70.011 E16.59522
G1 X117.653 Y72.107 E16.71824
G1 X119.452 Y74.148 E16.84098
G1 X120.589 Y75.368 E16.91622
G1 X120.972 Y75.792 E16.942
G1 X121.301 Y76.215 E16.96618
G1 X121.564 Y76.683 E16.9904
G1 X121.753 Y77.185 E17.0146
G1 X121.867 Y77.709 E17.0388
G1 X121.909 Y78.419 E17.07088
G1 X121.911 Y78.53 E17.07589
G1 X121.911 Y81.044 E17.18932
G1 X121.901 Y81.743 E17.22086
G1 X121.892 Y81.946 E17.23002
G1 X121.801 Y83.234 E17.28828
G1 X121.649 Y85.929 E17.41006
G1 X121.571 Y88.698 E17.53504
G1 X121.571 Y91.393 E17.65663
G1 X121.649 Y94.158 E17.78143
G1 X121.803 Y96.863 E17.90367
G1 X121.89 Y97.986 E17.95448
G1 X121.91 Y98.52 E17.97859
G1 X121.912 Y98.629 E17.98351
G1 X121.912 Y101.144 E18.09698
G1 X121.902 Y101.847 E18.1287
G1 X121.854 Y102.381 E18.15289
G1 X121.728 Y102.903 E18.17712
G1 X121.525 Y103.399 E18.2013
G1 X121.315 Y103.767 E18.22041
G1 X120.615 Y104.837 E18.2781
G1 X119.155 Y107.134 E18.40089
G1 X117.761 Y109.473 E18.52374
G1 X116.416 Y111.88 E18.64814
G1 X115.173 Y114.262 E18.76936
G1 X113.97 Y116.736 E18.89348
G1 X112.843 Y119.23 E19.01695
G1 X111.796 Y121.732 E19.13932
G1 X110.8 Y124.31 E19.26401
G1 X109.911 Y126.833 E19.3847
G1 X109.079 Y129.423 E19.50743
G1 X108.309 Y132.069 E19.63176
G1 X107.621 Y134.708 E19.75481
G1 X107.017 Y137.333 E19.87633
G1 X106.451 Y140.15 E20.00597
G1 X106.306 Y140.666 E20.03015
G1 X106.087 Y141.155 E20.05432
G1 X105.797 Y141.607 E20.07855
G1 X105.443 Y142.01 E20.10275
G1 X105.034 Y142.356 E20.12692
G1 X104.577 Y142.637 E20.15113
G1 X104.084 Y142.848 E20.17532
G1 X103.565 Y142.983 E20.19952
G1 X103.022 Y143.04 E20.22415
G1 X102.601 Y143.05 E20.24315
G1 X100.028 Y143.05 E20.35923
G1 X97.247 Y143.089 E20.48471
G1 X97.044 Y143.097 E20.49388
G1 X95.201 Y143.15 E20.57707
G1 X89.851 Y143.15 E20.81844
G1 X81.866 Y143.145 E21.1787
G1 X68.982 Y143.15 E21.75998
G1 X68.288 Y143.14 E21.79129
G1 X67.754 Y143.092 E21.81548
G1 X67.233 Y142.966 E21.83967
G1 X66.736 Y142.763 E21.86389
G1 X66.275 Y142.489 E21.88808
G1 X65.86 Y142.15 E21.91226
G1 X65.5 Y141.752 E21.93647
G1 X65.203 Y141.306 E21.96065
G1 X64.975 Y140.82 E21.98487
G1 X64.822 Y140.306 E22.00906
G1 X64.741 Y139.636 E22.03951
G1 X64.731 Y139.203 E22.05905
G1 X64.731 Y40.185 E26.52642
G1 X64.74 Y39.52 E26.55642
G1 X64.788 Y38.986 E26.58061
G1 X64.914 Y38.465 E26.6048
G1 X65.116 Y37.968 E26.629
G1 X65.389 Y37.507 E26.65317
G0 F3000 X65.785 Y37.642
G1 F1500 X66.12 Y37.264 E26.67596
G1 X66.511 Y36.943 E26.69878
G1 X66.948 Y36.688 E26.72161
G1 X67.419 Y36.504 E26.74443
G1 X67.913 Y36.398 E26.76722
G1 X68.571 Y36.361 E26.79695
G1 X71.261 Y36.36 E26.91832
G1 X72.626 Y36.35 E26.9799
G1 X91.227 Y36.35 E27.81912
G1 X92.641 Y36.36 E27.88292
G1 X94.87 Y36.36 E27.98348
G1 X95.571 Y36.37 E28.01511
G1 X96.074 Y36.417 E28.0379
G1 X96.564 Y36.543 E28.06073
G1 X97.027 Y36.745 E28.08352
G1 X97.454 Y37.017 E28.10636
G1 X97.832 Y37.352 E28.12915
G1 X98.152 Y37.743 E28.15195
G1 X98.407 Y38.18 E28.17477
G1 X98.572 Y38.591 E28.19475
G1 X98.748 Y39.139 E28.22072
G1 X99.623 Y41.725 E28.34389
G1 X100.577 Y44.3 E28.46778
G1 X101.595 Y46.826 E28.59066
G1 X102.691 Y49.338 E28.71431
G1 X103.866 Y51.836 E28.83885
G1 X105.087 Y54.254 E28.96107
G1 X106.393 Y56.666 E29.08482
G1 X107.767 Y59.041 E29.20861
G1 X109.21 Y61.381 E29.33264
G1 X110.714 Y63.674 E29.45636
G1 X112.265 Y65.894 E29.57854
G1 X113.905 Y68.108 E29.70285
G1 X115.585 Y70.247 E29.82556
G1 X117.362 Y72.382 E29.95089
G1 X119.16 Y74.422 E30.07357
G1 X120.293 Y75.636 E30.14849
G1 X120.676 Y76.06 E30.17427
G1 X120.984 Y76.461 E30.19708
G1 X121.225 Y76.905 E30.21987
G1 X121.393 Y77.382 E30.24269
G1 X121.499 Y78.107 E30.27575
G1 X121.511 Y78.53 E30.29484
G1 X121.511 Y81.039 E30.40804
G1 X121.501 Y81.738 E30.43958
G1 X121.493 Y81.918 E30.44771
G1 X121.402 Y83.206 E30.50596
G1 X121.249 Y85.931 E30.6291
G1 X121.171 Y88.687 E30.75349
G1 X121.171 Y91.405 E30.87612
G1 X121.249 Y94.157 E31.00033
G1 X121.405 Y96.915 E31.12496
G1 X121.49 Y98.009 E31.17446
G1 X121.511 Y98.532 E31.19808
G1 X121.512 Y101.139 E31.3157
G1 X121.502 Y101.842 E31.34742
G1 X121.455 Y102.345 E31.37021
G1 X121.329 Y102.835 E31.39304
G1 X121.127 Y103.298 E31.41583
G1 X120.98 Y103.548 E31.42891
G1 X120.28 Y104.618 E31.4866
G1 X118.811 Y106.93 E31.61018
G1 X117.418 Y109.268 E31.73297
G1 X116.071 Y111.679 E31.85757
G1 X114.802 Y114.109 E31.98126
G1 X113.61 Y116.561 E32.10426
G1 X112.48 Y119.061 E32.22804
G1 X111.425 Y121.583 E32.35138
G1 X110.426 Y124.17 E32.4765
G1 X109.525 Y126.726 E32.59877
G1 X108.689 Y129.327 E32.72203
G1 X107.932 Y131.929 E32.84429
G1 X107.23 Y134.623 E32.96989
G1 X106.62 Y137.27 E33.09245
G1 X106.058 Y140.071 E33.22134
G1 X105.92 Y140.557 E33.24413
G1 X105.707 Y141.016 E33.26696
G1 X105.424 Y141.435 E33.28977
G1 X105.079 Y141.804 E33.31256
G1 X104.68 Y142.114 E33.33536
G1 X104.237 Y142.358 E33.35818
G1 X103.761 Y142.529 E33.381
G1 X103.264 Y142.623 E33.40382
G1 X102.691 Y142.649 E33.4297
G1 X100.022 Y142.65 E33.55011
G1 X97.225 Y142.69 E33.67632
G1 X97.032 Y142.698 E33.68503
G1 X95.295 Y142.749 E33.76343
G1 X89.851 Y142.75 E34.00905
G1 X81.866 Y142.745 E34.36931
G1 X68.988 Y142.75 E34.95032
G1 X68.294 Y142.74 E34.98163
G1 X67.791 Y142.692 E35.00443
G1 X67.301 Y142.567 E35.02725
G1 X66.837 Y142.365 E35.05008
G1 X66.411 Y142.093 E35.07288
G1 X66.033 Y141.758 E35.09567
G1 X65.712 Y141.367 E35.11849
G1 X65.458 Y140.93 E35.1413
G1 X65.275 Y140.459 E35.16409
G1 X65.168 Y139.964 E35.18694
G1 X65.132 Y139.288 E35.21749
G1 X65.131 Y40.191 E39.68842
G1 X65.14 Y39.526 E39.71842
G1 X65.187 Y39.022 E39.74126
G1 X65.313 Y38.533 E39.76404
G1 X65.514 Y38.069 E39.78686
G1 X65.785 Y37.642 E39.80967
G1 F2400 E38.60967
;MESH:vise_holder_large-vise_4cm.stl
G0 F3000 X69.331 Y40.56
;TYPE:WALL-INNER
G1 F2400 E39.80967
G1 F1500 X73.056 Y40.56 E39.97773
G1 X73.055 Y40.55 E39.97819
G1 X80.56 Y40.55 E40.31679
G1 X80.559 Y41.75 E40.37093
G1 X80.031 Y41.75 E40.39475
G1 X80.031 Y45.25 E40.55266
G1 X80.56 Y45.25 E40.57652
G1 X80.56 Y46.45 E40.63066
G1 X72.831 Y46.45 E40.97937
G1 X72.831 Y131.655 E44.82354
G1 X91.031 Y131.655 E45.64466
G1 X91.031 Y46.45 E49.48883
G1 X83.302 Y46.45 E49.83754
G1 X83.302 Y45.25 E49.89168
G1 X83.831 Y45.25 E49.91555
G1 X83.831 Y41.75 E50.07345
G1 X83.302 Y41.75 E50.09732
G1 X83.302 Y40.55 E50.15146
G1 X91.006 Y40.55 E50.49904
G1 X91.007 Y40.56 E50.49949
G1 X94.531 Y40.56 E50.65849
G1 X94.531 Y69.735 E51.97477
G1 X93.131 Y71.135 E52.06409
G1 X93.131 Y77.765 E52.36322
G1 X94.531 Y79.165 E52.45254
G1 X94.531 Y129.735 E54.73409
G1 X93.131 Y131.135 E54.82342
G1 X93.131 Y137.765 E55.12254
G1 X93.576 Y138.21 E55.15094
G1 X93.916 Y138.55 E55.17263
G1 X93.435 Y138.55 E55.18432
G1 X89.853 Y138.55 E55.34592
G1 X81.931 Y138.545 E55.70334
G1 X69.331 Y138.55 E56.27181
G1 X69.331 Y40.56 E60.6928
G1 F2400 E59.4928
G0 F3000 X101.08 Y70.05
G1 F2400 E60.6928
G1 F1500 X101.561 Y70.05 E60.7145
G1 X102.331 Y70.05 E60.74924
G1 X102.331 Y70.82 E60.78398
G1 X102.331 Y71.301 E60.80568
G1 X101.991 Y70.961 E60.81734
G1 X101.42 Y70.39 E60.85377
G1 X101.08 Y70.05 E60.86543
G1 F2400 E59.66543
G0 F3000 X102.331 Y77.599
G1 F2400 E60.86543
G1 F1500 X102.331 Y78.08 E60.88713
G1 X102.331 Y78.85 E60.92187
G1 X101.561 Y78.85 E60.95661
G1 X101.08 Y78.85 E60.97831
G1 X101.42 Y78.51 E60.98997
G1 X101.991 Y77.939 E61.02641
G1 X102.331 Y77.599 E61.03807
G1 F2400 E59.83807
G0 F3000 X101.08 Y130.05
G1 F2400 E61.03807
G1 F1500 X101.561 Y130.05 E61.05977
G1 X102.331 Y130.05 E61.09451
G1 X102.331 Y130.82 E61.12925
G1 X102.331 Y131.301 E61.15095
G1 X101.991 Y130.961 E61.16261
G1 X101.42 Y130.39 E61.19904
G1 X101.08 Y130.05 E61.2107
G1 F2400 E60.0107
G0 F3000 X102.331 Y137.599
G1 F2400 E61.2107
G1 F1500 X102.331 Y138.08 E61.2324
G1 X102.331 Y138.85 E61.26714
G1 X101.561 Y138.85 E61.30188
G1 X101.08 Y138.85 E61.32358
G1 X101.42 Y138.51 E61.33524
G1 X101.991 Y137.939 E61.37168
G1 X102.331 Y137.599 E61.38334
G1 F2400 E60.18334
G0 F3000 X94.931 Y138.85
G1 F2400 E61.38334
G1 F1500 X94.931 Y138.95 E61.38785
G1 X89.853 Y138.95 E61.61695
G1 X81.931 Y138.945 E61.97437
G1 X68.931 Y138.95 E62.56088
G1 X68.931 Y40.16 E67.01796
G1 X72.614 Y40.16 E67.18413
G1 X72.613 Y40.15 E67.18458
G1 X80.96 Y40.15 E67.56117
G1 X82.902 Y40.15 E67.64879
G1 X91.368 Y40.15 E68.03074
G1 X91.369 Y40.16 E68.0312
G1 X94.931 Y40.16 E68.1919
G1 X94.931 Y70.05 E69.54044
G1 X94.782 Y70.05 E69.54716
G1 X93.531 Y71.301 E69.62698
G1 X93.531 Y77.599 E69.91113
G1 X94.782 Y78.85 E69.99095
G1 X94.931 Y78.85 E69.99767
G1 X94.931 Y130.05 E72.30765
G1 X94.782 Y130.05 E72.31437
G1 X93.531 Y131.301 E72.39419
G1 X93.531 Y137.599 E72.67833
G1 X94.782 Y138.85 E72.75815
G1 X94.931 Y138.85 E72.76236
G1 F2400 E71.56236
G0 F3000 X101.931 Y137.433
;TYPE:WALL-OUTER
G1 F2400 E72.76236
G1 F1500 X101.931 Y131.467 E73.03152
G1 X100.914 Y130.45 E73.09641
G1 X94.948 Y130.45 E73.36558
G1 X93.931 Y131.467 E73.43047
G1 X93.931 Y137.433 E73.69963
G1 X94.948 Y138.45 E73.76452
G1 X100.914 Y138.45 E74.03369
G1 X101.931 Y137.433 E74.09858
G0 F3000 X101.931 Y137.233
G1 F2400 E72.89858
G0 F3000 X90.631 Y131.255
;TYPE:WALL-INNER
G1 F2400 E74.09858
G1 F1500 X90.631 Y46.85 E77.90665
G1 X82.902 Y46.85 E78.25536
G1 X80.96 Y46.85 E78.34298
G1 X73.231 Y46.85 E78.69169
G1 X73.231 Y131.255 E82.49976
G1 X90.631 Y131.255 E83.28479
G0 F3000 X90.231 Y130.855
;TYPE:WALL-OUTER
G1 F1500 X90.231 Y47.25 E87.05677
G1 X73.631 Y47.25 E87.80571
G1 X73.631 Y130.855 E91.57769
G1 X90.231 Y130.855 E92.32663
G0 F3000 X90.231 Y130.655
G0 X90.671 Y130.655
G1 F2400 E91.12663
G0 F3000 X94.948 Y78.45
G1 F2400 E92.32663
G1 F1500 X100.914 Y78.45 E92.5958
G1 X101.931 Y77.433 E92.66069
G1 X101.931 Y71.467 E92.92985
G1 X100.914 Y70.45 E92.99474
G1 X94.948 Y70.45 E93.26391
G1 X93.931 Y71.467 E93.3288
G1 X93.931 Y77.433 E93.59796
G1 X94.948 Y78.45 E93.66285
G0 F3000 X95.148 Y78.45
G1 F2400 E92.46285
G0 F3000 X82.902 Y46.697
;TYPE:WALL-INNER
G1 F2400 E93.66285
G1 F1500 X82.902 Y44.85 E93.74618
G1 X83.431 Y44.85 E93.77005
G1 X83.431 Y42.15 E93.89187
G1 X82.902 Y42.15 E93.91573
G1 X82.902 Y40.403 E93.99455
G1 X80.96 Y40.403 E94.05011
G1 X80.959 Y42.15 E94.12893
G1 X80.431 Y42.15 E94.15275
G1 X80.431 Y44.85 E94.27456
G1 X80.96 Y44.85 E94.29843
G1 X80.96 Y46.697 E94.38176
G1 X82.902 Y46.697 E94.41536
G0 F3000 X82.502 Y46.297
;TYPE:WALL-OUTER
G1 F1500 X82.502 Y44.45 E94.49869
G1 X83.031 Y44.45 E94.52256
G1 X83.031 Y42.55 E94.60828
G1 X82.502 Y42.55 E94.63214
G1 X82.502 Y40.803 E94.71096
G1 X81.36 Y40.803 E94.76249
G1 X81.359 Y42.55 E94.84131
G1 X80.831 Y42.55 E94.86513
G1 X80.831 Y44.45 E94.95085
G1 X81.36 Y44.45 E94.97472
G1 X81.36 Y46.297 E95.05805
G1 X82.502 Y46.297 E95.10957
G0 F3000 X82.502 Y46.097
G0 X82.942 Y46.097
G1 F2400 E93.90957
G0 F3000 X91.731 Y39.76
G1 F2400 E95.10957
G1 F1500 X95.331 Y39.76 E95.27199
G1 X95.331 Y69.65 E96.62053
G1 X102.731 Y69.65 E96.95439
