;FLAVOR:Marlin
;TIME:1638
;Filament used: 2.82859m
;Layer height: 0.3
;MINX:47.95
;MINY:75.9
;MINZ:0.3
;MAXX:132.05
;MAXY:104.1
;MAXZ:20.1
;Generated with Cura_SteamEngine 4.12.1
M82 ;absolute extrusion mode
G21 ;metric values
G90 ;absolute positioning
M82 ;set extruder to absolute mode
M107 ;start with the fan off

M104 S200 T0 ; start heating T0 to what is set in Cura
M140 S60 ; start heating the bed to what is set in Cura
M190 S60 ; start heating the bed to what is set in Cura
M109 S200 T0 ; start heating T0 to what is set in Cura

G28 X0 Y0 ;move X/Y to min endstops
G28 Z0 ;move Z to min endstops
G1 Z15.0 F2400 ;move the platform down 15mm
G92 E0 ;zero the extruded length
G1 F200 E3 ;extrude 3mm of feed stock
G92 E0 ;zero the extruded length again
G1 F2400
G0 Y20 F2400
M117 Printing...
G5
G92 E0
G92 E0
G1 F2400 E-1.2
;LAYER_COUNT:67
;LAYER:0
M107
G0 F3000 X49.814 Y78.632 Z0.3
;TYPE:SKIRT
G1 F2400 E0
G1 F1500 X50.393 Y78.328 E0.0295
G1 X50.627 Y78.229 E0.04097
G1 X52.885 Y77.319 E0.1508
G1 X55.336 Y76.251 E0.27143
G1 X55.738 Y76.101 E0.29078
G1 X56.287 Y75.966 E0.31629
G1 X56.849 Y75.911 E0.34177
G1 X57.28 Y75.9 E0.36122
G1 X60.3 Y75.9 E0.49747
G1 X61.002 Y75.91 E0.52915
G1 X61.565 Y75.958 E0.55464
G1 X62.095 Y76.073 E0.57911
G1 X64.822 Y76.701 E0.70536
G1 X67.427 Y77.225 E0.82525
G1 X70.146 Y77.691 E0.94971
G1 X72.845 Y78.077 E1.07272
G1 X75.491 Y78.378 E1.19286
G1 X78.225 Y78.611 E1.31666
G1 X80.968 Y78.767 E1.44062
G1 X83.638 Y78.844 E1.56113
G1 X86.38 Y78.844 E1.68484
G1 X89.054 Y78.769 E1.80553
G1 X91.791 Y78.615 E1.92921
G1 X94.494 Y78.386 E2.05159
G1 X97.213 Y78.078 E2.17505
G1 X99.863 Y77.702 E2.29581
G1 X102.57 Y77.238 E2.41972
G1 X105.224 Y76.706 E2.54184
G1 X108.239 Y76.013 E2.68141
G1 X109.048 Y75.911 E2.7182
G1 X109.48 Y75.9 E2.7377
G1 X112.504 Y75.9 E2.87413
G1 X113.222 Y75.911 E2.90653
G1 X113.726 Y75.951 E2.92934
G1 X116.407 Y76.333 E3.05152
G1 X119.107 Y76.642 E3.17413
G1 X121.772 Y76.87 E3.29481
G1 X123.968 Y76.995 E3.39404
G1 X124.338 Y77.022 E3.41078
G1 X124.898 Y77.102 E3.4363
G1 X125.44 Y77.261 E3.46179
G1 X126.043 Y77.544 E3.49184
G1 X126.669 Y77.906 E3.52446
G1 X127.934 Y78.66 E3.59091
G1 X129.672 Y79.63 E3.6807
G1 X130.034 Y79.838 E3.69954
G1 X130.503 Y80.153 E3.72503
G1 X130.923 Y80.532 E3.75055
G1 X131.285 Y80.966 E3.77605
G1 X131.583 Y81.447 E3.80158
G1 X131.809 Y81.964 E3.82704
G1 X131.961 Y82.509 E3.85256
G1 X132.039 Y83.195 E3.88371
G1 X132.05 Y83.63 E3.90334
G1 X132.05 Y96.019 E4.4623
G1 X132.04 Y96.75 E4.49528
G1 X131.992 Y97.313 E4.52077
G1 X131.865 Y97.864 E4.54628
G1 X131.662 Y98.392 E4.5718
G1 X131.387 Y98.885 E4.59727
G1 X131.045 Y99.335 E4.62277
G1 X130.643 Y99.733 E4.6483
G1 X129.991 Y100.187 E4.68414
G1 X128.894 Y100.8 E4.74084
G1 X126.525 Y102.17 E4.8643
G1 X126.094 Y102.427 E4.88694
G1 X125.589 Y102.681 E4.91245
G1 X125.053 Y102.862 E4.93797
G1 X124.275 Y102.984 E4.9735
G1 X123.151 Y103.049 E5.0243
G1 X120.378 Y103.249 E5.14973
G1 X117.681 Y103.52 E5.27202
G1 X115.031 Y103.862 E5.39257
G1 X113.704 Y104.051 E5.45305
G1 X112.933 Y104.098 E5.4879
G1 X112.82 Y104.1 E5.493
G1 X109.8 Y104.1 E5.62925
G1 X109.101 Y104.09 E5.66079
G1 X108.545 Y104.043 E5.68596
G1 X108.004 Y103.927 E5.71093
G1 X105.29 Y103.301 E5.83659
G1 X102.615 Y102.761 E5.95971
G1 X99.982 Y102.313 E6.08021
G1 X97.259 Y101.924 E6.20431
G1 X94.603 Y101.621 E6.32492
G1 X91.878 Y101.389 E6.4483
G1 X89.133 Y101.233 E6.57235
G1 X86.462 Y101.156 E6.69291
G1 X83.719 Y101.156 E6.81666
G1 X81.046 Y101.231 E6.93731
G1 X78.308 Y101.385 E7.06103
G1 X75.606 Y101.614 E7.18337
G1 X72.886 Y101.922 E7.30687
G1 X70.237 Y102.298 E7.42759
G1 X67.514 Y102.764 E7.55223
G1 X64.911 Y103.285 E7.67199
G1 X63.241 Y103.671 E7.74933
G1 X63.176 Y103.681 E7.75229
G1 X61.869 Y103.984 E7.81282
G1 X61.052 Y104.089 E7.84999
G1 X60.62 Y104.1 E7.86948
G1 X57.6 Y104.1 E8.00574
G1 X56.896 Y104.09 E8.0375
G1 X56.333 Y104.042 E8.06299
G1 X55.782 Y103.915 E8.08851
G1 X55.359 Y103.759 E8.10885
G1 X53.563 Y102.977 E8.19722
G1 X51.467 Y102.105 E8.29965
G1 X50.468 Y101.704 E8.34821
G1 X49.96 Y101.457 E8.3737
G1 X49.491 Y101.14 E8.39924
G1 X49.072 Y100.761 E8.42473
G1 X48.711 Y100.326 E8.45023
G1 X48.415 Y99.845 E8.47571
G1 X48.189 Y99.327 E8.50121
G1 X48.039 Y98.782 E8.52671
G1 X47.962 Y98.115 E8.55701
G1 X47.95 Y97.665 E8.57732
G1 X47.95 Y94.65 E8.71334
G1 X47.967 Y93.541 E8.76338
G1 X48.026 Y91.426 E8.85884
G1 X48.026 Y88.682 E8.98264
G1 X47.994 Y87.248 E9.04736
G1 X47.95 Y85.688 E9.11777
G1 X47.95 Y82.64 E9.25528
G1 X47.96 Y81.95 E9.28642
G1 X48.009 Y81.387 E9.31191
G1 X48.136 Y80.836 E9.33742
G1 X48.339 Y80.308 E9.36294
G1 X48.615 Y79.815 E9.38844
G1 X48.957 Y79.365 E9.41394
G1 X49.36 Y78.968 E9.43946
G1 X49.814 Y78.632 E9.46494
G0 F3000 X50.195 Y78.871
G1 F1500 X50.711 Y78.627 E9.49069
G1 X53.058 Y77.68 E9.60488
G1 X55.496 Y76.618 E9.72485
G1 X55.86 Y76.482 E9.74239
G1 X56.382 Y76.356 E9.76661
G1 X57.178 Y76.301 E9.80261
G1 X60.294 Y76.3 E9.94319
G1 X60.996 Y76.31 E9.97487
G1 X61.782 Y76.409 E10.01061
G1 X64.724 Y77.09 E10.14685
G1 X67.385 Y77.625 E10.26931
G1 X70.058 Y78.083 E10.39167
G1 X72.775 Y78.471 E10.51549
G1 X75.483 Y78.779 E10.63846
G1 X78.204 Y79.011 E10.76166
G1 X80.899 Y79.165 E10.88345
G1 X83.661 Y79.244 E11.00812
G1 X86.356 Y79.244 E11.12971
G1 X89.123 Y79.167 E11.25459
G1 X91.812 Y79.015 E11.3761
G1 X94.537 Y78.784 E11.49949
G1 X97.248 Y78.477 E11.62258
G1 X99.951 Y78.093 E11.74576
G1 X102.611 Y77.638 E11.86751
G1 X105.321 Y77.095 E11.99221
G1 X108.328 Y76.403 E12.13142
G1 X109.059 Y76.31 E12.16466
G1 X109.48 Y76.3 E12.18366
G1 X112.498 Y76.3 E12.31983
G1 X113.216 Y76.311 E12.35222
G1 X113.669 Y76.347 E12.37273
G1 X116.341 Y76.728 E12.4945
G1 X119.061 Y77.039 E12.61801
G1 X121.785 Y77.272 E12.74136
G1 X123.939 Y77.394 E12.8387
G1 X124.309 Y77.421 E12.85544
G1 X124.839 Y77.499 E12.8796
G1 X125.352 Y77.656 E12.90381
G1 X125.843 Y77.891 E12.92837
G1 X126.465 Y78.249 E12.96075
G1 X127.756 Y79.018 E13.02854
G1 X129.473 Y79.977 E13.11727
G1 X129.835 Y80.185 E13.13611
G1 X130.278 Y80.486 E13.16027
G1 X130.672 Y80.849 E13.18444
G1 X131.008 Y81.267 E13.20864
G1 X131.278 Y81.731 E13.23286
G1 X131.476 Y82.229 E13.25704
G1 X131.598 Y82.752 E13.28127
G1 X131.649 Y83.53 E13.31644
G1 X131.65 Y96.013 E13.87964
G1 X131.64 Y96.744 E13.91262
G1 X131.592 Y97.278 E13.93681
G1 X131.466 Y97.8 E13.96104
G1 X131.264 Y98.296 E13.9852
G1 X130.991 Y98.758 E14.00941
G1 X130.651 Y99.173 E14.03361
G1 X130.254 Y99.533 E14.05779
G1 X129.796 Y99.838 E14.08262
G1 X128.705 Y100.448 E14.13901
G1 X126.278 Y101.851 E14.26549
G1 X125.889 Y102.083 E14.28593
G1 X125.409 Y102.323 E14.31014
G1 X124.899 Y102.488 E14.33432
G1 X124.252 Y102.585 E14.36384
G1 X123.118 Y102.65 E14.41508
G1 X120.345 Y102.85 E14.54052
G1 X117.626 Y103.123 E14.66381
G1 X114.986 Y103.464 E14.7839
G1 X113.647 Y103.655 E14.84493
G1 X112.922 Y103.699 E14.8777
G1 X109.806 Y103.7 E15.01828
G1 X109.107 Y103.69 E15.04982
G1 X108.604 Y103.647 E15.0726
G1 X108.074 Y103.532 E15.09707
G1 X105.387 Y102.912 E15.22148
G1 X102.696 Y102.369 E15.34534
G1 X100.028 Y101.915 E15.46744
G1 X97.325 Y101.529 E15.59062
G1 X94.615 Y101.22 E15.71368
G1 X91.899 Y100.989 E15.83666
G1 X89.202 Y100.835 E15.95854
G1 X86.439 Y100.756 E16.08325
G1 X83.744 Y100.756 E16.20484
G1 X80.976 Y100.833 E16.32977
G1 X78.287 Y100.985 E16.45128
G1 X75.563 Y101.216 E16.57462
G1 X72.856 Y101.522 E16.69753
G1 X70.148 Y101.907 E16.82093
G1 X67.48 Y102.363 E16.94305
G1 X64.808 Y102.898 E17.066
G1 X63.151 Y103.281 E17.14273
G1 X63.086 Y103.291 E17.14569
G1 X61.778 Y103.594 E17.20627
G1 X61.041 Y103.69 E17.2398
G1 X60.62 Y103.7 E17.2588
G1 X57.606 Y103.7 E17.39478
G1 X56.902 Y103.69 E17.42655
G1 X56.368 Y103.642 E17.45074
G1 X55.847 Y103.516 E17.47492
G1 X55.518 Y103.392 E17.49078
G1 X54.234 Y102.833 E17.55396
G1 X53.773 Y102.631 E17.57667
G1 X51.621 Y101.737 E17.68181
G1 X50.617 Y101.333 E17.73063
G1 X50.136 Y101.097 E17.75481
G1 X49.695 Y100.791 E17.77902
G1 X49.305 Y100.424 E17.80319
G1 X48.973 Y100.002 E17.82741
G1 X48.708 Y99.536 E17.8516
G1 X48.514 Y99.036 E17.87579
G1 X48.398 Y98.513 E17.89996
G1 X48.352 Y97.775 E17.93332
G1 X48.35 Y97.665 E17.93829
G1 X48.35 Y94.656 E18.07404
G1 X48.366 Y93.553 E18.12381
G1 X48.426 Y91.402 E18.2209
G1 X48.426 Y88.673 E18.34402
G1 X48.394 Y87.239 E18.40873
G1 X48.35 Y85.688 E18.47874
G1 X48.35 Y82.646 E18.61598
G1 X48.36 Y81.956 E18.64712
G1 X48.408 Y81.422 E18.67131
G1 X48.535 Y80.901 E18.6955
G1 X48.737 Y80.404 E18.7197
G1 X49.011 Y79.943 E18.7439
G1 X49.351 Y79.528 E18.7681
G1 X49.748 Y79.168 E18.79228
G1 X50.195 Y78.871 E18.8165
G0 F3000 X50.134 Y79.38
G1 F1500 X50.706 Y79.064 E18.84598
G1 X50.926 Y78.971 E18.85675
G1 X53.188 Y78.059 E18.96679
G1 X55.656 Y76.984 E19.08824
G1 X55.983 Y76.863 E19.10397
G1 X56.475 Y76.746 E19.12679
G1 X57.189 Y76.701 E19.15907
G1 X60.289 Y76.7 E19.29893
G1 X60.991 Y76.71 E19.33061
G1 X61.689 Y76.798 E19.36235
G1 X61.916 Y76.852 E19.37287
G1 X64.635 Y77.479 E19.49876
G1 X67.304 Y78.016 E19.62159
G1 X70.006 Y78.479 E19.74528
G1 X72.745 Y78.871 E19.87011
G1 X75.44 Y79.178 E19.99249
G1 X78.148 Y79.408 E20.1151
G1 X80.899 Y79.565 E20.23942
G1 X83.65 Y79.644 E20.36359
G1 X86.367 Y79.644 E20.48617
G1 X89.12 Y79.567 E20.61042
G1 X91.835 Y79.414 E20.73311
G1 X94.579 Y79.182 E20.85735
G1 X97.313 Y78.872 E20.98149
G1 X100.003 Y78.49 E21.10407
G1 X102.685 Y78.031 E21.22684
G1 X105.391 Y77.488 E21.35136
G1 X108.418 Y76.793 E21.49148
G1 X109.071 Y76.71 E21.52118
G1 X109.48 Y76.7 E21.53963
G1 X112.492 Y76.7 E21.67553
G1 X113.21 Y76.711 E21.70792
G1 X113.613 Y76.743 E21.72616
G1 X116.312 Y77.128 E21.84916
G1 X119.018 Y77.437 E21.97204
G1 X121.73 Y77.669 E22.09485
G1 X123.91 Y77.792 E22.19336
G1 X124.28 Y77.819 E22.2101
G1 X124.78 Y77.896 E22.23292
G1 X125.261 Y78.05 E22.25571
G1 X125.643 Y78.238 E22.27491
G1 X126.26 Y78.593 E22.30703
G1 X127.562 Y79.369 E22.37541
G1 X129.273 Y80.323 E22.4638
G1 X129.635 Y80.531 E22.48263
G1 X130.052 Y80.817 E22.50545
G1 X130.419 Y81.165 E22.52827
G1 X130.727 Y81.566 E22.55108
G1 X130.967 Y82.011 E22.57389
G1 X131.135 Y82.488 E22.59671
G1 X131.24 Y83.217 E22.62993
G1 X131.25 Y83.63 E22.64857
G1 X131.25 Y96.008 E23.20703
G1 X131.24 Y96.739 E23.24001
G1 X131.193 Y97.242 E23.2628
G1 X131.067 Y97.732 E23.28563
G1 X130.866 Y98.196 E23.30844
G1 X130.595 Y98.622 E23.33122
G1 X130.259 Y99 E23.35404
G1 X129.868 Y99.321 E23.37687
G1 X129.601 Y99.488 E23.39107
G1 X128.52 Y100.092 E23.44694
G1 X126.078 Y101.504 E23.57421
G1 X125.684 Y101.739 E23.59491
G1 X125.231 Y101.963 E23.61771
G1 X124.748 Y102.113 E23.64052
G1 X124.229 Y102.186 E23.66417
G1 X123.07 Y102.253 E23.71655
G1 X120.31 Y102.451 E23.84139
G1 X117.602 Y102.724 E23.96418
G1 X114.897 Y103.073 E24.08724
G1 X113.591 Y103.259 E24.14675
G1 X112.91 Y103.299 E24.17753
G1 X109.811 Y103.3 E24.31735
G1 X109.112 Y103.29 E24.34889
G1 X108.371 Y103.194 E24.3826
G1 X108.146 Y103.138 E24.39306
G1 X105.477 Y102.523 E24.51663
G1 X102.77 Y101.977 E24.64122
G1 X100.085 Y101.519 E24.76411
G1 X97.355 Y101.129 E24.88853
G1 X94.66 Y100.822 E25.01091
G1 X91.952 Y100.592 E25.13352
G1 X89.202 Y100.435 E25.25779
G1 X86.45 Y100.356 E25.38201
G1 X83.732 Y100.356 E25.50463
G1 X80.98 Y100.433 E25.62884
G1 X78.264 Y100.586 E25.75157
G1 X75.521 Y100.818 E25.87577
G1 X72.786 Y101.128 E25.99996
G1 X70.097 Y101.51 E26.12249
G1 X67.406 Y101.971 E26.24567
G1 X64.737 Y102.504 E26.36846
G1 X63.061 Y102.892 E26.44608
G1 X62.989 Y102.903 E26.44937
G1 X61.688 Y103.204 E26.50961
G1 X61.029 Y103.29 E26.5396
G1 X60.62 Y103.3 E26.55806
G1 X57.612 Y103.3 E26.69377
G1 X56.908 Y103.29 E26.72553
G1 X56.404 Y103.243 E26.74837
G1 X55.915 Y103.117 E26.77115
G1 X55.677 Y103.025 E26.78266
G1 X53.937 Y102.267 E26.86829
G1 X51.751 Y101.358 E26.97511
G1 X50.767 Y100.962 E27.02296
G1 X50.314 Y100.737 E27.04578
G1 X49.902 Y100.444 E27.06859
G1 X49.542 Y100.089 E27.0914
G1 X49.242 Y99.682 E27.11421
G1 X49.01 Y99.233 E27.13701
G1 X48.851 Y98.753 E27.15983
G1 X48.761 Y98.091 E27.18997
G1 X48.75 Y97.665 E27.2092
G1 X48.75 Y94.661 E27.34473
G1 X48.766 Y93.564 E27.39422
G1 X48.826 Y91.413 E27.49131
G1 X48.826 Y88.664 E27.61533
G1 X48.794 Y87.253 E27.67901
G1 X48.751 Y85.782 E27.74541
G1 X48.75 Y82.652 E27.88662
G1 X48.76 Y81.962 E27.91775
G1 X48.808 Y81.458 E27.9406
G1 X48.933 Y80.969 E27.96337
G1 X49.135 Y80.505 E27.9862
G1 X49.407 Y80.079 E28.009
G1 X49.743 Y79.701 E28.03182
G1 X50.134 Y79.38 E28.05464
G1 F2400 E26.85464
;MESH:vise_holder-vise_4cm.stl
G0 F3000 X52.55 Y82.6
;TYPE:WALL-INNER
G1 F2400 E28.05464
G1 F1500 X57.55 Y82.6 E28.28023
G1 X57.55 Y80.5 E28.37497
G1 X60.35 Y80.5 E28.5013
G1 X60.35 Y85.6 E28.73139
G1 X76.42 Y85.6 E29.45642
G1 X76.901 Y85.6 E29.47812
G1 X76.561 Y85.94 E29.48978
G1 X75.65 Y86.851 E29.54791
G1 X75.65 Y93.149 E29.83205
G1 X76.561 Y94.06 E29.89018
G1 X76.901 Y94.4 E29.91187
G1 X76.42 Y94.4 E29.92356
G1 X60.35 Y94.4 E30.64858
G1 X60.35 Y99.5 E30.87868
G1 X57.55 Y99.5 E31.00501
G1 X57.55 Y97.4 E31.09975
G1 X52.55 Y97.4 E31.32533
G1 X52.55 Y94.6 E31.45166
G1 X54.65 Y94.6 E31.54641
G1 X54.65 Y85.4 E31.96148
G1 X52.55 Y85.4 E32.05622
G1 X52.55 Y82.6 E32.18255
G1 F2400 E30.98255
G0 F3000 X83.199 Y85.6
G1 F2400 E32.18255
G1 F1500 X83.68 Y85.6 E32.20425
G1 X96.42 Y85.6 E32.77904
G1 X96.901 Y85.6 E32.80074
G1 X96.561 Y85.94 E32.8124
G1 X95.65 Y86.851 E32.87053
G1 X95.65 Y93.149 E33.15467
G1 X96.561 Y94.06 E33.2128
G1 X96.901 Y94.4 E33.23449
G1 X96.42 Y94.4 E33.24618
G1 X83.68 Y94.4 E33.82096
G1 X83.199 Y94.4 E33.84266
G1 X83.539 Y94.06 E33.85432
G1 X84.45 Y93.149 E33.91245
G1 X84.45 Y86.851 E34.1966
G1 X83.539 Y85.94 E34.25472
G1 X83.199 Y85.6 E34.26638
G1 F2400 E33.06638
G0 F3000 X103.199 Y85.6
G1 F2400 E34.26638
G1 F1500 X103.68 Y85.6 E34.28808
G1 X125.65 Y85.6 E35.2793
G1 X125.65 Y83.9 E35.356
G1 X127.45 Y83.9 E35.43721
G1 X127.45 Y96.1 E35.98763
G1 X125.65 Y96.1 E36.06884
G1 X125.65 Y94.4 E36.14554
G1 X103.68 Y94.4 E37.13675
G1 X103.199 Y94.4 E37.15845
G1 X103.539 Y94.06 E37.17011
G1 X104.45 Y93.149 E37.22824
G1 X104.45 Y86.851 E37.51238
G1 X103.539 Y85.94 E37.57051
G1 X103.199 Y85.6 E37.58217
G0 F3000 X103.033 Y86
;TYPE:WALL-OUTER
G1 F1500 X97.067 Y86 E37.85134
G1 X96.05 Y87.017 E37.91623
G1 X96.05 Y92.983 E38.18539
G1 X97.067 Y94 E38.25028
G1 X103.033 Y94 E38.51945
G1 X104.05 Y92.983 E38.58434
G1 X104.05 Y87.017 E38.8535
G1 X103.033 Y86 E38.91839
G0 F3000 X102.833 Y86
G1 F2400 E37.71839
G0 F3000 X84.05 Y87.017
G1 F2400 E38.91839
G1 F1500 X83.033 Y86 E38.98328
G1 X77.067 Y86 E39.25245
G1 X76.05 Y87.017 E39.31734
G1 X76.05 Y92.983 E39.58651
G1 X77.067 Y94 E39.65139
G1 X83.033 Y94 E39.92056
G1 X84.05 Y92.983 E39.98545
G1 X84.05 Y87.017 E40.25462
G0 F3000 X83.909 Y86.876
G0 X84.22 Y86.565
G1 F2400 E39.05462
G0 F3000 X60.75 Y85.2
G1 F2400 E40.25462
G1 F1500 X125.25 Y85.2 E43.16464
G1 X125.25 Y83.5 E43.24134
G1 X127.85 Y83.5 E43.35865
G1 X127.85 Y96.5 E43.94516
G1 X125.25 Y96.5 E44.06247
G1 X125.25 Y94.8 E44.13916
G1 X60.75 Y94.8 E47.04919
G1 X60.75 Y99.9 E47.27929
G1 X57.15 Y99.9 E47.44171
G1 X57.15 Y97.8 E47.53645
G1 X52.15 Y97.8 E47.76204
G1 X52.15 Y94.2 E47.92446
G1 X54.25 Y94.2 E48.0192
G1 X54.25 Y85.8 E48.39818
G1 X52.15 Y85.8 E48.49293
G1 X52.15 Y82.2 E48.65535
G1 X57.15 Y82.2 E48.88093
G1 X57.15 Y80.1 E48.97568
G1 X60.75 Y80.1 E49.1381
G1 X60.75 Y85.2 E49.36819
G0 F3000 X60.95 Y85.2
G0 X60.95 Y85.64
G1 F2400 E48.16819
G0 F3000 X59.96 Y85.99
;TYPE:SKIN
G1 F2400 E49.36819
G1 F1500 X75.96 Y85.99 E50.10385
G1 X75.26 Y86.689 E50.14934
G1 X75.26 Y93.311 E50.45381
G1 X75.96 Y94.01 E50.49929
G1 X59.96 Y94.01 E51.23495
G1 X59.96 Y99.11 E51.46945
G1 X57.94 Y99.11 E51.56232
G1 X57.94 Y97.01 E51.65888
G1 X52.94 Y97.01 E51.88877
G1 X52.94 Y94.99 E51.98165
G1 X55.04 Y94.99 E52.0782
G1 X55.04 Y85.01 E52.53707
G1 X52.94 Y85.01 E52.63363
G1 X52.94 Y82.99 E52.72651
G1 X57.94 Y82.99 E52.9564
G1 X57.94 Y80.89 E53.05296
G1 X59.96 Y80.89 E53.14583
G1 X59.96 Y85.99 E53.38032
G1 F2400 E52.18032
G0 F3000 X53.271 Y96.829
G1 F2400 E53.38032
G1 F1500 X53.119 Y96.677 E53.39021
G0 F3000 X53.119 Y96.112
G1 F1500 X53.836 Y96.829 E53.43683
G0 F3000 X54.402 Y96.829
G1 F1500 X53.119 Y95.546 E53.52026
G0 F3000 X53.308 Y95.168
G1 F1500 X54.968 Y96.829 E53.62823
