;FLAVOR:Marlin
;TIME:1552
;Filament used: 2.65523m
;Layer height: 0.3
;MINX:51
;MINY:72.124
;MINZ:0.3
;MAXX:129
;MAXY:107.8
;MAXZ:15.9
;Generated with Cura_SteamEngine 4.12.1
M82 ;absolute extrusion mode
G21 ;metric values
G90 ;absolute positioning
M82 ;set extruder to absolute mode
M107 ;start with the fan off

M104 S205.0 T0 ; start heating T0 to what is set in Cura
M140 S60 ; start heating the bed to what is set in Cura
M190 S60 ; start heating the bed to what is set in Cura
M109 S205.0 T0 ; start heating T0 to what is set in Cura

G28 X0 Y0 ;move X/Y to min endstops
G28 Z0 ;move Z to min endstops
G1 Z15.0 F2400 ;move the platform down 15mm
G92 E0 ;zero the extruded length
G1 F200 E3 ;extrude 3mm of feed stock
G92 E0 ;zero the extruded length again
G1 F2400
G0 Y20 F2400
M117 Printing...
G5
G92 E0
G92 E0
G1 F2400 E-1.2
;LAYER_COUNT:53
;LAYER:0
M107
G0 F3000 X55.512 Y72.94 Z0.3
;TYPE:SKIRT
G1 F2400 E0
G1 F1500 X55.987 Y72.634 E0.02549
G1 X56.501 Y72.398 E0.05101
G1 X57.043 Y72.237 E0.07652
G1 X57.832 Y72.143 E0.11237
G1 X58.85 Y72.124 E0.1583
G1 X121.241 Y72.125 E2.97318
G1 X121.937 Y72.135 E3.00459
G1 X122.501 Y72.183 E3.03012
G1 X123.052 Y72.31 E3.05563
G1 X123.579 Y72.514 E3.08113
G1 X124.073 Y72.79 E3.10666
G1 X124.522 Y73.132 E3.13213
G1 X124.919 Y73.535 E3.15765
G1 X125.256 Y73.989 E3.18316
G1 X125.524 Y74.486 E3.20863
G1 X125.72 Y75.017 E3.23417
G1 X125.86 Y75.739 E3.26735
G1 X126.142 Y78.57 E3.39571
G1 X126.489 Y81.271 E3.51857
G1 X126.911 Y83.948 E3.64084
G1 X127.407 Y86.609 E3.76296
G1 X127.981 Y89.269 E3.88573
G1 X128.662 Y92.033 E4.01417
G1 X128.86 Y92.792 E4.04956
G1 X128.964 Y93.347 E4.07503
G1 X128.998 Y94.008 E4.10489
G1 X129 Y94.13 E4.1104
G1 X129 Y103.114 E4.51573
G1 X128.991 Y103.841 E4.54853
G1 X128.944 Y104.404 E4.57402
G1 X128.818 Y104.955 E4.59952
G1 X128.616 Y105.483 E4.62502
G1 X128.341 Y105.977 E4.65053
G1 X127.999 Y106.427 E4.67603
G1 X127.597 Y106.825 E4.70156
G1 X127.144 Y107.162 E4.72703
G1 X126.647 Y107.432 E4.75255
G1 X126.117 Y107.629 E4.77806
G1 X125.565 Y107.75 E4.80355
G1 X124.782 Y107.798 E4.83895
G1 X124.67 Y107.8 E4.844
G1 X115.65 Y107.8 E5.25095
G1 X114.949 Y107.79 E5.28258
G1 X114.178 Y107.703 E5.31759
G1 X113.843 Y107.632 E5.33304
G1 X111.139 Y107.091 E5.45745
G1 X108.434 Y106.628 E5.58127
G1 X105.779 Y106.251 E5.70225
G1 X103.058 Y105.943 E5.8258
G1 X100.357 Y105.714 E5.9481
G1 X97.646 Y105.561 E6.0706
G1 X93.586 Y105.476 E6.25382
G1 X86.489 Y105.475 E6.57401
G1 X83.687 Y105.515 E6.70044
G1 X81.022 Y105.627 E6.82078
G1 X78.313 Y105.819 E6.94331
G1 X75.582 Y106.09 E7.06713
G1 X72.903 Y106.432 E7.18898
G1 X70.224 Y106.851 E7.31131
G1 X67.541 Y107.35 E7.43444
G1 X67.001 Y107.466 E7.45936
G1 X65.779 Y107.712 E7.5156
G1 X65.102 Y107.789 E7.54634
G1 X64.67 Y107.8 E7.56583
G1 X55.655 Y107.8 E7.97256
G1 X54.957 Y107.791 E8.00405
G1 X54.394 Y107.743 E8.02955
G1 X53.843 Y107.617 E8.05505
G1 X53.315 Y107.415 E8.08055
G1 X52.821 Y107.14 E8.10606
G1 X52.371 Y106.798 E8.13156
G1 X51.973 Y106.396 E8.15709
G1 X51.637 Y105.942 E8.18257
G1 X51.367 Y105.445 E8.20809
G1 X51.17 Y104.915 E8.2336
G1 X51.05 Y104.363 E8.25908
G1 X51.001 Y103.566 E8.29511
G1 X51 Y94.445 E8.70662
G1 X51.011 Y93.737 E8.73856
G1 X51.06 Y93.174 E8.76406
G1 X51.126 Y92.847 E8.77911
G1 X51.413 Y91.676 E8.83351
G1 X52.023 Y89.023 E8.95632
G1 X52.562 Y86.35 E9.07935
G1 X53.016 Y83.689 E9.20114
G1 X53.401 Y80.99 E9.32414
G1 X53.705 Y78.319 E9.44543
G1 X53.922 Y75.825 E9.55837
G1 X54.006 Y75.266 E9.58388
G1 X54.169 Y74.724 E9.60941
G1 X54.406 Y74.211 E9.63491
G1 X54.713 Y73.736 E9.66042
G1 X55.084 Y73.31 E9.68591
G1 X55.512 Y72.94 E9.71144
G0 F3000 X55.886 Y73.164
G1 F1500 X56.351 Y72.897 E9.73563
G1 X56.85 Y72.701 E9.75981
G1 X57.373 Y72.582 E9.78401
G1 X57.84 Y72.543 E9.80516
G1 X58.85 Y72.524 E9.85073
G1 X121.236 Y72.525 E12.66538
G1 X121.932 Y72.535 E12.69679
G1 X122.466 Y72.583 E12.72098
G1 X122.987 Y72.709 E12.74516
G1 X123.484 Y72.912 E12.76938
G1 X123.945 Y73.186 E12.79358
G1 X124.36 Y73.525 E12.81775
G1 X124.72 Y73.923 E12.84197
G1 X125.017 Y74.369 E12.86614
G1 X125.245 Y74.855 E12.89036
G1 X125.398 Y75.369 E12.91456
G1 X125.462 Y75.778 E12.93323
G1 X125.742 Y78.594 E13.06091
G1 X126.097 Y81.347 E13.18614
G1 X126.517 Y84.018 E13.30813
G1 X127.015 Y86.688 E13.43067
G1 X127.597 Y89.384 E13.55511
G1 X128.261 Y92.081 E13.68042
G1 X128.473 Y92.893 E13.71828
G1 X128.57 Y93.42 E13.74246
G1 X128.598 Y94.02 E13.76956
G1 X128.6 Y94.13 E13.77452
G1 X128.6 Y103.109 E14.17963
G1 X128.591 Y103.836 E14.21243
G1 X128.544 Y104.37 E14.23661
G1 X128.419 Y104.891 E14.26079
G1 X128.217 Y105.388 E14.28499
G1 X127.944 Y105.85 E14.3092
G1 X127.606 Y106.266 E14.33338
G1 X127.209 Y106.627 E14.35759
G1 X126.763 Y106.925 E14.38179
G1 X126.278 Y107.153 E14.40597
G1 X125.764 Y107.307 E14.43018
G1 X125.092 Y107.39 E14.46073
G1 X124.67 Y107.4 E14.47977
G1 X115.656 Y107.4 E14.88646
G1 X114.955 Y107.39 E14.91809
G1 X114.261 Y107.312 E14.94959
G1 X113.921 Y107.24 E14.96527
G1 X111.179 Y106.691 E15.09144
G1 X108.521 Y106.237 E15.2131
G1 X105.809 Y105.851 E15.33669
G1 X103.101 Y105.545 E15.45964
G1 X100.378 Y105.314 E15.58293
G1 X97.678 Y105.162 E15.70494
G1 X93.594 Y105.076 E15.88924
G1 X86.483 Y105.075 E16.21006
G1 X83.7 Y105.114 E16.33564
G1 X80.978 Y105.229 E16.45855
G1 X78.246 Y105.423 E16.58212
G1 X75.564 Y105.688 E16.70371
G1 X72.857 Y106.034 E16.82684
G1 X70.127 Y106.462 E16.95151
G1 X67.489 Y106.952 E17.07257
G1 X66.922 Y107.074 E17.09873
G1 X65.7 Y107.32 E17.15497
G1 X65.091 Y107.39 E17.18263
G1 X64.67 Y107.4 E17.20163
G1 X55.661 Y107.4 E17.60808
G1 X54.963 Y107.391 E17.63958
G1 X54.428 Y107.344 E17.66381
G1 X53.907 Y107.218 E17.68799
G1 X53.41 Y107.016 E17.7122
G1 X52.949 Y106.743 E17.73637
G1 X52.533 Y106.404 E17.76058
G1 X52.172 Y106.008 E17.78476
G1 X51.874 Y105.562 E17.80896
G1 X51.646 Y105.076 E17.83318
G1 X51.493 Y104.562 E17.85737
G1 X51.41 Y103.888 E17.88801
G1 X51.4 Y103.458 E17.90742
G1 X51.4 Y94.451 E18.31378
G1 X51.411 Y93.743 E18.34573
G1 X51.46 Y93.209 E18.36992
G1 X51.514 Y92.942 E18.38221
G1 X51.801 Y91.771 E18.43661
G1 X52.413 Y89.113 E18.55966
G1 X52.953 Y86.431 E18.6831
G1 X53.413 Y83.741 E18.80622
G1 X53.796 Y81.054 E18.92868
G1 X54.106 Y78.325 E19.05259
G1 X54.304 Y76.057 E19.1553
G1 X54.32 Y75.856 E19.1644
G1 X54.403 Y75.326 E19.18861
G1 X54.563 Y74.815 E19.21276
G1 X54.797 Y74.332 E19.23698
G1 X55.1 Y73.89 E19.26116
G1 X55.466 Y73.498 E19.28535
G1 X55.886 Y73.164 E19.30956
G0 F3000 X55.846 Y73.696
G1 F1500 X56.257 Y73.401 E19.33239
G1 X56.709 Y73.175 E19.35519
G1 X57.192 Y73.023 E19.37803
G1 X57.848 Y72.943 E19.40785
G1 X58.85 Y72.924 E19.45306
G1 X121.23 Y72.925 E22.26744
G1 X121.926 Y72.935 E22.29885
G1 X122.429 Y72.983 E22.32164
G1 X122.919 Y73.108 E22.34446
G1 X123.383 Y73.31 E22.36729
G1 X123.809 Y73.582 E22.39009
G1 X124.187 Y73.917 E22.41288
G1 X124.507 Y74.308 E22.43568
G1 X124.762 Y74.745 E22.4585
G1 X124.945 Y75.216 E22.4813
G1 X125.064 Y75.818 E22.50899
G1 X125.346 Y78.652 E22.63748
G1 X125.698 Y81.384 E22.76176
G1 X126.122 Y84.082 E22.88498
G1 X126.625 Y86.781 E23.00884
G1 X127.204 Y89.459 E23.13246
G1 X127.874 Y92.182 E23.25897
G1 X128.086 Y92.994 E23.29684
G1 X128.189 Y93.704 E23.32921
G1 X128.2 Y94.13 E23.34843
G1 X128.2 Y103.104 E23.75331
G1 X128.191 Y103.831 E23.78611
G1 X128.145 Y104.334 E23.8089
G1 X128.02 Y104.824 E23.83171
G1 X127.819 Y105.288 E23.85453
G1 X127.548 Y105.715 E23.87735
G1 X127.213 Y106.094 E23.90017
G1 X126.823 Y106.415 E23.92296
G1 X126.387 Y106.671 E23.94577
G1 X125.916 Y106.854 E23.96857
G1 X125.422 Y106.962 E23.99138
G1 X124.76 Y106.999 E24.02129
G1 X115.661 Y107 E24.43181
G1 X114.96 Y106.99 E24.46344
G1 X114.343 Y106.921 E24.49145
G1 X113.965 Y106.841 E24.50888
G1 X111.254 Y106.298 E24.63362
G1 X108.574 Y105.84 E24.75629
G1 X105.879 Y105.457 E24.8791
G1 X103.146 Y105.148 E25.00319
G1 X100.398 Y104.915 E25.12762
G1 X97.679 Y104.762 E25.25048
G1 X93.603 Y104.676 E25.43442
G1 X86.478 Y104.675 E25.75587
G1 X83.679 Y104.715 E25.88217
G1 X80.964 Y104.829 E26.00477
G1 X78.218 Y105.024 E26.12897
G1 X75.507 Y105.292 E26.25188
G1 X72.781 Y105.64 E26.37587
G1 X70.097 Y106.061 E26.49844
G1 X67.403 Y106.562 E26.62207
G1 X66.844 Y106.682 E26.64786
G1 X65.622 Y106.928 E26.7041
G1 X65.08 Y106.99 E26.72871
G1 X64.67 Y107 E26.74722
G1 X55.666 Y107 E27.15345
G1 X54.968 Y106.991 E27.18494
G1 X54.464 Y106.944 E27.20778
G1 X53.974 Y106.819 E27.23059
G1 X53.51 Y106.618 E27.25341
G1 X53.084 Y106.347 E27.27619
G1 X52.705 Y106.012 E27.29901
G1 X52.384 Y105.621 E27.32183
G1 X52.129 Y105.185 E27.34462
G1 X51.945 Y104.714 E27.36744
G1 X51.838 Y104.22 E27.39024
G1 X51.801 Y103.544 E27.42078
G1 X51.8 Y94.457 E27.83076
G1 X51.811 Y93.749 E27.86271
G1 X51.903 Y93.037 E27.8951
G1 X52.19 Y91.866 E27.94949
G1 X52.802 Y89.21 E28.07246
G1 X53.352 Y86.479 E28.19815
G1 X53.805 Y83.823 E28.31971
G1 X54.195 Y81.089 E28.44431
G1 X54.5 Y78.403 E28.56627
G1 X54.719 Y75.888 E28.68017
G1 X54.799 Y75.389 E28.70297
G1 X54.956 Y74.908 E28.7258
G1 X55.187 Y74.459 E28.74858
G1 X55.487 Y74.051 E28.77143
G1 X55.846 Y73.696 E28.7942
G1 F2400 E27.5942
;MESH:vise_holder_bak-vise_4cm.stl
G0 F3000 X55.6 Y101.949
;TYPE:WALL-INNER
G1 F2400 E28.7942
G1 F1500 X55.94 Y102.289 E28.8159
G1 X56.511 Y102.86 E28.85233
G1 X56.851 Y103.2 E28.87402
G1 X56.37 Y103.2 E28.88571
G1 X55.6 Y103.2 E28.92045
G1 X55.6 Y102.43 E28.95519
G1 X55.6 Y101.949 E28.96687
G1 F2400 E27.76687
G0 F3000 X64.4 Y101.949
G1 F2400 E28.96687
G1 F1500 X64.4 Y102.43 E28.98858
G1 X64.4 Y103.2 E29.02332
G1 X63.63 Y103.2 E29.05806
G1 X63.149 Y103.2 E29.07976
G1 X63.489 Y102.86 E29.09142
G1 X64.06 Y102.289 E29.12785
G1 X64.4 Y101.949 E29.13951
G1 F2400 E27.93951
G0 F3000 X115.6 Y101.949
G1 F2400 E29.13951
G1 F1500 X115.94 Y102.289 E29.1612
G1 X116.511 Y102.86 E29.19764
G1 X116.851 Y103.2 E29.21933
G1 X116.37 Y103.2 E29.23101
G1 X115.6 Y103.2 E29.26575
G1 X115.6 Y102.43 E29.30049
G1 X115.6 Y101.949 E29.31218
G1 F2400 E28.11218
G0 F3000 X123.149 Y103.2
G1 F2400 E29.31218
G1 F1500 X123.489 Y102.86 E29.33387
G1 X124.06 Y102.289 E29.37031
G1 X124.4 Y101.949 E29.392
G1 X124.4 Y102.43 E29.40368
G1 X124.4 Y103.2 E29.43842
G1 X123.63 Y103.2 E29.47316
G1 X123.149 Y103.2 E29.48485
G1 F2400 E28.28485
G0 F3000 X123.149 Y94.4
G1 F2400 E29.48485
G1 F1500 X123.63 Y94.4 E29.50655
G1 X124.4 Y94.4 E29.54129
G1 X124.4 Y95.17 E29.57603
G1 X124.4 Y95.651 E29.59773
G1 X124.06 Y95.311 E29.60939
G1 X123.489 Y94.74 E29.64582
G1 X123.149 Y94.4 E29.65748
G1 F2400 E28.45748
G0 F3000 X121.3 Y94.4
G1 F2400 E29.65748
G1 F1500 X116.851 Y94.4 E29.85821
G1 X115.6 Y95.651 E29.93803
G1 X115.6 Y100.876 E30.17376
G1 X64.4 Y100.875 E32.48374
G1 X64.4 Y97.85 E32.62022
G1 X112.6 Y97.849 E34.79484
G1 X112.6 Y79.751 E35.61136
G1 X61.29 Y79.751 E37.9263
G1 X61.29 Y81.44 E38.0025
G1 X66.3 Y81.44 E38.22854
G1 X66.3 Y96.159 E38.89261
G1 X64.4 Y96.159 E38.97833
G1 X64.4 Y95.651 E39.00125
G1 X63.149 Y94.4 E39.08107
G1 X58.49 Y94.4 E39.29127
G1 X56.851 Y94.4
G1 X56.511 Y94.74 E39.31296
G1 X55.94 Y95.311 E39.3494
G1 X55.6 Y95.651 E39.37109
G1 X55.6 Y95.17 E39.38278
G1 X55.6 Y94.4 E39.41752
G1 X56.37 Y94.4 E39.45226
G1 X56.851 Y94.4 E39.47396
G1 X58.49 Y94.4
G1 X58.491 Y78.07 E40.21071
G1 X58.497 Y76.724 E40.27144
G1 X121.299 Y76.725 E43.10486
G1 X121.3 Y94.4 E43.9023
G1 F2400 E42.7023
G0 F3000 X122.983 Y94.8
;TYPE:WALL-OUTER
G1 F2400 E43.9023
G1 F1500 X117.017 Y94.8 E44.17146
G1 X116 Y95.817 E44.23635
G1 X116 Y101.783 E44.50552
G1 X117.017 Y102.8 E44.57041
G1 X122.983 Y102.8 E44.83958
G1 X124 Y101.783 E44.90446
G1 X124 Y95.817 E45.17363
G1 X122.983 Y94.8 E45.23852
G0 F3000 X122.783 Y94.8
G1 F2400 E44.03852
G0 F3000 X117.7 Y90.3
;TYPE:WALL-INNER
G1 F2400 E45.23852
G1 F1500 X117.7 Y87.3 E45.37387
G1 X115 Y87.3 E45.49569
G1 X115 Y90.3 E45.63104
G1 X117.7 Y90.3 E45.75285
G0 F3000 X117.3 Y89.9
;TYPE:WALL-OUTER
G1 F1500 X117.3 Y87.7 E45.85211
G1 X115.4 Y87.7 E45.93783
G1 X115.4 Y89.9 E46.03709
G1 X117.3 Y89.9 E46.12281
G0 F3000 X117.3 Y89.7
G0 X117.74 Y89.7
G1 F2400 E44.92281
G0 F3000 X112.2 Y97.449
G1 F2400 E46.12281
G1 F1500 X112.2 Y80.151 E46.90324
G1 X61.69 Y80.151 E49.18208
G1 X61.69 Y81.04 E49.22219
G1 X66.7 Y81.04 E49.44822
G1 X66.7 Y96.559 E50.14839
G1 X64.8 Y96.559 E50.23411
G1 X64.8 Y97.45 E50.27431
G1 X112.2 Y97.449 E52.41284
G0 F3000 X112.2 Y97.249
G0 X112.64 Y97.249
G1 F2400 E51.21284
G0 F3000 X64 Y95.817
G1 F2400 E52.41284
G1 F1500 X62.983 Y94.8 E52.47773
G1 X57.017 Y94.8 E52.7469
G1 X56 Y95.817 E52.81179
G1 X56 Y101.783 E53.08095
G1 X57.017 Y102.8 E53.14584
G1 X62.983 Y102.8 E53.41501
G1 X64 Y101.783 E53.4799
G1 X64 Y95.817 E53.74907
G0 F3000 X63.859 Y95.676
G0 X64.17 Y95.365
G1 F2400 E52.54907
G0 F3000 X64.8 Y101.275
G1 F2400 E53.74907
G1 F1500 X64.8 Y103.6 E53.85396
G1 X55.2 Y103.6 E54.28708
G1 X55.2 Y94 E54.7202
G1 X58.09 Y94 E54.85059
G1 X58.091 Y78.068 E55.56939
G1 X58.099 Y76.324 E55.64807
G1 X121.693 Y76.325 E58.51723
G1 X121.699 Y76.679 E58.5332
G1 X121.7 Y94 E59.31467
G1 X124.8 Y94 E59.45453
G1 X124.8 Y103.6 E59.88765
G1 X115.2 Y103.6 E60.32077
G1 X115.2 Y101.276 E60.42562
G1 X64.8 Y101.275 E62.6995
G0 F3000 X64.8 Y101.475
G1 F2400 E61.4995
G0 F3000 X64.79 Y100.485
;TYPE:SKIN
G1 F2400 E62.6995
G1 F1500 X64.79 Y98.24 E62.80272
G1 X112.99 Y98.239 E65.0189
G1 X112.99 Y79.361 E65.88689
G1 X60.9 Y79.361 E68.28193
G1 X60.9 Y81.83 E68.39545
G1 X65.91 Y81.83 E68.6258
G1 X65.91 Y95.769 E69.2667
G1 X64.79 Y95.769 E69.3182
G1 X64.79 Y95.489 E69.33107
G1 X63.311 Y94.01 E69.42724
G1 X58.88 Y94.01 E69.63097
G1 X58.881 Y78.07 E70.36388
G1 X58.885 Y77.114 E70.40783
G1 X120.909 Y77.115 E73.25962
G1 X120.91 Y94.01 E74.03643
G1 X116.689 Y94.01 E74.23051
G1 X115.21 Y95.489 E74.32668
G1 X115.21 Y100.486 E74.55644
G1 X64.79 Y100.485 E76.87469
G1 F2400 E75.67469
G0 F3000 X114.61 Y90.69
G1 F2400 E76.87469
G1 F1500 X118.09 Y90.69 E77.0347
G1 X118.09 Y86.91 E77.2085
G1 X114.61 Y86.91 E77.3685
G1 X114.61 Y90.69 E77.5423
G1 F2400 E76.3423
G0 F3000 X120.287 Y77.295
G1 F2400 E77.5423
G1 F1500 X120.729 Y77.737 E77.57104
G0 F3000 X120.729 Y78.302
G1 F1500 X119.721 Y77.295 E77.63655
G0 F3000 X119.155 Y77.295
G1 F1500 X120.729 Y78.868 E77.73887
G0 F3000 X120.729 Y79.434
G1 F1500 X118.59 Y77.295 E77.87795
G0 F3000 X118.024 Y77.295
G1 F1500 X120.729 Y79.999 E78.05381
G0 F3000 X120.729 Y80.565
G1 F1500 X117.458 Y77.295 E78.26647
G0 F3000 X116.893 Y77.295
G1 F1500 X120.729 Y81.131 E78.5159
G0 F3000 X120.729 Y81.696
G1 F1500 X116.327 Y77.295 E78.80211
G0 F3000 X115.761 Y77.295
G1 F1500 X120.729 Y82.262 E79.12511
G0 F3000 X120.729 Y82.828
G1 F1500 X115.196 Y77.295 E79.48489
G0 F3000 X114.63 Y77.295
G1 F1500 X120.729 Y83.394 E79.88147
G0 F3000 X120.729 Y83.959
G1 F1500 X114.064 Y77.295 E80.31482
G0 F3000 X113.499 Y77.295
G1 F1500 X120.729 Y84.525 E80.78494
G0 F3000 X120.729 Y85.091
G1 F1500 X112.933 Y77.295 E81.29187
G0 F3000 X112.367 Y77.295
G1 F1500 X120.729 Y85.656 E81.83557
G0 F3000 X120.729 Y86.222
G1 F1500 X111.802 Y77.295 E82.41603
G0 F3000 X111.236 Y77.295
G1 F1500 X113.121 Y79.18 E82.5386
G0 F3000 X113.168 Y79.227
G1 F1500 X120.729 Y86.788 E83.03025
G0 F3000 X120.729 Y87.353
G1 F1500 X113.168 Y79.793 E83.52186
G0 F3000 X113.168 Y80.359
G1 F1500 X120.729 Y87.919 E84.01348
G0 F3000 X120.729 Y88.485
G1 F1500 X113.168 Y80.924 E84.50512
G0 F3000 X113.168 Y81.49
G1 F1500 X120.729 Y89.05 E84.99673
G0 F3000 X120.729 Y89.616
G1 F1500 X118.269 Y87.156 E85.15669
G0 F3000 X118.269 Y87.722
G1 F1500 X120.729 Y90.182 E85.31665
G0 F3000 X120.729 Y90.747
G1 F1500 X118.269 Y88.287 E85.47661
G0 F3000 X118.269 Y88.853
G1 F1500 X120.729 Y91.313 E85.63657
G0 F3000 X120.729 Y91.879
G1 F1500 X118.269 Y89.419 E85.79653
G0 F3000 X118.269 Y89.984
G1 F1500 X120.729 Y92.445 E85.95652
G0 F3000 X120.729 Y93.01
G1 F1500 X118.269 Y90.55 E86.11648
G0 F3000 X118.023 Y90.87
G1 F1500 X120.729 Y93.576 E86.29243
G0 F3000 X120.416 Y93.829
G1 F1500 X117.457 Y90.87 E86.48484
G0 F3000 X116.891 Y90.87
G1 F1500 X119.851 Y93.829 E86.67728
G0 F3000 X119.285 Y93.829
G1 F1500 X116.326 Y90.87 E86.86968
G0 F3000 X115.76 Y90.87
G1 F1500 X118.719 Y93.829 E87.06209
G0 F3000 X118.154 Y93.829
G1 F1500 X115.194 Y90.87 E87.25452
G0 F3000 X114.629 Y90.87
