;FLAVOR:Marlin
;TIME:1656
;Filament used: 2.76622m
;Layer height: 0.3
;MINX:51
;MINY:58.25
;MINZ:0.3
;MAXX:129
;MAXY:109.3
;MAXZ:13.2
;Generated with Cura_SteamEngine 4.12.1
M82 ;absolute extrusion mode
G21 ;metric values
G90 ;absolute positioning
M82 ;set extruder to absolute mode
M107 ;start with the fan off

M104 S205.0 T0 ; start heating T0 to what is set in Cura
M140 S60 ; start heating the bed to what is set in Cura
M190 S60 ; start heating the bed to what is set in Cura
M109 S205.0 T0 ; start heating T0 to what is set in Cura

G28 X0 Y0 ;move X/Y to min endstops
G28 Z0 ;move Z to min endstops
G1 Z15.0 F2400 ;move the platform down 15mm
G92 E0 ;zero the extruded length
G1 F200 E3 ;extrude 3mm of feed stock
G92 E0 ;zero the extruded length again
G1 F2400
G0 Y20 F2400
M117 Printing...
G5
G92 E0
G92 E0
G1 F2400 E-1.2
;LAYER_COUNT:44
;LAYER:0
M107
G0 F3000 X55.397 Y70.595 Z0.3
;TYPE:SKIRT
G1 F2400 E0
G1 F1500 X55.861 Y70.272 E0.02551
G1 X56.367 Y70.017 E0.05107
G1 X57.22 Y69.66 E0.09279
G1 X58.185 Y69.271 E0.13973
G1 X60.673 Y68.185 E0.26221
G1 X63.1 Y67.043 E0.38322
G1 X65.551 Y65.805 E0.50711
G1 X67.949 Y64.507 E0.63013
G1 X70.267 Y63.165 E0.75098
G1 X72.615 Y61.716 E0.87546
G1 X74.843 Y60.254 E0.99569
G1 X75.963 Y59.497 E1.05668
G1 X76.453 Y59.214 E1.08221
G1 X76.977 Y59.003 E1.10769
G1 X77.344 Y58.904 E1.12484
G1 X78.099 Y58.811 E1.15916
G1 X78.53 Y58.8 E1.17861
G1 X81.05 Y58.8 E1.29231
G1 X81.749 Y58.81 E1.32385
G1 X81.974 Y58.82 E1.33401
G1 X83.205 Y58.907 E1.38969
G1 X85.999 Y59.064 E1.51594
G1 X88.673 Y59.14 E1.63663
G1 X91.418 Y59.14 E1.76048
G1 X94.089 Y59.064 E1.88103
G1 X96.852 Y58.908 E2.00589
G1 X97.947 Y58.823 E2.05544
G1 X98.518 Y58.801 E2.08122
G1 X98.63 Y58.799 E2.08628
G1 X101.15 Y58.799 E2.19997
G1 X101.853 Y58.809 E2.23169
G1 X102.416 Y58.857 E2.25718
G1 X102.967 Y58.984 E2.28269
G1 X103.495 Y59.188 E2.30823
G1 X103.892 Y59.402 E2.32858
G1 X104.866 Y60.002 E2.38019
G1 X105.366 Y60.319 E2.4069
G1 X107.73 Y61.727 E2.53104
G1 X110.098 Y63.048 E2.65338
G1 X112.477 Y64.289 E2.77444
G1 X114.947 Y65.49 E2.89835
G1 X117.419 Y66.607 E3.02074
G1 X119.941 Y67.661 E3.14406
G1 X122.441 Y68.622 E3.2649
G1 X125.04 Y69.54 E3.38925
G1 X126.159 Y69.917 E3.44253
G1 X126.68 Y70.135 E3.46801
G1 X127.166 Y70.424 E3.49352
G1 X127.606 Y70.779 E3.51903
G1 X127.992 Y71.192 E3.54453
G1 X128.315 Y71.656 E3.57004
G1 X128.57 Y72.16 E3.59552
G1 X128.751 Y72.696 E3.62104
G1 X128.855 Y73.252 E3.64656
G1 X128.888 Y73.905 E3.67606
G1 X128.89 Y74.019 E3.68121
G1 X128.891 Y78.171 E3.86853
G1 X128.9 Y87.462 E4.28771
G1 X128.9 Y90.797 E4.43818
G1 X128.94 Y93.596 E4.56447
G1 X128.947 Y93.776 E4.5726
G1 X129 Y95.63 E4.65628
G1 X129 Y104.614 E5.06161
G1 X128.991 Y105.341 E5.09441
G1 X128.944 Y105.904 E5.1199
G1 X128.818 Y106.455 E5.1454
G1 X128.616 Y106.983 E5.1709
G1 X128.341 Y107.477 E5.19641
G1 X127.999 Y107.927 E5.22191
G1 X127.597 Y108.325 E5.24744
G1 X127.144 Y108.662 E5.27291
G1 X126.647 Y108.932 E5.29843
G1 X126.117 Y109.129 E5.32394
G1 X125.565 Y109.25 E5.34943
G1 X124.782 Y109.298 E5.38483
G1 X124.67 Y109.3 E5.38988
G1 X115.65 Y109.3 E5.79683
G1 X114.95 Y109.29 E5.82842
G1 X114.387 Y109.242 E5.85391
G1 X114.057 Y109.176 E5.86909
G1 X112.9 Y108.893 E5.92283
G1 X110.22 Y108.275 E6.04692
G1 X107.55 Y107.736 E6.16981
G1 X104.905 Y107.285 E6.29087
G1 X102.189 Y106.897 E6.41465
G1 X99.503 Y106.591 E6.53661
G1 X96.833 Y106.362 E6.65752
G1 X94.067 Y106.206 E6.78251
G1 X91.391 Y106.129 E6.90329
G1 X88.646 Y106.128 E7.02714
G1 X85.977 Y106.202 E7.1476
G1 X83.238 Y106.356 E7.27137
G1 X80.536 Y106.585 E7.39371
G1 X77.816 Y106.893 E7.51721
G1 X75.167 Y107.269 E7.63793
G1 X72.471 Y107.731 E7.76133
G1 X69.821 Y108.259 E7.88324
G1 X67.151 Y108.874 E8.00686
G1 X65.993 Y109.166 E8.06074
G1 X65.102 Y109.289 E8.10132
G1 X64.67 Y109.3 E8.12082
G1 X55.655 Y109.3 E8.52754
G1 X54.957 Y109.291 E8.55904
G1 X54.394 Y109.243 E8.58453
G1 X53.843 Y109.117 E8.61003
G1 X53.315 Y108.915 E8.63554
G1 X52.821 Y108.64 E8.66104
G1 X52.371 Y108.298 E8.68654
G1 X51.973 Y107.896 E8.71207
G1 X51.637 Y107.442 E8.73755
G1 X51.367 Y106.945 E8.76307
G1 X51.17 Y106.415 E8.78858
G1 X51.05 Y105.863 E8.81406
G1 X51.001 Y105.066 E8.85009
G1 X51 Y95.945 E9.2616
G1 X51.011 Y95.236 E9.29359
G1 X51.06 Y94.673 E9.31909
G1 X51.168 Y94.173 E9.34217
G1 X51.78 Y91.516 E9.46518
G1 X52.317 Y88.851 E9.58783
G1 X52.771 Y86.189 E9.70967
G1 X53.155 Y83.493 E9.83253
G1 X53.462 Y80.797 E9.95495
G1 X53.691 Y78.127 E10.07585
G1 X53.847 Y75.36 E10.20089
G1 X53.871 Y74.541 E10.23786
G1 X53.914 Y73.536 E10.28324
G1 X53.978 Y72.974 E10.30876
G1 X54.12 Y72.427 E10.33426
G1 X54.339 Y71.906 E10.35976
G1 X54.628 Y71.42 E10.38527
G1 X54.983 Y70.98 E10.41077
G1 X55.397 Y70.595 E10.43628
G0 F3000 X55.779 Y70.805
G1 F1500 X56.234 Y70.521 E10.46048
G1 X56.521 Y70.386 E10.47479
G1 X57.37 Y70.031 E10.51631
G1 X58.346 Y69.638 E10.56378
G1 X60.824 Y68.556 E10.68577
G1 X63.271 Y67.404 E10.80779
G1 X65.742 Y66.157 E10.93267
G1 X68.134 Y64.862 E11.05539
G1 X70.498 Y63.494 E11.17861
G1 X72.796 Y62.075 E11.30046
G1 X75.072 Y60.582 E11.42327
G1 X76.187 Y59.828 E11.484
G1 X76.653 Y59.562 E11.50821
G1 X77.152 Y59.368 E11.53236
G1 X77.431 Y59.295 E11.54537
G1 X78.11 Y59.21 E11.57625
G1 X78.53 Y59.2 E11.5952
G1 X81.044 Y59.2 E11.70862
G1 X81.743 Y59.21 E11.74016
G1 X81.946 Y59.219 E11.74933
G1 X83.229 Y59.31 E11.80736
G1 X85.929 Y59.462 E11.92937
G1 X88.698 Y59.54 E12.05435
G1 X91.393 Y59.54 E12.17594
G1 X94.158 Y59.462 E12.30073
G1 X96.863 Y59.308 E12.42297
G1 X97.972 Y59.222 E12.47316
G1 X98.529 Y59.2 E12.49831
G1 X101.144 Y59.199 E12.61629
G1 X101.847 Y59.209 E12.64801
G1 X102.381 Y59.257 E12.6722
G1 X102.903 Y59.383 E12.69642
G1 X103.399 Y59.586 E12.7206
G1 X103.683 Y59.743 E12.73524
G1 X104.652 Y60.34 E12.78659
G1 X105.169 Y60.668 E12.81422
G1 X107.51 Y62.062 E12.93714
G1 X109.897 Y63.394 E13.06047
G1 X112.324 Y64.66 E13.18397
G1 X114.757 Y65.842 E13.30601
G1 X117.266 Y66.976 E13.43023
G1 X119.791 Y68.032 E13.55371
G1 X122.3 Y68.997 E13.67499
G1 X124.916 Y69.92 E13.80015
G1 X126.031 Y70.296 E13.85324
G1 X126.525 Y70.504 E13.87742
G1 X126.982 Y70.784 E13.9016
G1 X127.393 Y71.129 E13.92581
G1 X127.748 Y71.53 E13.94997
G1 X128.04 Y71.981 E13.97421
G1 X128.261 Y72.469 E13.99838
G1 X128.408 Y72.985 E14.02259
G1 X128.48 Y73.604 E14.0507
G1 X128.49 Y74.019 E14.06943
G1 X128.491 Y78.172 E14.2568
G1 X128.5 Y87.463 E14.67598
G1 X128.5 Y90.803 E14.82667
G1 X128.539 Y93.584 E14.95215
G1 X128.547 Y93.787 E14.96132
G1 X128.6 Y95.63 E15.0445
G1 X128.6 Y104.609 E15.44961
G1 X128.591 Y105.336 E15.48241
G1 X128.544 Y105.87 E15.5066
G1 X128.419 Y106.391 E15.53077
G1 X128.217 Y106.888 E15.55497
G1 X127.944 Y107.35 E15.57918
G1 X127.606 Y107.766 E15.60337
G1 X127.209 Y108.127 E15.62758
G1 X126.763 Y108.425 E15.65178
G1 X126.278 Y108.653 E15.67595
G1 X125.764 Y108.807 E15.70016
G1 X125.092 Y108.89 E15.73071
G1 X124.67 Y108.9 E15.74976
G1 X115.656 Y108.9 E16.15644
G1 X114.956 Y108.89 E16.18802
G1 X114.421 Y108.842 E16.21226
G1 X114.152 Y108.787 E16.22465
G1 X113.006 Y108.507 E16.27787
G1 X110.317 Y107.886 E16.40238
G1 X107.63 Y107.344 E16.52605
G1 X104.951 Y106.887 E16.64867
G1 X102.255 Y106.502 E16.77153
G1 X99.55 Y106.194 E16.89436
G1 X96.821 Y105.96 E17.01794
G1 X94.135 Y105.808 E17.13932
G1 X91.368 Y105.729 E17.26421
G1 X88.671 Y105.728 E17.38589
G1 X85.908 Y105.804 E17.51059
G1 X83.217 Y105.956 E17.63219
G1 X80.493 Y106.187 E17.75553
G1 X77.786 Y106.493 E17.87844
G1 X75.074 Y106.879 E18.00203
G1 X72.403 Y107.336 E18.12429
G1 X69.751 Y107.865 E18.24629
G1 X67.06 Y108.485 E18.37088
G1 X65.895 Y108.778 E18.42508
G1 X65.091 Y108.89 E18.46171
G1 X64.67 Y108.9 E18.48071
G1 X55.661 Y108.9 E18.88716
G1 X54.963 Y108.891 E18.91866
G1 X54.428 Y108.844 E18.94289
G1 X53.907 Y108.718 E18.96707
G1 X53.41 Y108.516 E18.99127
G1 X52.949 Y108.243 E19.01545
G1 X52.533 Y107.904 E19.03966
G1 X52.172 Y107.508 E19.06383
G1 X51.874 Y107.062 E19.08803
G1 X51.646 Y106.576 E19.11225
G1 X51.493 Y106.062 E19.13645
G1 X51.41 Y105.388 E19.16709
G1 X51.4 Y104.958 E19.18649
G1 X51.4 Y95.951 E19.59286
G1 X51.411 Y95.242 E19.62485
G1 X51.46 Y94.708 E19.64904
G1 X51.557 Y94.268 E19.66937
G1 X52.168 Y91.614 E19.79224
G1 X52.708 Y88.932 E19.91568
G1 X53.168 Y86.241 E20.03885
G1 X53.551 Y83.554 E20.1613
G1 X53.859 Y80.844 E20.28435
G1 X54.093 Y78.115 E20.40793
G1 X54.245 Y75.428 E20.52935
G1 X54.27 Y74.558 E20.56862
G1 X54.313 Y73.553 E20.614
G1 X54.376 Y73.021 E20.63817
G1 X54.517 Y72.503 E20.66239
G1 X54.734 Y72.013 E20.68657
G1 X55.021 Y71.559 E20.7108
G1 X55.372 Y71.154 E20.73498
G1 X55.779 Y70.805 E20.75917
G0 F3000 X55.759 Y71.338
G1 F1500 X56.159 Y71.029 E20.78198
G1 X56.676 Y70.755 E20.80837
G1 X57.519 Y70.402 E20.84961
G1 X58.489 Y70.011 E20.89679
G1 X60.989 Y68.919 E21.01988
G1 X63.502 Y67.737 E21.14517
G1 X65.892 Y66.53 E21.26597
G1 X68.318 Y65.217 E21.39042
G1 X70.702 Y63.837 E21.5147
G1 X73.021 Y62.406 E21.63764
G1 X75.328 Y60.892 E21.76214
G1 X76.411 Y60.16 E21.82112
G1 X76.851 Y59.911 E21.84393
G1 X77.518 Y59.685 E21.8757
G1 X78.121 Y59.61 E21.90311
G1 X78.53 Y59.6 E21.92157
G1 X81.039 Y59.6 E22.03477
G1 X81.738 Y59.61 E22.06631
G1 X81.918 Y59.618 E22.07444
G1 X83.177 Y59.707 E22.13138
G1 X85.931 Y59.862 E22.25583
G1 X88.687 Y59.94 E22.38022
G1 X91.404 Y59.94 E22.5028
G1 X94.157 Y59.862 E22.62706
G1 X96.915 Y59.706 E22.75169
G1 X98.109 Y59.614 E22.80572
G1 X98.63 Y59.599 E22.82924
G1 X101.139 Y59.599 E22.94243
G1 X101.842 Y59.609 E22.97415
G1 X102.345 Y59.656 E22.99695
G1 X102.835 Y59.782 E23.01977
G1 X103.473 Y60.084 E23.05162
G1 X104.438 Y60.678 E23.10274
G1 X104.956 Y61.006 E23.13041
G1 X107.332 Y62.421 E23.25517
G1 X109.689 Y63.737 E23.37697
G1 X112.143 Y65.017 E23.50184
G1 X114.583 Y66.203 E23.62424
G1 X117.109 Y67.344 E23.74929
G1 X119.618 Y68.393 E23.87198
G1 X122.172 Y69.376 E23.99545
G1 X124.783 Y70.297 E24.12037
G1 X125.903 Y70.675 E24.1737
G1 X126.368 Y70.873 E24.1965
G1 X126.796 Y71.143 E24.21933
G1 X127.176 Y71.477 E24.24215
G1 X127.498 Y71.866 E24.26494
G1 X127.756 Y72.301 E24.28776
G1 X127.941 Y72.771 E24.31054
G1 X128.05 Y73.265 E24.33337
G1 X128.089 Y73.928 E24.36333
G1 X128.1 Y87.463 E24.97399
G1 X128.1 Y90.809 E25.12495
G1 X128.14 Y93.606 E25.25115
G1 X128.148 Y93.799 E25.25987
G1 X128.199 Y95.536 E25.33827
G1 X128.2 Y104.604 E25.74739
G1 X128.191 Y105.331 E25.78019
G1 X128.145 Y105.834 E25.80298
G1 X128.02 Y106.324 E25.82579
G1 X127.819 Y106.788 E25.84861
G1 X127.548 Y107.215 E25.87142
G1 X127.213 Y107.594 E25.89425
G1 X126.823 Y107.915 E25.91703
G1 X126.387 Y108.171 E25.93985
G1 X125.916 Y108.354 E25.96264
G1 X125.422 Y108.462 E25.98546
G1 X124.76 Y108.499 E26.01537
G1 X115.661 Y108.5 E26.42589
G1 X114.961 Y108.49 E26.45747
G1 X114.247 Y108.398 E26.48995
G1 X113.113 Y108.121 E26.54262
G1 X110.407 Y107.497 E26.66791
G1 X107.673 Y106.945 E26.79375
G1 X105.045 Y106.496 E26.91403
G1 X102.285 Y106.102 E27.03982
G1 X99.593 Y105.796 E27.16205
G1 X96.877 Y105.563 E27.28504
G1 X94.135 Y105.408 E27.40895
G1 X91.379 Y105.329 E27.53334
G1 X88.66 Y105.328 E27.65601
G1 X85.91 Y105.404 E27.78013
G1 X83.194 Y105.557 E27.90286
G1 X80.451 Y105.789 E28.02706
G1 X77.716 Y106.099 E28.15124
G1 X75.027 Y106.481 E28.27378
G1 X72.322 Y106.944 E28.3976
G1 X69.655 Y107.476 E28.52029
G1 X66.981 Y108.092 E28.64409
G1 X65.798 Y108.39 E28.69913
G1 X65.079 Y108.49 E28.73189
G1 X64.67 Y108.5 E28.75034
G1 X55.666 Y108.5 E29.15657
G1 X54.968 Y108.491 E29.18807
G1 X54.464 Y108.444 E29.21091
G1 X53.974 Y108.319 E29.23372
G1 X53.51 Y108.118 E29.25654
G1 X53.084 Y107.847 E29.27931
G1 X52.705 Y107.512 E29.30214
G1 X52.384 Y107.121 E29.32496
G1 X52.129 Y106.685 E29.34775
G1 X51.945 Y106.214 E29.37056
G1 X51.838 Y105.72 E29.39337
G1 X51.801 Y105.044 E29.42391
G1 X51.8 Y95.957 E29.83389
G1 X51.811 Y95.248 E29.86588
G1 X51.903 Y94.535 E29.89831
G1 X51.945 Y94.364 E29.90626
G1 X52.557 Y91.711 E30.0291
G1 X53.108 Y88.974 E30.15506
G1 X53.559 Y86.329 E30.27611
G1 X53.95 Y83.589 E30.40099
G1 X54.257 Y80.887 E30.52368
G1 X54.49 Y78.171 E30.64666
G1 X54.645 Y75.428 E30.77061
G1 X54.67 Y74.575 E30.80912
G1 X54.713 Y73.57 E30.8545
G1 X54.774 Y73.068 E30.87731
G1 X54.914 Y72.583 E30.90009
G1 X55.129 Y72.125 E30.92292
G1 X55.412 Y71.706 E30.94573
G1 X55.759 Y71.338 E30.96855
G1 F2400 E29.76855
;MESH:vise_holder-vise_holder_insert.stl
G0 F3000 X78.8 Y68.95
;TYPE:WALL-INNER
G1 F2400 E30.96855
G1 F1500 X78.8 Y63.4 E31.21895
G1 X81.1 Y63.4 E31.32271
G1 X81.1 Y63.65 E31.33399
G1 X82.512 Y63.65 E31.3977
G1 X85.712 Y67.65 E31.62881
G1 X94.288 Y67.65 E32.01573
G1 X97.488 Y63.65 E32.24684
G1 X98.9 Y63.65 E32.31055
G1 X98.9 Y63.399 E32.32187
G1 X101.2 Y63.399 E32.42564
G1 X101.2 Y68.95 E32.67608
G1 X97.7 Y68.95 E32.83399
G1 X97.7 Y70.923 E32.923
G1 X82.3 Y70.924 E33.6178
G1 X82.3 Y68.95 E33.70686
G1 X78.8 Y68.95 E33.86477
G0 F3000 X78.4 Y69.35
;TYPE:WALL-OUTER
G1 F1500 X78.4 Y63 E34.15126
G1 X81.5 Y63 E34.29112
G1 X81.5 Y63.25 E34.3024
G1 X82.704 Y63.25 E34.35672
G1 X85.904 Y67.25 E34.58783
G1 X94.096 Y67.25 E34.95743
G1 X97.296 Y63.25 E35.18854
G1 X98.5 Y63.25 E35.24286
G1 X98.5 Y62.999 E35.25418
G1 X101.6 Y62.999 E35.39405
G1 X101.6 Y69.35 E35.68058
G1 X98.1 Y69.35 E35.83849
G1 X98.1 Y71.323 E35.92751
G1 X81.9 Y71.324 E36.6584
G1 X81.9 Y69.35 E36.74746
G1 X78.4 Y69.35 E36.90537
G0 F3000 X78.4 Y69.15
G0 X78.84 Y68.91
G0 X79.19 Y68.56
;TYPE:SKIN
G1 F1500 X79.19 Y63.79 E37.12468
G1 X80.71 Y63.79 E37.19457
G1 X80.71 Y64.04 E37.20607
G1 X82.325 Y64.04 E37.28032
G1 X85.525 Y68.04 E37.51585
G1 X94.475 Y68.04 E37.92736
G1 X97.675 Y64.04 E38.16289
G1 X99.29 Y64.04 E38.23714
G1 X99.29 Y63.789 E38.24868
G1 X100.81 Y63.789 E38.31857
G1 X100.81 Y68.56 E38.53794
G1 X97.31 Y68.56 E38.69886
G1 X97.31 Y70.533 E38.78958
G1 X82.69 Y70.534 E39.46179
G1 X82.69 Y68.56 E39.55255
G1 X79.19 Y68.56 E39.71348
G0 F3000 X79.693 Y68.38
G1 F1500 X79.369 Y68.055 E39.73458
G0 F3000 X79.369 Y67.489
G1 F1500 X80.259 Y68.38 E39.79248
G0 F3000 X80.825 Y68.38
G1 F1500 X79.369 Y66.924 E39.88715
G0 F3000 X79.369 Y66.358
G1 F1500 X81.39 Y68.38 E40.0186
G0 F3000 X81.956 Y68.38
G1 F1500 X79.369 Y65.792 E40.18685
G0 F3000 X79.369 Y65.227
G1 F1500 X82.522 Y68.38 E40.39187
G0 F3000 X82.868 Y68.726
G1 F1500 X84.495 Y70.352 E40.49763
G0 F3000 X85.06 Y70.352
G1 F1500 X79.369 Y64.661 E40.86768
G0 F3000 X79.369 Y64.095
G1 F1500 X85.626 Y70.352 E41.27454
G0 F3000 X86.192 Y70.352
G1 F1500 X79.809 Y63.969 E41.68958
G0 F3000 X80.374 Y63.969
G1 F1500 X80.528 Y64.123 E41.6996
G0 F3000 X80.625 Y64.22
G1 F1500 X86.757 Y70.352 E42.09832
G0 F3000 X87.323 Y70.352
G1 F1500 X81.19 Y64.22 E42.49708
G0 F3000 X81.756 Y64.22
G1 F1500 X84.166 Y66.63 E42.65379
G1 X84.236 Y66.7
G1 F2400 E41.45379
G0 F3000 X85.756 Y68.22
G1 F2400 E42.65379
G1 F1500 X87.889 Y70.352 E42.79245
G0 F3000 X88.454 Y70.352
G1 F1500 X86.322 Y68.22 E42.93108
G0 F3000 X86.887 Y68.22
G1 F1500 X89.02 Y70.352 E43.06975
G0 F3000 X89.586 Y70.352
G1 F1500 X87.453 Y68.22 E43.20841
G0 F3000 X88.019 Y68.22
G1 F1500 X90.151 Y70.352 E43.34704
G0 F3000 X90.717 Y70.352
G1 F1500 X88.584 Y68.22 E43.4857
G0 F3000 X89.15 Y68.22
G1 F1500 X91.283 Y70.352 E43.62437
G0 F3000 X91.848 Y70.352
G1 F1500 X89.716 Y68.22 E43.763
G0 F3000 X90.281 Y68.22
G1 F1500 X92.414 Y70.352 E43.90166
G0 F3000 X92.98 Y70.352
G1 F1500 X90.847 Y68.22 E44.04033
G0 F3000 X91.413 Y68.22
G1 F1500 X93.545 Y70.352 E44.17896
G0 F3000 X94.111 Y70.352
G1 F1500 X91.979 Y68.22 E44.31759
G0 F3000 X92.544 Y68.22
G1 F1500 X94.677 Y70.352 E44.45625
G0 F3000 X95.243 Y70.352
G1 F1500 X93.11 Y68.22 E44.59491
G0 F3000 X93.676 Y68.22
G1 F1500 X95.808 Y70.352 E44.73355
G0 F3000 X96.374 Y70.352
G1 F1500 X94.241 Y68.22 E44.87221
G0 F3000 X94.669 Y68.082
G1 F1500 X96.94 Y70.352 E45.01985
G0 F3000 X97.129 Y69.976
G1 F1500 X94.921 Y67.768 E45.16342
G0 F3000 X95.172 Y67.453
G1 F1500 X97.129 Y69.411 E45.2907
G0 F3000 X97.129 Y68.845
G1 F1500 X95.424 Y67.139 E45.4016
G0 F3000 X95.675 Y66.825
G1 F1500 X97.23 Y68.38 E45.50271
G0 F3000 X97.795 Y68.38
G1 F1500 X95.926 Y66.511 E45.62424
G0 F3000 X96.177 Y66.196
G1 F1500 X98.361 Y68.38 E45.76625
G0 F3000 X98.927 Y68.38
G1 F1500 X96.429 Y65.882 E45.92868
G0 F3000 X96.68 Y65.567
