;FLAVOR:Marlin
;TIME:1461
;Filament used: 2.42683m
;Layer height: 0.3
;MINX:47.8
;MINY:51
;MINZ:0.3
;MAXX:95.301
;MAXY:129
;MAXZ:13.2
;Generated with Cura_SteamEngine 4.12.1
M82 ;absolute extrusion mode
G21 ;metric values
G90 ;absolute positioning
M82 ;set extruder to absolute mode
M107 ;start with the fan off

M104 S205.0 T0 ; start heating T0 to what is set in Cura
M140 S60 ; start heating the bed to what is set in Cura
M190 S60 ; start heating the bed to what is set in Cura
M109 S205.0 T0 ; start heating T0 to what is set in Cura

G28 X0 Y0 ;move X/Y to min endstops
G28 Z0 ;move Z to min endstops
G1 Z15.0 F2400 ;move the platform down 15mm
G92 E0 ;zero the extruded length
G1 F200 E3 ;extrude 3mm of feed stock
G92 E0 ;zero the extruded length again
G1 F2400
G0 Y20 F2400
M117 Printing...
G5
G92 E0
G92 E0
G1 F2400 E-1.2
;LAYER_COUNT:44
;LAYER:0
M107
G0 F3000 X49.21 Y52.079 Z0.3
;TYPE:SKIRT
G1 F2400 E0
G1 F1500 X49.665 Y51.743 E0.02552
G1 X50.162 Y51.474 E0.05102
G1 X50.692 Y51.278 E0.07651
G1 X51.245 Y51.159 E0.10203
G1 X52.001 Y51.112 E0.1362
G1 X52.117 Y51.11 E0.14144
G1 X56.271 Y51.109 E0.32885
G1 X65.658 Y51.1 E0.75236
G1 X68.897 Y51.1 E0.8985
G1 X71.696 Y51.06 E1.02479
G1 X71.876 Y51.053 E1.03292
G1 X73.73 Y51 E1.1166
G1 X82.75 Y51 E1.52355
G1 X83.451 Y51.01 E1.55518
G1 X84.014 Y51.058 E1.58068
G1 X84.565 Y51.185 E1.60619
G1 X85.093 Y51.389 E1.63172
G1 X85.586 Y51.664 E1.65719
G1 X86.036 Y52.007 E1.68272
G1 X86.433 Y52.409 E1.70821
G1 X86.769 Y52.864 E1.73373
G1 X87.038 Y53.361 E1.75923
G1 X87.234 Y53.891 E1.78472
G1 X87.291 Y54.117 E1.79524
G1 X87.428 Y54.713 E1.82283
G1 X87.754 Y56.216 E1.89222
G1 X88.403 Y58.857 E2.01491
G1 X89.127 Y61.487 E2.13798
G1 X89.914 Y64.047 E2.25882
G1 X90.788 Y66.631 E2.38189
G1 X91.738 Y69.2 E2.50546
G1 X92.74 Y71.692 E2.62664
G1 X93.821 Y74.174 E2.74878
G1 X94.824 Y76.31 E2.85525
G1 X95.084 Y76.937 E2.88587
G1 X95.225 Y77.485 E2.9114
G1 X95.288 Y78.081 E2.93844
G1 X95.3 Y78.53 E2.9587
G1 X95.3 Y81.05 E3.0724
G1 X95.287 Y81.864 E3.10913
G1 X95.276 Y82.095 E3.11956
G1 X95.136 Y84.539 E3.23001
G1 X95.06 Y87.228 E3.35137
G1 X95.05 Y88.651 E3.41558
G1 X95.05 Y91.182 E3.52977
G1 X95.09 Y93.976 E3.65584
G1 X95.211 Y96.805 E3.78359
G1 X95.289 Y98.179 E3.84568
G1 X95.301 Y98.63 E3.86603
G1 X95.301 Y101.155 E3.97995
G1 X95.29 Y101.86 E4.01176
G1 X95.241 Y102.424 E4.03731
G1 X95.113 Y102.974 E4.06278
G1 X94.912 Y103.496 E4.08802
G1 X94.377 Y104.637 E4.14488
G1 X93.266 Y107.096 E4.26662
G1 X92.204 Y109.634 E4.39074
G1 X91.224 Y112.17 E4.5134
G1 X90.332 Y114.7 E4.63444
G1 X89.495 Y117.3 E4.75767
G1 X88.735 Y119.914 E4.88049
G1 X88.053 Y122.531 E5.0025
G1 X87.429 Y125.24 E5.12792
G1 X87.302 Y125.831 E5.1552
G1 X87.144 Y126.374 E5.18071
G1 X86.912 Y126.89 E5.20623
G1 X86.609 Y127.367 E5.23173
G1 X86.242 Y127.797 E5.25724
G1 X85.818 Y128.171 E5.28274
G1 X85.345 Y128.481 E5.30826
G1 X84.834 Y128.722 E5.33375
G1 X84.293 Y128.888 E5.35928
G1 X83.503 Y128.989 E5.39521
G1 X83.07 Y129 E5.41475
G1 X74.05 Y129 E5.82171
G1 X73.351 Y128.99 E5.85325
G1 X72.787 Y128.942 E5.87878
G1 X72.509 Y128.888 E5.89156
G1 X69.603 Y128.218 E6.02611
G1 X66.997 Y127.694 E6.14604
G1 X64.269 Y127.226 E6.27091
G1 X61.59 Y126.844 E6.393
G1 X58.9 Y126.538 E6.51515
G1 X56.227 Y126.309 E6.63619
G1 X53.46 Y126.153 E6.76123
G1 X52.641 Y126.129 E6.79819
G1 X51.638 Y126.086 E6.84349
G1 X51.076 Y126.022 E6.86901
G1 X50.529 Y125.88 E6.8945
G1 X50.007 Y125.661 E6.92004
G1 X49.522 Y125.372 E6.94551
G1 X49.082 Y125.016 E6.97105
G1 X48.697 Y124.603 E6.99652
G1 X48.374 Y124.139 E7.02203
G1 X48.119 Y123.634 E7.04755
G1 X47.938 Y123.099 E7.07303
G1 X47.835 Y122.543 E7.09855
G1 X47.801 Y121.866 E7.12913
G1 X47.8 Y55.75 E10.11206
G1 X47.81 Y55.061 E10.14315
G1 X47.859 Y54.498 E10.16865
G1 X47.986 Y53.947 E10.19416
G1 X48.189 Y53.419 E10.21968
G1 X48.465 Y52.926 E10.24517
G1 X48.807 Y52.476 E10.27067
G1 X49.21 Y52.079 E10.2962
G0 F3000 X49.598 Y52.279
G1 F1500 X50.045 Y51.982 E10.32041
G1 X50.53 Y51.754 E10.34459
G1 X51.044 Y51.601 E10.36878
G1 X51.705 Y51.521 E10.39882
G1 X52.117 Y51.51 E10.41742
G1 X56.272 Y51.509 E10.60488
G1 X65.659 Y51.5 E11.02839
G1 X68.903 Y51.5 E11.17475
G1 X71.684 Y51.461 E11.30023
G1 X71.887 Y51.453 E11.3094
G1 X73.73 Y51.4 E11.39258
G1 X82.744 Y51.4 E11.79926
G1 X83.445 Y51.41 E11.83089
G1 X83.98 Y51.458 E11.85513
G1 X84.501 Y51.584 E11.87931
G1 X84.997 Y51.787 E11.90349
G1 X85.458 Y52.061 E11.92768
G1 X85.874 Y52.4 E11.9519
G1 X86.234 Y52.797 E11.97608
G1 X86.531 Y53.244 E12.00029
G1 X86.759 Y53.729 E12.02447
G1 X86.911 Y54.243 E12.04865
G1 X87.037 Y54.798 E12.07433
G1 X87.36 Y56.291 E12.14324
G1 X88.013 Y58.945 E12.26656
G1 X88.745 Y61.605 E12.39103
G1 X89.539 Y64.187 E12.5129
G1 X90.41 Y66.761 E12.6355
G1 X91.363 Y69.34 E12.75955
G1 X92.378 Y71.864 E12.88228
G1 X93.469 Y74.368 E13.00551
G1 X94.459 Y76.474 E13.1105
G1 X94.713 Y77.09 E13.14057
G1 X94.841 Y77.611 E13.16477
G1 X94.898 Y78.42 E13.20136
G1 X94.9 Y78.53 E13.20632
G1 X94.9 Y81.044 E13.31975
G1 X94.887 Y81.847 E13.35598
G1 X94.877 Y82.072 E13.36614
G1 X94.738 Y84.505 E13.47609
G1 X94.659 Y87.302 E13.60233
G1 X94.65 Y88.648 E13.66306
G1 X94.65 Y91.188 E13.77766
G1 X94.689 Y93.966 E13.903
G1 X94.813 Y96.842 E14.03288
G1 X94.885 Y98.093 E14.08941
G1 X94.901 Y98.63 E14.11365
G1 X94.901 Y101.149 E14.2273
G1 X94.89 Y101.854 E14.25911
G1 X94.841 Y102.388 E14.28331
G1 X94.714 Y102.909 E14.3075
G1 X94.549 Y103.326 E14.32773
G1 X94.036 Y104.421 E14.38229
G1 X92.891 Y106.955 E14.50774
G1 X91.833 Y109.483 E14.63138
G1 X90.842 Y112.047 E14.7554
G1 X89.957 Y114.56 E14.87561
G1 X89.116 Y117.171 E14.99937
G1 X88.35 Y119.806 E15.12317
G1 X87.662 Y122.445 E15.24621
G1 X87.038 Y125.156 E15.37172
G1 X86.911 Y125.747 E15.399
G1 X86.759 Y126.262 E15.42322
G1 X86.533 Y126.748 E15.4474
G1 X86.237 Y127.195 E15.47159
G1 X85.878 Y127.594 E15.49581
G1 X85.464 Y127.934 E15.51998
G1 X85.004 Y128.21 E15.54418
G1 X84.508 Y128.413 E15.56836
G1 X83.987 Y128.541 E15.59256
G1 X83.171 Y128.599 E15.62947
G1 X74.056 Y128.6 E16.04071
G1 X73.357 Y128.59 E16.07225
G1 X72.599 Y128.498 E16.1067
G1 X69.7 Y127.83 E16.24092
G1 X67.039 Y127.294 E16.36339
G1 X64.362 Y126.835 E16.48593
G1 X61.654 Y126.449 E16.60934
G1 X58.943 Y126.141 E16.73244
G1 X56.215 Y125.907 E16.85597
G1 X53.527 Y125.755 E16.97743
G1 X52.658 Y125.73 E17.01666
G1 X51.655 Y125.687 E17.06195
G1 X51.122 Y125.624 E17.08617
G1 X50.605 Y125.483 E17.11034
G1 X50.114 Y125.266 E17.13456
G1 X49.661 Y124.979 E17.15876
G1 X49.256 Y124.628 E17.18294
G1 X48.907 Y124.221 E17.20713
G1 X48.623 Y123.766 E17.23132
G1 X48.409 Y123.274 E17.25553
G1 X48.271 Y122.756 E17.27972
G1 X48.21 Y122.188 E17.30549
G1 X48.2 Y121.758 E17.32489
G1 X48.2 Y55.756 E20.30269
G1 X48.21 Y55.067 E20.33378
G1 X48.258 Y54.533 E20.35797
G1 X48.385 Y54.011 E20.3822
G1 X48.587 Y53.515 E20.40637
G1 X48.861 Y53.054 E20.43056
G1 X49.201 Y52.639 E20.45477
G1 X49.598 Y52.279 E20.47895
G0 F3000 X49.593 Y52.812
G1 F1500 X49.984 Y52.491 E20.50177
G1 X50.42 Y52.236 E20.52456
G1 X50.892 Y52.054 E20.54738
G1 X51.386 Y51.947 E20.57019
G1 X52.025 Y51.911 E20.59906
G1 X65.659 Y51.9 E21.21418
G1 X68.909 Y51.9 E21.36081
G1 X71.706 Y51.86 E21.48702
G1 X71.899 Y51.852 E21.49573
G1 X73.636 Y51.801 E21.57413
G1 X82.739 Y51.8 E21.98483
G1 X83.44 Y51.81 E22.01646
G1 X83.943 Y51.857 E22.03925
G1 X84.433 Y51.983 E22.06208
G1 X84.896 Y52.185 E22.08487
G1 X85.323 Y52.457 E22.10771
G1 X85.701 Y52.792 E22.1305
G1 X86.021 Y53.183 E22.15329
G1 X86.276 Y53.62 E22.17612
G1 X86.459 Y54.091 E22.19892
G1 X86.511 Y54.298 E22.20855
G1 X86.646 Y54.883 E22.23563
G1 X86.973 Y56.392 E22.3053
G1 X87.624 Y59.041 E22.42837
G1 X88.357 Y61.701 E22.55285
G1 X89.161 Y64.318 E22.67637
G1 X90.032 Y66.891 E22.79892
G1 X90.989 Y69.48 E22.92345
G1 X92.005 Y72.007 E23.04633
G1 X93.112 Y74.549 E23.17142
G1 X94.094 Y76.639 E23.27561
G1 X94.342 Y77.242 E23.30502
G1 X94.455 Y77.734 E23.3278
G1 X94.498 Y78.432 E23.35935
G1 X94.5 Y78.53 E23.36377
G1 X94.5 Y81.038 E23.47693
G1 X94.49 Y81.743 E23.50874
G1 X94.478 Y82.049 E23.52255
G1 X94.338 Y84.505 E23.63354
G1 X94.26 Y87.265 E23.75811
G1 X94.25 Y88.645 E23.82037
G1 X94.25 Y91.194 E23.93538
G1 X94.29 Y93.988 E24.06145
G1 X94.411 Y96.816 E24.18915
G1 X94.49 Y98.203 E24.25183
G1 X94.501 Y98.63 E24.2711
G1 X94.501 Y101.143 E24.38448
G1 X94.49 Y101.848 E24.41629
G1 X94.442 Y102.351 E24.43909
G1 X94.315 Y102.841 E24.46193
G1 X94.187 Y103.157 E24.47731
G1 X93.652 Y104.298 E24.53416
G1 X92.535 Y106.772 E24.65663
G1 X91.462 Y109.333 E24.78191
G1 X90.468 Y111.907 E24.9064
G1 X89.575 Y114.442 E25.02766
G1 X88.735 Y117.052 E25.15136
G1 X87.964 Y119.699 E25.27575
G1 X87.271 Y122.36 E25.39981
G1 X86.647 Y125.072 E25.52536
G1 X86.52 Y125.663 E25.55263
G1 X86.375 Y126.148 E25.57547
G1 X86.155 Y126.603 E25.59827
G1 X85.867 Y127.018 E25.62106
G1 X85.517 Y127.383 E25.64388
G1 X85.113 Y127.688 E25.66672
G1 X84.667 Y127.926 E25.68952
G1 X84.189 Y128.09 E25.71232
G1 X83.481 Y128.19 E25.74458
G1 X83.07 Y128.2 E25.76313
G1 X74.061 Y128.2 E26.16959
G1 X73.362 Y128.19 E26.20113
G1 X72.689 Y128.108 E26.23172
G1 X69.797 Y127.441 E26.36562
G1 X67.12 Y126.903 E26.48881
G1 X64.414 Y126.439 E26.61268
G1 X61.684 Y126.05 E26.73709
G1 X58.986 Y125.743 E26.8596
G1 X56.271 Y125.51 E26.98254
G1 X53.527 Y125.355 E27.10654
G1 X52.675 Y125.33 E27.145
G1 X51.672 Y125.287 E27.19029
G1 X51.17 Y125.226 E27.21311
G1 X50.684 Y125.086 E27.23592
G1 X50.226 Y124.871 E27.25875
G1 X49.808 Y124.587 E27.28155
G1 X49.44 Y124.241 E27.30434
G1 X49.131 Y123.841 E27.32714
G1 X48.888 Y123.397 E27.34998
G1 X48.719 Y122.921 E27.37277
G1 X48.61 Y122.177 E27.40669
G1 X48.6 Y121.758 E27.4256
G1 X48.6 Y55.762 E30.40313
G1 X48.61 Y55.073 E30.43421
G1 X48.658 Y54.569 E30.45706
G1 X48.784 Y54.08 E30.47984
G1 X48.985 Y53.616 E30.50265
G1 X49.257 Y53.19 E30.52546
G1 X49.593 Y52.812 E30.54827
G1 F2400 E29.34827
;MESH:vise_holder_bak-vise_4cm.stl
G0 F3000 X81.549 Y64.4
;TYPE:WALL-INNER
G1 F2400 E30.54827
G1 F1500 X81.889 Y64.06 E30.56997
G1 X82.46 Y63.489 E30.6064
G1 X82.8 Y63.149 E30.62809
G1 X82.8 Y63.63 E30.63978
G1 X82.8 Y64.4 E30.67452
G1 X82.03 Y64.4 E30.70926
G1 X81.549 Y64.4 E30.72094
G1 F2400 E29.52094
G0 F3000 X81.549 Y115.6
G1 F2400 E30.72094
G1 F1500 X82.03 Y115.6 E30.74264
G1 X82.8 Y115.6 E30.77738
G1 X82.8 Y116.37 E30.81212
G1 X82.8 Y116.851 E30.83383
G1 X82.46 Y116.511 E30.84549
G1 X81.889 Y115.94 E30.88192
G1 X81.549 Y115.6 E30.89358
G1 F2400 E29.69358
G0 F3000 X82.8 Y123.149
G1 F2400 E30.89358
G1 F1500 X82.8 Y123.63 E30.91528
G1 X82.8 Y124.4 E30.95002
G1 X82.03 Y124.4 E30.98476
G1 X81.549 Y124.4 E31.00646
G1 X81.889 Y124.06 E31.01812
G1 X82.46 Y123.489 E31.05455
G1 X82.8 Y123.149 E31.06621
G1 F2400 E29.86621
G0 F3000 X74 Y123.149
G1 F2400 E31.06621
G1 F1500 X74.34 Y123.489 E31.08791
G1 X74.911 Y124.06 E31.12434
G1 X75.251 Y124.4 E31.14603
G1 X74.77 Y124.4 E31.15772
G1 X74 Y124.4 E31.19246
G1 X74 Y123.63 E31.2272
G1 X74 Y123.149 E31.23888
G1 F2400 E30.03888
G0 F3000 X74 Y121.495
G1 F2400 E31.23888
G1 F1500 X65.4 Y121.495 E31.62689
G1 X52.4 Y121.5 E32.2134
G1 X52.4 Y55.71 E35.18163
G1 X56.275 Y55.709 E35.35646
G1 X64.428 Y55.702 E35.7243
G1 X65.662 Y55.7 E35.77997
G1 X66.371 Y55.7 E35.81196
G1 X74 Y55.7 E36.15615
G1 X74 Y55.6 E36.16067
G1 X74.77 Y55.6 E36.19541
G1 X75.251 Y55.6 E36.21711
G1 X81.549 Y55.6 E36.50125
G1 X82.03 Y55.6 E36.52295
G1 X82.8 Y55.6 E36.55769
G1 X82.8 Y56.37 E36.59243
G1 X82.8 Y56.851 E36.61413
G1 X82.46 Y56.511 E36.62579
G1 X81.889 Y55.94 E36.66223
G1 X81.549 Y55.6 E36.67389
G1 X75.251 Y55.6
G1 X74.911 Y55.94 E36.69558
G1 X74 Y56.851 E36.75371
G1 X74 Y62.4 E37.00406
G1 X66.371 Y62.4 E37.34825
G1 X64.429 Y62.4 E37.43587
G1 X56.7 Y62.4 E37.78458
G1 X56.7 Y116.805 E40.23915
G1 X74 Y116.805 E41.01967
G1 X74 Y116.379 E41.03889
G1 X74 Y115.6 E41.07404
G1 X74.1 Y115.6 E41.07855
G1 X74.1 Y64.4 E43.38852
G1 X74 Y64.4 E43.39304
G1 X74 Y63.63 E43.42778
G1 X74 Y63.149 E43.44948
G1 X74.34 Y63.489 E43.46114
G1 X75.251 Y64.4 E43.51926
G1 X78.4 Y64.4 E43.66134
G1 X78.4 Y115.6 E45.97131
G1 X75.251 Y115.6 E46.11338
G1 X74.301 Y116.55 E46.174
G1 X74 Y116.851 E46.18535
G1 X74 Y121.495 E46.39487
G1 F2400 E45.19487
G0 F3000 X74.4 Y122.983
;TYPE:WALL-OUTER
G1 F2400 E46.39487
G1 F1500 X75.417 Y124 E46.45976
G1 X81.383 Y124 E46.72893
G1 X82.4 Y122.983 E46.79381
G1 X82.4 Y117.017 E47.06298
G1 X81.383 Y116 E47.12787
G1 X75.417 Y116 E47.39704
G1 X74.4 Y117.017 E47.46193
G1 X74.4 Y122.983 E47.73109
G0 F3000 X74.541 Y123.124
G0 X74.23 Y123.435
G1 F2400 E46.53109
G0 F3000 X73.6 Y116.405
G1 F2400 E47.73109
G1 F1500 X73.6 Y115.2 E47.78546
G1 X73.7 Y115.2 E47.78997
G1 X73.7 Y64.8 E50.06385
G1 X73.6 Y64.8 E50.06836
G1 X73.6 Y62.8 E50.1586
G1 X57.1 Y62.8 E50.90302
G1 X57.1 Y116.405 E53.3215
G1 X73.6 Y116.405 E54.06593
G0 F3000 X73.6 Y116.205
G0 X74.04 Y116.205
G1 F2400 E52.86593
G0 F3000 X75.417 Y64
G1 F2400 E54.06593
G1 F1500 X81.383 Y64 E54.3351
G1 X82.4 Y62.983 E54.39998
G1 X82.4 Y57.017 E54.66915
G1 X81.383 Y56 E54.73404
G1 X75.417 Y56 E55.00321
G1 X74.4 Y57.017 E55.0681
G1 X74.4 Y62.983 E55.33726
G1 X75.417 Y64 E55.40215
G0 F3000 X75.617 Y64
G0 X75.617 Y64.44
G1 F2400 E54.20215
G0 F3000 X66.371 Y62.247
;TYPE:WALL-INNER
G1 F2400 E55.40215
G1 F1500 X66.371 Y60.4 E55.48548
G1 X66.9 Y60.4 E55.50935
G1 X66.9 Y57.7 E55.63116
G1 X66.371 Y57.7 E55.65503
G1 X66.371 Y55.953 E55.73385
G1 X65.662 Y55.953 E55.75413
G1 X64.429 Y55.953 E55.78926
G1 X64.428 Y57.7 E55.86808
G1 X63.9 Y57.7 E55.8919
G1 X63.9 Y60.4 E56.01371
G1 X64.429 Y60.4 E56.03758
G1 X64.429 Y62.247 E56.12091
G1 X66.371 Y62.247 E56.15451
G0 F3000 X65.971 Y61.847
;TYPE:WALL-OUTER
G1 F1500 X65.971 Y60 E56.23784
G1 X66.5 Y60 E56.26171
G1 X66.5 Y58.1 E56.34743
G1 X65.971 Y58.1 E56.37129
G1 X65.971 Y56.353 E56.45011
G1 X64.829 Y56.353 E56.50164
G1 X64.828 Y58.1 E56.58046
G1 X64.3 Y58.1 E56.60428
G1 X64.3 Y60 E56.69
G1 X64.829 Y60 E56.71387
G1 X64.829 Y61.847 E56.7972
G1 X65.971 Y61.847 E56.84872
G0 F3000 X65.971 Y61.647
G0 X66.411 Y61.647
G1 F2400 E55.64872
G0 F3000 X65.662 Y55.3
G1 F2400 E56.84872
G1 F1500 X73.6 Y55.3 E57.20686
G1 X73.6 Y55.2 E57.21137
G1 X83.2 Y55.2 E57.64449
G1 X83.2 Y64.8 E58.07761
G1 X78.8 Y64.8 E58.27612
G1 X78.8 Y115.2 E60.55
G1 X83.2 Y115.2 E60.74852
G1 X83.2 Y124.8 E61.18164
G1 X73.6 Y124.8 E61.61476
G1 X73.6 Y121.895 E61.74582
G1 X65.4 Y121.895 E62.11578
G1 X52 Y121.9 E62.72034
G1 X52 Y55.31 E65.72466
G1 X56.275 Y55.309 E65.91754
G1 X65.662 Y55.3 E66.34105
G0 F3000 X65.862 Y55.3
G0 X65.862 Y55.74
G1 F2400 E65.14105
G0 F3000 X66.761 Y56.09
;TYPE:SKIN
G1 F2400 E66.34105
G1 F1500 X74.21 Y56.09 E66.68355
G1 X73.61 Y56.689 E66.72253
G1 X73.61 Y62.01 E66.96718
G1 X66.761 Y62.01 E67.28209
G1 X66.761 Y60.79 E67.33818
G1 X67.29 Y60.79 E67.36251
G1 X67.29 Y57.31 E67.52251
G1 X66.761 Y57.31 E67.54684
G1 X66.761 Y56.09 E67.60293
G1 F2400 E66.40293
G0 F3000 X67.486 Y61.829
G1 F2400 E67.60293
G1 F1500 X66.94 Y61.283 E67.63843
G0 F3000 X67.192 Y60.969
G1 F1500 X68.051 Y61.829 E67.69432
G0 F3000 X68.617 Y61.829
G1 F1500 X67.469 Y60.681 E67.76897
G0 F3000 X67.469 Y60.115
G1 F1500 X69.183 Y61.829 E67.88042
G0 F3000 X69.749 Y61.829
G1 F1500 X67.469 Y59.549 E68.02867
G0 F3000 X67.469 Y58.984
G1 F1500 X70.314 Y61.829 E68.21367
G0 F3000 X70.88 Y61.829
G1 F1500 X67.469 Y58.418 E68.43546
G0 F3000 X67.469 Y57.852
G1 F1500 X71.446 Y61.829 E68.69406
G0 F3000 X72.011 Y61.829
G1 F1500 X67.469 Y57.286 E68.98943
G0 F3000 X67.312 Y57.129
G1 F1500 X66.94 Y56.758 E69.01359
G0 F3000 X67.018 Y56.27
G1 F1500 X72.577 Y61.829 E69.37506
G0 F3000 X73.143 Y61.829
G1 F1500 X67.583 Y56.27 E69.73656
G0 F3000 X68.149 Y56.27
G1 F1500 X73.429 Y61.55 E70.07988
G0 F3000 X73.429 Y60.984
G1 F1500 X68.715 Y56.27 E70.38641
G0 F3000 X69.28 Y56.27
G1 F1500 X73.429 Y60.418 E70.65616
G0 F3000 X73.429 Y59.853
G1 F1500 X69.846 Y56.27 E70.88914
G0 F3000 X70.412 Y56.27
G1 F1500 X73.429 Y59.287 E71.08531
G0 F3000 X73.429 Y58.721
G1 F1500 X70.977 Y56.27 E71.24472
G0 F3000 X71.543 Y56.27
G1 F1500 X73.429 Y58.155 E71.36732
G0 F3000 X73.429 Y57.59
G1 F1500 X72.109 Y56.27 E71.45315
G0 F3000 X72.675 Y56.27
G1 F1500 X73.429 Y57.024 E71.50218
G0 F3000 X73.506 Y56.536
G1 F1500 X73.24 Y56.27 E71.51948
G1 F2400 E70.31948
