;FLAVOR:Marlin
;TIME:6283
;Filament used: 7.12585m
;Layer height: 0.3
;MINX:68.35
;MINY:44.209
;MINZ:0.3
;MAXX:141.65
;MAXY:174.51
;MAXZ:9.975
;Generated with Cura_SteamEngine 4.12.1
M82 ;absolute extrusion mode
G21 ;metric values
G90 ;absolute positioning
M82 ;set extruder to absolute mode
M107 ;start with the fan off

M104 S200 T0 ; start heating T0 to what is set in Cura
M140 S60 ; start heating the bed to what is set in Cura
M190 S60 ; start heating the bed to what is set in Cura
M109 S200 T0 ; start heating T0 to what is set in Cura

G28 X0 Y0 ;move X/Y to min endstops
G28 Z0 ;move Z to min endstops
G1 Z15.0 F2400 ;move the platform down 15mm
G92 E0 ;zero the extruded length
G1 F200 E3 ;extrude 3mm of feed stock
G92 E0 ;zero the extruded length again
G1 F2400
G0 Y20 F2400
M117 Printing...
G5
G92 E0
G92 E0
G1 F2400 E-6
;LAYER_COUNT:33
;LAYER:0
M107
M204 S3000
M205 X10 Y10
G1 F600 Z0.375
G0 F3000 X69.38 Y47.016 Z0.375
M204 S1800
M205 X8 Y8
;TYPE:SKIRT
G1 F600 Z0.3
G1 F2400 E0
G1 X69.799 Y46.464 E0.03457
G1 X70.276 Y45.963 E0.06909
G1 X70.795 Y45.504 E0.10365
G1 X71.363 Y45.108 E0.1382
G1 X71.973 Y44.78 E0.17275
G1 X72.617 Y44.525 E0.20731
G1 X73.285 Y44.345 E0.24182
G1 X74.296 Y44.224 E0.29262
G1 X74.946 Y44.21 E0.32506
G1 X91.79 Y44.209 E1.16541
G1 X92.583 Y44.22 E1.20498
G1 X93.273 Y44.269 E1.23949
G1 X93.954 Y44.398 E1.27407
G1 X94.615 Y44.605 E1.30862
G1 X95.248 Y44.886 E1.34317
G1 X95.715 Y45.154 E1.37004
G1 X98.015 Y46.615 E1.50598
G1 X100.277 Y47.962 E1.63732
G1 X102.613 Y49.267 E1.77082
G1 X104.969 Y50.496 E1.90339
G1 X107.377 Y51.667 E2.03698
G1 X109.75 Y52.738 E2.16687
G1 X112.245 Y53.782 E2.3018
G1 X114.749 Y54.748 E2.4357
G1 X117.204 Y55.613 E2.56556
G1 X119.775 Y56.439 E2.70029
G1 X122.296 Y57.172 E2.83127
G1 X124.871 Y57.842 E2.96401
G1 X127.499 Y58.447 E3.09855
G1 X130.097 Y58.969 E3.23076
G1 X132.684 Y59.411 E3.3617
G1 X135.365 Y59.793 E3.4968
G1 X136.26 Y59.908 E3.54182
G1 X136.94 Y60.036 E3.57634
G1 X137.602 Y60.241 E3.61092
G1 X138.235 Y60.521 E3.64545
G1 X138.832 Y60.872 E3.68
G1 X139.384 Y61.29 E3.71454
G1 X139.883 Y61.761 E3.74878
G1 X140.343 Y62.278 E3.7833
G1 X140.741 Y62.845 E3.81786
G1 X141.071 Y63.454 E3.85242
G1 X141.329 Y64.097 E3.88699
G1 X141.511 Y64.765 E3.92153
G1 X141.636 Y65.794 E3.97324
G1 X141.65 Y66.413 E4.00413
G1 X141.65 Y143.378 E7.84393
G1 X141.64 Y144.081 E7.87901
G1 X141.591 Y144.772 E7.91357
G1 X141.462 Y145.452 E7.9481
G1 X141.255 Y146.113 E7.98266
G1 X140.974 Y146.746 E8.01721
G1 X140.621 Y147.342 E8.05177
G1 X140.202 Y147.894 E8.08634
G1 X139.723 Y148.398 E8.12103
G1 X139.204 Y148.857 E8.1556
G1 X138.636 Y149.253 E8.19014
G1 X138.026 Y149.581 E8.2247
G1 X137.203 Y149.893 E8.26861
G1 X136.496 Y150.102 E8.30539
G1 X135.172 Y150.472 E8.37397
G1 X132.645 Y151.255 E8.50596
G1 X130.141 Y152.11 E8.63797
G1 X127.614 Y153.053 E8.77253
G1 X125.184 Y154.04 E8.90338
G1 X122.734 Y155.116 E9.03688
G1 X120.352 Y156.244 E9.16837
G1 X117.951 Y157.465 E9.30276
G1 X115.624 Y158.732 E9.43495
G1 X113.326 Y160.069 E9.56759
G1 X111.088 Y161.458 E9.699
G1 X108.855 Y162.932 E9.83248
G1 X106.681 Y164.458 E9.965
G1 X104.542 Y166.051 E10.09806
G1 X102.445 Y167.707 E10.23136
G1 X100.443 Y169.382 E10.36159
G1 X98.43 Y171.166 E10.49579
G1 X96.75 Y172.742 E10.61071
G1 X96.537 Y172.936 E10.62508
G1 X95.999 Y173.372 E10.65963
G1 X95.414 Y173.743 E10.69419
G1 X94.791 Y174.044 E10.72871
G1 X94.137 Y174.272 E10.76326
G1 X93.461 Y174.422 E10.79781
G1 X92.704 Y174.496 E10.83576
G1 X92.054 Y174.51 E10.86819
G1 X75.125 Y174.51 E11.71278
G1 X74.42 Y174.5 E11.74796
G1 X73.729 Y174.451 E11.78252
G1 X73.049 Y174.322 E11.81705
G1 X72.388 Y174.115 E11.85161
G1 X71.755 Y173.834 E11.88616
G1 X71.159 Y173.481 E11.92072
G1 X70.607 Y173.062 E11.95529
G1 X70.117 Y172.599 E11.98893
G1 X69.657 Y172.082 E12.02345
G1 X69.259 Y171.515 E12.05801
G1 X68.929 Y170.906 E12.09257
G1 X68.671 Y170.263 E12.12713
G1 X68.489 Y169.595 E12.16168
G1 X68.386 Y168.91 E12.19624
G1 X68.355 Y168.293 E12.22706
G1 X68.35 Y167.825 E12.25041
G1 X68.35 Y50.963 E18.08068
G1 X68.36 Y50.277 E18.1149
G1 X68.41 Y49.586 E18.14947
G1 X68.539 Y48.905 E18.18405
G1 X68.746 Y48.245 E18.21856
G1 X69.027 Y47.612 E18.25311
G1 X69.38 Y47.016 E18.28767
M204 S3000
M205 X10 Y10
G0 F3000 X69.776 Y47.145
M204 S1800
M205 X8 Y8
G1 F2400 X70.413 Y46.391 E18.33691
G1 X70.558 Y46.247 E18.34711
G1 X71.06 Y45.804 E18.38051
G1 X71.611 Y45.425 E18.41387
G1 X72.204 Y45.114 E18.44728
G1 X72.829 Y44.876 E18.48065
G1 X73.478 Y44.715 E18.51401
G1 X74.31 Y44.623 E18.55577
G1 X74.95 Y44.61 E18.5877
G1 X91.79 Y44.609 E19.42786
G1 X92.577 Y44.62 E19.46712
G1 X93.244 Y44.669 E19.50049
G1 X93.901 Y44.798 E19.53389
G1 X94.537 Y45.004 E19.56725
G1 X95.145 Y45.284 E19.60064
G1 X95.5 Y45.492 E19.62117
G1 X97.786 Y46.944 E19.75628
G1 X100.072 Y48.306 E19.88904
G1 X102.439 Y49.628 E20.0243
G1 X104.788 Y50.853 E20.15647
G1 X107.187 Y52.02 E20.28956
G1 X109.64 Y53.127 E20.42383
G1 X112.083 Y54.149 E20.55595
G1 X114.579 Y55.112 E20.68942
G1 X117.086 Y55.995 E20.82202
G1 X119.646 Y56.817 E20.95617
G1 X122.198 Y57.56 E21.08877
G1 X124.785 Y58.233 E21.22213
G1 X127.395 Y58.834 E21.35576
G1 X130.029 Y59.363 E21.48979
G1 X132.626 Y59.807 E21.62123
G1 X135.334 Y60.193 E21.7577
G1 X136.209 Y60.305 E21.80171
G1 X136.866 Y60.429 E21.83507
G1 X137.504 Y60.632 E21.86847
G1 X138.113 Y60.908 E21.90183
G1 X138.684 Y61.256 E21.93519
G1 X139.211 Y61.669 E21.96859
G1 X139.6 Y62.044 E21.99555
G1 X140.044 Y62.545 E22.02895
G1 X140.425 Y63.095 E22.06233
G1 X140.738 Y63.686 E22.09569
G1 X140.978 Y64.31 E22.12905
G1 X141.142 Y64.959 E22.16245
G1 X141.237 Y65.808 E22.20507
G1 X141.25 Y66.417 E22.23546
G1 X141.25 Y143.373 E26.07481
G1 X141.24 Y144.076 E26.10988
G1 X141.191 Y144.743 E26.14325
G1 X141.062 Y145.399 E26.17661
G1 X140.856 Y146.036 E26.21001
G1 X140.576 Y146.643 E26.24336
G1 X140.225 Y147.213 E26.27675
G1 X139.587 Y147.969 E26.32611
G1 X139.441 Y148.114 E26.33637
G1 X138.939 Y148.557 E26.36977
G1 X138.388 Y148.936 E26.40314
G1 X137.796 Y149.247 E26.4365
G1 X137.089 Y149.509 E26.47412
G1 X136.389 Y149.716 E26.51054
G1 X135.085 Y150.08 E26.57808
G1 X132.504 Y150.88 E26.71289
G1 X130.009 Y151.732 E26.84442
G1 X127.491 Y152.672 E26.97851
G1 X125.021 Y153.674 E27.1115
G1 X122.551 Y154.76 E27.24611
G1 X120.179 Y155.883 E27.37704
G1 X117.785 Y157.1 E27.51103
G1 X115.411 Y158.393 E27.64589
G1 X113.12 Y159.726 E27.77813
G1 X110.878 Y161.117 E27.90977
G1 X108.635 Y162.598 E28.04386
G1 X106.434 Y164.143 E28.17802
G1 X104.3 Y165.732 E28.31076
G1 X102.225 Y167.371 E28.44268
G1 X100.147 Y169.109 E28.57784
G1 X98.174 Y170.858 E28.70938
G1 X96.481 Y172.446 E28.82518
G1 X96.268 Y172.64 E28.83956
G1 X95.747 Y173.06 E28.87294
G1 X95.18 Y173.415 E28.90632
G1 X94.575 Y173.7 E28.93968
G1 X93.94 Y173.911 E28.97307
G1 X93.284 Y174.044 E29.00646
G1 X92.69 Y174.097 E29.03621
G1 X92.05 Y174.11 E29.06815
G1 X75.131 Y174.11 E29.91224
G1 X74.426 Y174.1 E29.94742
G1 X73.758 Y174.051 E29.98083
G1 X73.102 Y173.922 E30.01419
G1 X72.465 Y173.716 E30.04759
G1 X71.858 Y173.436 E30.08094
G1 X71.288 Y173.085 E30.11434
G1 X70.545 Y172.461 E30.16274
G1 X70.4 Y172.316 E30.17297
G1 X69.956 Y171.815 E30.20637
G1 X69.575 Y171.265 E30.23975
G1 X69.262 Y170.674 E30.27312
G1 X69.022 Y170.05 E30.30647
G1 X68.858 Y169.401 E30.33987
G1 X68.763 Y168.533 E30.38343
G1 X68.75 Y167.865 E30.41676
G1 X68.75 Y50.968 E36.24878
G1 X68.76 Y50.282 E36.28301
G1 X68.809 Y49.615 E36.31637
G1 X68.938 Y48.959 E36.34973
G1 X69.144 Y48.322 E36.38313
G1 X69.425 Y47.715 E36.4165
G1 X69.776 Y47.145 E36.4499
M204 S3000
M205 X10 Y10
G0 F3000 X70.172 Y47.28
M204 S1800
M205 X8 Y8
G1 F2400 X70.695 Y46.674 E36.48983
G1 X70.84 Y46.53 E36.50003
G1 X71.324 Y46.105 E36.53216
G1 X71.858 Y45.744 E36.56432
G1 X72.432 Y45.451 E36.59647
G1 X73.038 Y45.231 E36.62864
G1 X73.667 Y45.088 E36.66082
G1 X74.324 Y45.023 E36.69376
G1 X74.953 Y45.01 E36.72514
G1 X91.79 Y45.009 E37.56515
G1 X92.571 Y45.02 E37.60411
G1 X93.214 Y45.069 E37.63629
G1 X93.846 Y45.197 E37.66846
G1 X94.457 Y45.402 E37.70061
G1 X95.286 Y45.829 E37.74713
G1 X97.588 Y47.291 E37.88318
G1 X99.921 Y48.68 E38.01865
G1 X102.196 Y49.952 E38.14868
G1 X104.635 Y51.224 E38.28592
G1 X107.013 Y52.38 E38.41783
G1 X109.47 Y53.489 E38.55232
G1 X111.933 Y54.519 E38.68551
G1 X114.439 Y55.487 E38.81954
G1 X116.978 Y56.381 E38.95383
G1 X119.516 Y57.196 E39.08682
G1 X122.091 Y57.945 E39.22062
G1 X124.7 Y58.624 E39.35512
G1 X127.297 Y59.222 E39.48807
G1 X129.948 Y59.755 E39.62298
G1 X132.579 Y60.204 E39.75613
G1 X135.224 Y60.581 E39.88943
G1 X136.158 Y60.701 E39.93641
G1 X136.791 Y60.823 E39.96857
G1 X137.404 Y61.022 E40.00072
G1 X137.988 Y61.295 E40.03289
G1 X138.533 Y61.639 E40.06504
G1 X139.172 Y62.182 E40.10688
G1 X139.317 Y62.327 E40.11711
G1 X139.744 Y62.81 E40.14927
G1 X140.107 Y63.343 E40.18144
G1 X140.402 Y63.916 E40.2136
G1 X140.624 Y64.521 E40.24575
G1 X140.769 Y65.149 E40.2779
G1 X140.837 Y65.822 E40.31165
G1 X140.85 Y66.42 E40.34149
G1 X140.85 Y143.367 E44.18039
G1 X140.84 Y144.07 E44.21547
G1 X140.791 Y144.713 E44.24764
G1 X140.663 Y145.345 E44.27981
G1 X140.458 Y145.956 E44.31196
G1 X140.178 Y146.537 E44.34414
G1 X139.829 Y147.078 E44.37626
G1 X139.305 Y147.686 E44.4163
G1 X139.159 Y147.831 E44.42657
G1 X138.675 Y148.256 E44.45871
G1 X138.141 Y148.617 E44.49086
G1 X137.567 Y148.91 E44.52302
G1 X136.975 Y149.126 E44.55446
G1 X136.281 Y149.331 E44.59056
G1 X134.963 Y149.699 E44.65883
G1 X132.403 Y150.493 E44.79255
G1 X129.857 Y151.362 E44.92676
G1 X127.337 Y152.302 E45.06095
G1 X124.846 Y153.314 E45.19509
G1 X122.428 Y154.377 E45.32687
G1 X119.963 Y155.543 E45.46291
G1 X117.618 Y156.735 E45.59415
G1 X115.24 Y158.031 E45.72927
G1 X112.929 Y159.375 E45.86264
G1 X110.612 Y160.813 E45.99869
G1 X108.423 Y162.258 E46.12955
G1 X106.218 Y163.806 E46.26396
G1 X104.054 Y165.417 E46.39855
G1 X101.949 Y167.08 E46.53239
G1 X99.909 Y168.787 E46.6651
G1 X97.882 Y170.583 E46.80021
G1 X96.211 Y172.15 E46.9145
G1 X95.998 Y172.344 E46.92887
G1 X95.496 Y172.748 E46.96102
G1 X94.947 Y173.087 E46.99321
G1 X94.361 Y173.354 E47.02534
G1 X93.746 Y173.548 E47.05751
G1 X93.112 Y173.664 E47.08967
G1 X92.444 Y173.705 E47.12306
G1 X92.007 Y173.71 E47.14486
G1 X75.136 Y173.71 E47.98656
G1 X74.431 Y173.7 E48.02173
G1 X73.788 Y173.651 E48.05391
G1 X73.157 Y173.523 E48.08603
G1 X72.546 Y173.318 E48.11818
G1 X71.965 Y173.038 E48.15036
G1 X71.423 Y172.689 E48.18252
G1 X70.828 Y172.178 E48.22165
G1 X70.683 Y172.033 E48.23188
G1 X70.256 Y171.55 E48.26404
G1 X69.893 Y171.017 E48.29622
G1 X69.598 Y170.444 E48.32837
G1 X69.376 Y169.839 E48.36052
G1 X69.231 Y169.211 E48.39268
G1 X69.163 Y168.52 E48.42732
G1 X69.15 Y167.862 E48.46015
G1 X69.15 Y50.974 E54.29172
G1 X69.16 Y50.288 E54.32594
G1 X69.209 Y49.645 E54.35812
G1 X69.337 Y49.014 E54.39024
G1 X69.543 Y48.403 E54.42241
G1 X69.823 Y47.822 E54.45458
G1 X70.172 Y47.28 E54.48675
M204 S3000
M205 X10 Y10
G1 F2400 E48.48675
G1 F600 Z0.375
;MESH:build_cubes-cube_11x1_x.stl
G0 F3000 X79.1 Y62.509 Z0.375
M204 S1800
M205 X8 Y8
;TYPE:WALL-INNER
G1 F600 Z0.3
G1 F2400 E54.48675
G1 F1500 X80.351 Y63.76 E54.57501
G1 X86.649 Y63.76 E54.88922
G1 X87.9 Y62.509 E54.97748
G1 X87.9 Y56.211 E55.29169
G1 X86.649 Y54.96 E55.37996
G1 X80.351 Y54.96 E55.69417
G1 X79.1 Y56.211 E55.78243
G1 X79.1 Y62.509 E56.09664
M204 S3000
M205 X10 Y10
G1 F2400 E50.09664
G1 F600 Z0.375
G0 F3000 X79.1 Y82.509 Z0.375
M204 S1800
M205 X8 Y8
G1 F600 Z0.3
G1 F2400 E56.09664
G1 F1500 X80.351 Y83.76 E56.1849
G1 X86.649 Y83.76 E56.49911
G1 X87.9 Y82.509 E56.58738
G1 X87.9 Y76.211 E56.90159
G1 X86.649 Y74.96 E56.98985
G1 X80.351 Y74.96 E57.30406
G1 X79.1 Y76.211 E57.39232
G1 X79.1 Y82.509 E57.70653
M204 S3000
M205 X10 Y10
G1 F2400 E51.70653
G1 F600 Z0.375
G0 F3000 X79.1 Y102.509 Z0.375
M204 S1800
M205 X8 Y8
G1 F600 Z0.3
G1 F2400 E57.70653
G1 F1500 X80.351 Y103.76 E57.7948
G1 X86.649 Y103.76 E58.10901
G1 X87.9 Y102.509 E58.19727
G1 X87.9 Y96.211 E58.51148
G1 X86.649 Y94.96 E58.59974
G1 X80.351 Y94.96 E58.91395
G1 X79.1 Y96.211 E59.00222
G1 X79.1 Y102.509 E59.31643
M204 S3000
M205 X10 Y10
G1 F2400 E53.31643
G1 F600 Z0.375
G0 F3000 X79.1 Y122.509 Z0.375
M204 S1800
M205 X8 Y8
G1 F600 Z0.3
G1 F2400 E59.31643
G1 F1500 X80.351 Y123.76 E59.40469
G1 X86.649 Y123.76 E59.7189
G1 X87.9 Y122.509 E59.80716
G1 X87.9 Y116.211 E60.12137
G1 X86.649 Y114.96 E60.20964
G1 X80.351 Y114.96 E60.52385
G1 X79.1 Y116.211 E60.61211
G1 X79.1 Y122.509 E60.92632
M204 S3000
M205 X10 Y10
G1 F2400 E54.92632
G1 F600 Z0.375
G0 F3000 X79.1 Y142.509 Z0.375
M204 S1800
M205 X8 Y8
G1 F600 Z0.3
G1 F2400 E60.92632
G1 F1500 X80.351 Y143.76 E61.01458
G1 X86.649 Y143.76 E61.32879
G1 X87.9 Y142.509 E61.41706
G1 X87.9 Y136.211 E61.73126
G1 X86.649 Y134.96 E61.81953
G1 X80.351 Y134.96 E62.13374
G1 X79.1 Y136.211 E62.222
G1 X79.1 Y142.509 E62.53621
M204 S3000
M205 X10 Y10
G1 F2400 E56.53621
G1 F600 Z0.375
G0 F3000 X79.1 Y162.509 Z0.375
M204 S1800
M205 X8 Y8
G1 F600 Z0.3
G1 F2400 E62.53621
G1 F1500 X80.351 Y163.76 E62.62448
G1 X86.649 Y163.76 E62.93868
G1 X87.9 Y162.509 E63.02695
G1 X87.9 Y156.211 E63.34116
G1 X86.649 Y154.96 E63.42942
G1 X80.351 Y154.96 E63.74363
G1 X79.1 Y156.211 E63.8319
G1 X79.1 Y162.509 E64.1461
M204 S3000
M205 X10 Y10
G1 F2400 E58.1461
G1 F600 Z0.375
G0 F3000 X92.051 Y167.91 Z0.375
M204 S1800
M205 X8 Y8
G1 F600 Z0.3
G1 F2400 E64.1461
G1 F1500 X74.95 Y167.911 E64.99928
G1 X74.949 Y50.81 E70.84147
G1 X92.05 Y50.809 E71.69464
G1 X92.051 Y167.91 E77.53683
M204 S3000
M205 X10 Y10
G0 F3000 X92.417 Y168.31
M204 S1800
M205 X8 Y8
;TYPE:WALL-OUTER
G1 F1500 X74.583 Y168.311 E78.42658
G1 X74.55 Y168.277 E78.42894
G1 X74.549 Y50.443 E84.3077
G1 X74.583 Y50.41 E84.31007
G1 X92.417 Y50.409 E85.19981
G1 X92.45 Y50.443 E85.20217
G1 X92.451 Y168.277 E91.08093
G1 X92.417 Y168.31 E91.0833
M204 S3000
M205 X10 Y10
G0 F3000 X92.217 Y168.31
G1 F2400 E85.0833
G1 F600 Z0.375
G0 F3000 X79.5 Y162.343 Z0.375
M204 S1800
M205 X8 Y8
G1 F600 Z0.3
G1 F2400 E91.0833
G1 F1500 X80.517 Y163.36 E91.15505
G1 X86.483 Y163.36 E91.4527
G1 X87.5 Y162.343 E91.52445
G1 X87.5 Y156.377 E91.8221
G1 X86.483 Y155.36 E91.89385
G1 X80.517 Y155.36 E92.1915
G1 X79.5 Y156.377 E92.26325
G1 X79.5 Y162.343 E92.5609
M204 S3000
M205 X10 Y10
G0 F3000 X79.641 Y162.484
G1 F2400 E86.5609
G1 F600 Z0.375
G0 F3000 X79.5 Y142.343 Z0.375
M204 S1800
M205 X8 Y8
G1 F600 Z0.3
G1 F2400 E92.5609
G1 F1500 X80.517 Y143.36 E92.63265
G1 X86.483 Y143.36 E92.9303
G1 X87.5 Y142.343 E93.00205
G1 X87.5 Y136.377 E93.2997
G1 X86.483 Y135.36 E93.37145
G1 X80.517 Y135.36 E93.6691
G1 X79.5 Y136.377 E93.74085
G1 X79.5 Y142.343 E94.0385
M204 S3000
M205 X10 Y10
G0 F3000 X79.641 Y142.484
G1 F2400 E88.0385
G1 F600 Z0.375
G0 F3000 X79.5 Y122.343 Z0.375
M204 S1800
M205 X8 Y8
G1 F600 Z0.3
G1 F2400 E94.0385
G1 F1500 X80.517 Y123.36 E94.11025
G1 X86.483 Y123.36 E94.4079
G1 X87.5 Y122.343 E94.47965
G1 X87.5 Y116.377 E94.7773
G1 X86.483 Y115.36 E94.84905
G1 X80.517 Y115.36 E95.1467
G1 X79.5 Y116.377 E95.21845
G1 X79.5 Y122.343 E95.5161
M204 S3000
M205 X10 Y10
G0 F3000 X79.641 Y122.484
G1 F2400 E89.5161
G1 F600 Z0.375
G0 F3000 X79.5 Y102.343 Z0.375
M204 S1800
M205 X8 Y8
G1 F600 Z0.3
G1 F2400 E95.5161
G1 F1500 X80.517 Y103.36 E95.58785
G1 X86.483 Y103.36 E95.8855
G1 X87.5 Y102.343 E95.95725
G1 X87.5 Y96.377 E96.2549
G1 X86.483 Y95.36 E96.32665
G1 X80.517 Y95.36 E96.6243
G1 X79.5 Y96.377 E96.69605
G1 X79.5 Y102.343 E96.99369
M204 S3000
M205 X10 Y10
G0 F3000 X79.641 Y102.484
G1 F2400 E90.99369
G1 F600 Z0.375
G0 F3000 X79.5 Y82.343 Z0.375
M204 S1800
M205 X8 Y8
G1 F600 Z0.3
G1 F2400 E96.99369
G1 F1500 X80.517 Y83.36 E97.06545
G1 X86.483 Y83.36 E97.36309
G1 X87.5 Y82.343 E97.43485
G1 X87.5 Y76.377 E97.73249
G1 X86.483 Y75.36 E97.80425
G1 X80.517 Y75.36 E98.10189
G1 X79.5 Y76.377 E98.17365
G1 X79.5 Y82.343 E98.47129
M204 S3000
M205 X10 Y10
G0 F3000 X79.641 Y82.484
G1 F2400 E92.47129
G1 F600 Z0.375
G0 F3000 X79.5 Y62.343 Z0.375
M204 S1800
M205 X8 Y8
G1 F600 Z0.3
G1 F2400 E98.47129
G1 F1500 X80.517 Y63.36 E98.54305
G1 X86.483 Y63.36 E98.84069
G1 X87.5 Y62.343 E98.91245
G1 X87.5 Y56.377 E99.21009
G1 X86.483 Y55.36 E99.28185
G1 X80.517 Y55.36 E99.57949
G1 X79.5 Y56.377 E99.65125
