;FLAVOR:Marlin
;TIME:3034
;Filament used: 3.15207m
;Layer height: 0.3
;MINX:72.608
;MINY:67.899
;MINZ:0.3
;MAXX:127.5
;MAXY:127.51
;MAXZ:23.175
;Generated with Cura_SteamEngine 4.12.1
M82 ;absolute extrusion mode
G21 ;metric values
G90 ;absolute positioning
M82 ;set extruder to absolute mode
M107 ;start with the fan off

M104 S200 T0 ; start heating T0 to what is set in Cura
M140 S60 ; start heating the bed to what is set in Cura
M190 S60 ; start heating the bed to what is set in Cura
M109 S200 T0 ; start heating T0 to what is set in Cura

G28 X0 Y0 ;move X/Y to min endstops
G28 Z0 ;move Z to min endstops
G1 Z15.0 F2400 ;move the platform down 15mm
G92 E0 ;zero the extruded length
G1 F200 E3 ;extrude 3mm of feed stock
G92 E0 ;zero the extruded length again
G1 F2400
G0 Y20 F2400
M117 Printing...
G5
G92 E0
G92 E0
G1 F2400 E-6
;LAYER_COUNT:77
;LAYER:0
M107
M204 S3000
M205 X10 Y10
G1 F600 Z0.375
G0 F3000 X84.125 Y73.714 Z0.375
M204 S1800
M205 X8 Y8
;TYPE:SKIRT
G1 F600 Z0.3
G1 F2400 E0
G1 X84.727 Y73.092 E0.04319
G1 X85.274 Y72.603 E0.07979
G1 X85.587 Y72.337 E0.10028
G1 X86.143 Y71.924 E0.13484
G1 X86.742 Y71.577 E0.16937
G1 X87.378 Y71.302 E0.20394
G1 X88.041 Y71.102 E0.23849
G1 X88.695 Y70.983 E0.27166
G1 X89.202 Y70.938 E0.29705
G1 X89.522 Y70.924 E0.31303
G1 X91.685 Y70.862 E0.42099
G1 X94.303 Y70.712 E0.55181
G1 X96.966 Y70.484 E0.68516
G1 X99.581 Y70.185 E0.81647
G1 X102.246 Y69.804 E0.95078
G1 X104.86 Y69.354 E1.08311
G1 X107.423 Y68.839 E1.21354
G1 X109.395 Y68.371 E1.31465
G1 X110.721 Y68.068 E1.38251
G1 X111.404 Y67.953 E1.41707
G1 X111.932 Y67.918 E1.44347
G1 X112.552 Y67.905 E1.47441
G1 X113.176 Y67.911 E1.50554
G1 X115.911 Y67.911 E1.64199
G1 X116.873 Y67.899 E1.68999
G1 X117.384 Y67.905 E1.71548
G1 X118.074 Y67.954 E1.74999
G1 X118.755 Y68.084 E1.78458
G1 X119.416 Y68.29 E1.81912
G1 X120.049 Y68.572 E1.8537
G1 X120.645 Y68.924 E1.88823
G1 X121.196 Y69.343 E1.92276
G1 X121.768 Y69.901 E1.96263
G1 X122.231 Y70.418 E1.99725
G1 X122.525 Y70.766 E2.01998
G1 X122.936 Y71.324 E2.05456
G1 X123.279 Y71.925 E2.08908
G1 X123.551 Y72.562 E2.12364
G1 X123.8 Y73.471 E2.17066
G1 X123.877 Y73.873 E2.19108
G1 X124.424 Y76.577 E2.32872
G1 X125.01 Y79.104 E2.45813
G1 X125.695 Y81.715 E2.5928
G1 X126.845 Y85.549 E2.7925
G1 X127.199 Y86.645 E2.84996
G1 X127.374 Y87.316 E2.88456
G1 X127.487 Y88.308 E2.93437
G1 X127.5 Y88.82 E2.95992
G1 X127.5 Y98.536 E3.44466
G1 X127.495 Y99.692 E3.50233
G1 X127.5 Y100.349 E3.53511
G1 X127.5 Y110.03 E4.0181
G1 X127.496 Y111.248 E4.07886
G1 X127.5 Y111.721 E4.10246
G1 X127.499 Y120.857 E4.55826
G1 X127.489 Y121.584 E4.59453
G1 X127.44 Y122.274 E4.62904
G1 X127.311 Y122.955 E4.66362
G1 X127.105 Y123.616 E4.69816
G1 X126.824 Y124.249 E4.73272
G1 X126.472 Y124.845 E4.76725
G1 X126.053 Y125.397 E4.80182
G1 X125.574 Y125.897 E4.83637
G1 X125.04 Y126.338 E4.87092
G1 X124.459 Y126.715 E4.90547
G1 X123.839 Y127.022 E4.93999
G1 X123.187 Y127.256 E4.97455
G1 X122.512 Y127.413 E5.00913
G1 X121.659 Y127.499 E5.0519
G1 X121.17 Y127.51 E5.0763
G1 X112.115 Y127.509 E5.52806
G1 X111.397 Y127.498 E5.56388
G1 X110.981 Y127.477 E5.58466
G1 X108.263 Y127.246 E5.72075
G1 X105.594 Y127.096 E5.85412
G1 X101.532 Y127.01 E6.05682
G1 X100.622 Y127.009 E6.10222
G1 X99.919 Y126.999 E6.1373
G1 X99.228 Y126.95 E6.17186
G1 X98.548 Y126.821 E6.20639
G1 X97.887 Y126.614 E6.24094
G1 X97.254 Y126.333 E6.2755
G1 X96.658 Y125.98 E6.31005
G1 X96.106 Y125.561 E6.34463
G1 X95.674 Y125.153 E6.37427
G1 X95.213 Y124.672 E6.40751
G1 X94.24 Y123.627 E6.47875
G1 X92.387 Y121.746 E6.61048
G1 X90.44 Y119.878 E6.74509
G1 X88.498 Y118.116 E6.87592
G1 X86.465 Y116.376 E7.00942
G1 X85.168 Y115.33 E7.09255
G1 X84.676 Y114.921 E7.12447
G1 X82.173 Y112.657 E7.29285
G1 X80.125 Y110.907 E7.42724
G1 X78.08 Y109.257 E7.55834
G1 X75.883 Y107.585 E7.69608
G1 X75.373 Y107.164 E7.72907
G1 X74.972 Y106.756 E7.75761
G1 X74.483 Y106.208 E7.79425
G1 X74.196 Y105.868 E7.81645
G1 X73.785 Y105.31 E7.85103
G1 X73.442 Y104.709 E7.88555
G1 X73.17 Y104.072 E7.92011
G1 X72.973 Y103.408 E7.95466
G1 X72.854 Y102.726 E7.9892
G1 X72.815 Y102.127 E8.01915
G1 X72.807 Y101.612 E8.04484
G1 X72.727 Y98.833 E8.18355
G1 X72.618 Y96.781 E8.28607
G1 X72.608 Y96.245 E8.31281
G1 X72.619 Y95.683 E8.34086
G1 X72.65 Y94.974 E8.37626
G1 X72.728 Y93.606 E8.44462
G1 X72.808 Y90.771 E8.58612
G1 X72.814 Y90.36 E8.60662
G1 X72.863 Y89.669 E8.64118
G1 X72.992 Y88.988 E8.67576
G1 X73.199 Y88.327 E8.71032
G1 X73.48 Y87.694 E8.74487
G1 X73.832 Y87.098 E8.77941
G1 X74.205 Y86.602 E8.81037
G1 X74.626 Y86.101 E8.84302
G1 X75.305 Y85.331 E8.89423
G1 X77.096 Y83.241 E9.03155
G1 X78.774 Y81.168 E9.16461
G1 X80.367 Y79.083 E9.29552
G1 X81.936 Y76.902 E9.42956
G1 X83.55 Y74.517 E9.57323
G1 X83.712 Y74.27 E9.58797
G1 X84.125 Y73.714 E9.62252
M204 S3000
M205 X10 Y10
G0 F3000 X84.446 Y73.953
M204 S1800
M205 X8 Y8
G1 F2400 X84.994 Y73.39 E9.66172
G1 X85.541 Y72.901 E9.69833
G1 X85.844 Y72.643 E9.71818
G1 X86.381 Y72.245 E9.75153
G1 X86.963 Y71.914 E9.78493
G1 X87.579 Y71.655 E9.81827
G1 X88.223 Y71.471 E9.85169
G1 X88.744 Y71.38 E9.87807
G1 X89.436 Y71.328 E9.91269
G1 X91.684 Y71.262 E10.02489
G1 X94.359 Y71.109 E10.15857
G1 X96.978 Y70.885 E10.28971
G1 X99.647 Y70.58 E10.42373
G1 X102.3 Y70.201 E10.55743
G1 X104.936 Y69.747 E10.69088
G1 X107.538 Y69.223 E10.8233
G1 X109.485 Y68.761 E10.92314
G1 X110.811 Y68.458 E10.99099
G1 X111.47 Y68.348 E11.02433
G1 X111.941 Y68.318 E11.04787
G1 X112.561 Y68.305 E11.07881
G1 X113.171 Y68.311 E11.10925
G1 X115.916 Y68.311 E11.24619
G1 X116.878 Y68.299 E11.29419
G1 X117.378 Y68.305 E11.31914
G1 X118.045 Y68.354 E11.35251
G1 X118.702 Y68.483 E11.38591
G1 X119.338 Y68.689 E11.41926
G1 X119.946 Y68.969 E11.45266
G1 X120.515 Y69.32 E11.48601
G1 X121.039 Y69.737 E11.51942
G1 X121.47 Y70.168 E11.54983
G1 X121.933 Y70.685 E11.58446
G1 X122.217 Y71.022 E11.60644
G1 X122.613 Y71.561 E11.63981
G1 X122.941 Y72.144 E11.67319
G1 X123.198 Y72.762 E11.70658
G1 X123.408 Y73.546 E11.74707
G1 X123.495 Y73.999 E11.77008
G1 X124.036 Y76.675 E11.90629
G1 X124.621 Y79.199 E12.03555
G1 X125.307 Y81.815 E12.17048
G1 X126.456 Y85.646 E12.37002
G1 X126.819 Y86.768 E12.42885
G1 X126.986 Y87.416 E12.46224
G1 X127.087 Y88.32 E12.50762
G1 X127.1 Y88.82 E12.53257
G1 X127.1 Y98.534 E13.0172
G1 X127.095 Y99.69 E13.07488
G1 X127.1 Y100.351 E13.10786
G1 X127.1 Y110.028 E13.59064
G1 X127.096 Y111.246 E13.65141
G1 X127.1 Y111.724 E13.67526
G1 X127.099 Y120.851 E14.13061
G1 X127.089 Y121.578 E14.16688
G1 X127.04 Y122.245 E14.20025
G1 X126.912 Y122.902 E14.23364
G1 X126.706 Y123.538 E14.26699
G1 X126.426 Y124.146 E14.30039
G1 X126.075 Y124.716 E14.33379
G1 X125.659 Y125.24 E14.36717
G1 X125.184 Y125.71 E14.4005
G1 X124.655 Y126.121 E14.43392
G1 X124.082 Y126.465 E14.46727
G1 X123.471 Y126.739 E14.50068
G1 X122.833 Y126.938 E14.53402
G1 X122.175 Y127.059 E14.5674
G1 X121.647 Y127.099 E14.59381
G1 X121.17 Y127.11 E14.61762
G1 X112.121 Y127.109 E15.06907
G1 X111.403 Y127.098 E15.1049
G1 X111.015 Y127.079 E15.12428
G1 X108.25 Y126.844 E15.26272
G1 X105.624 Y126.696 E15.39394
G1 X101.541 Y126.61 E15.59769
G1 X100.627 Y126.609 E15.64329
G1 X99.924 Y126.599 E15.67837
G1 X99.257 Y126.55 E15.71173
G1 X98.601 Y126.421 E15.74509
G1 X97.964 Y126.215 E15.77849
G1 X97.357 Y125.935 E15.81184
G1 X96.787 Y125.584 E15.84523
G1 X96.263 Y125.167 E15.87864
G1 X95.963 Y124.877 E15.89946
G1 X95.506 Y124.399 E15.93245
G1 X94.535 Y123.356 E16.00355
G1 X92.666 Y121.459 E16.13641
G1 X90.722 Y119.594 E16.27081
G1 X88.762 Y117.815 E16.40287
G1 X86.713 Y116.062 E16.5374
G1 X85.424 Y115.022 E16.62003
G1 X84.932 Y114.613 E16.65195
G1 X82.438 Y112.357 E16.81973
G1 X80.391 Y110.607 E16.95409
G1 X78.328 Y108.943 E17.08632
G1 X76.125 Y107.266 E17.22445
G1 X75.628 Y106.855 E17.25662
G1 X75.271 Y106.489 E17.28213
G1 X74.782 Y105.941 E17.31877
G1 X74.504 Y105.612 E17.34026
G1 X74.108 Y105.073 E17.37363
G1 X73.78 Y104.49 E17.407
G1 X73.523 Y103.872 E17.4404
G1 X73.342 Y103.228 E17.47377
G1 X73.239 Y102.567 E17.50715
G1 X73.215 Y102.121 E17.52943
G1 X73.207 Y101.6 E17.55542
G1 X73.128 Y98.839 E17.69323
G1 X73.023 Y96.898 E17.79021
G1 X73.008 Y96.251 E17.82249
G1 X73.018 Y95.7 E17.84999
G1 X73.049 Y94.997 E17.8851
G1 X73.128 Y93.606 E17.9546
G1 X73.208 Y90.782 E18.09555
G1 X73.214 Y90.365 E18.11636
G1 X73.263 Y89.698 E18.14972
G1 X73.392 Y89.041 E18.18313
G1 X73.597 Y88.405 E18.21646
G1 X73.878 Y87.797 E18.24988
G1 X74.229 Y87.228 E18.28324
G1 X74.823 Y86.485 E18.33069
G1 X74.925 Y86.365 E18.33855
G1 X75.662 Y85.53 E18.39412
G1 X77.395 Y83.508 E18.52697
G1 X79.087 Y81.417 E18.66117
G1 X80.702 Y79.303 E18.79389
G1 X82.248 Y77.154 E18.92597
G1 X83.881 Y74.741 E19.07133
G1 X84.046 Y74.49 E19.08632
G1 X84.446 Y73.953 E19.11972
M204 S3000
M205 X10 Y10
G0 F3000 X84.767 Y74.194
M204 S1800
M205 X8 Y8
G1 F2400 X85.26 Y73.688 E19.15497
G1 X85.807 Y73.199 E19.19157
G1 X86.101 Y72.95 E19.2108
G1 X86.62 Y72.568 E19.24295
G1 X87.182 Y72.252 E19.27511
G1 X87.779 Y72.009 E19.30727
G1 X88.401 Y71.842 E19.3394
G1 X89.239 Y71.738 E19.38153
G1 X89.545 Y71.724 E19.39681
G1 X91.683 Y71.662 E19.50352
G1 X94.38 Y71.509 E19.63829
G1 X97.056 Y71.279 E19.77229
G1 X99.682 Y70.979 E19.90415
G1 X102.347 Y70.598 E20.03846
G1 X105.017 Y70.138 E20.17363
G1 X107.619 Y69.615 E20.30604
G1 X109.574 Y69.151 E20.40629
G1 X110.9 Y68.848 E20.47415
G1 X111.536 Y68.743 E20.50631
G1 X111.949 Y68.718 E20.52695
G1 X112.569 Y68.705 E20.55789
G1 X113.165 Y68.711 E20.58762
G1 X115.921 Y68.711 E20.72512
G1 X116.883 Y68.699 E20.77312
G1 X117.372 Y68.705 E20.79752
G1 X118.015 Y68.754 E20.82969
G1 X118.647 Y68.882 E20.86186
G1 X119.258 Y69.087 E20.89401
G1 X119.839 Y69.367 E20.92619
G1 X120.381 Y69.716 E20.95835
G1 X120.875 Y70.13 E20.99051
G1 X121.172 Y70.435 E21.01175
G1 X121.635 Y70.952 E21.04637
G1 X121.909 Y71.277 E21.06758
G1 X122.289 Y71.798 E21.09975
G1 X122.602 Y72.361 E21.13189
G1 X122.842 Y72.96 E21.16408
G1 X123.015 Y73.621 E21.19817
G1 X123.093 Y74.032 E21.21904
G1 X123.639 Y76.731 E21.35642
G1 X124.239 Y79.318 E21.48891
G1 X124.922 Y81.921 E21.62318
G1 X126.081 Y85.786 E21.82448
G1 X126.438 Y86.891 E21.88242
G1 X126.598 Y87.516 E21.91461
G1 X126.688 Y88.332 E21.95556
G1 X126.7 Y88.82 E21.97992
G1 X126.7 Y98.532 E22.46445
G1 X126.695 Y99.688 E22.52212
G1 X126.7 Y100.354 E22.55535
G1 X126.7 Y110.027 E23.03794
G1 X126.696 Y111.245 E23.09871
G1 X126.7 Y111.727 E23.12275
G1 X126.7 Y120.846 E23.5777
G1 X126.69 Y121.573 E23.61398
G1 X126.641 Y122.215 E23.6461
G1 X126.513 Y122.847 E23.67827
G1 X126.308 Y123.458 E23.71042
G1 X126.028 Y124.039 E23.7426
G1 X125.679 Y124.581 E23.77476
G1 X125.266 Y125.076 E23.80692
G1 X124.795 Y125.516 E23.83908
G1 X124.272 Y125.894 E23.87127
G1 X123.707 Y126.204 E23.90343
G1 X123.108 Y126.443 E23.9356
G1 X122.485 Y126.605 E23.96772
G1 X121.636 Y126.699 E24.01033
G1 X121.17 Y126.71 E24.03359
G1 X112.127 Y126.709 E24.48474
G1 X111.409 Y126.698 E24.52057
G1 X111.049 Y126.68 E24.53855
G1 X108.306 Y126.447 E24.67589
G1 X105.628 Y126.296 E24.80971
G1 X101.549 Y126.21 E25.01326
G1 X100.633 Y126.209 E25.05896
G1 X99.93 Y126.199 E25.09404
G1 X99.287 Y126.15 E25.12621
G1 X98.655 Y126.022 E25.15838
G1 X98.044 Y125.817 E25.19053
G1 X97.463 Y125.537 E25.22271
G1 X96.922 Y125.188 E25.25483
G1 X96.251 Y124.6 E25.29934
G1 X95.798 Y124.127 E25.33201
G1 X94.795 Y123.05 E25.40544
G1 X92.945 Y121.172 E25.53696
G1 X91.004 Y119.31 E25.67115
G1 X89.025 Y117.514 E25.80448
G1 X86.979 Y115.763 E25.93883
G1 X85.68 Y114.715 E26.0221
G1 X85.188 Y114.306 E26.05402
G1 X82.701 Y112.054 E26.2214
G1 X80.677 Y110.325 E26.35421
G1 X78.559 Y108.616 E26.48999
G1 X76.379 Y106.958 E26.62663
G1 X75.884 Y106.546 E26.65876
G1 X75.569 Y106.223 E26.68127
G1 X75.08 Y105.675 E26.71791
G1 X74.812 Y105.357 E26.73866
G1 X74.432 Y104.836 E26.77083
G1 X74.119 Y104.273 E26.80297
G1 X73.879 Y103.674 E26.83516
G1 X73.714 Y103.051 E26.86731
G1 X73.615 Y102.115 E26.91427
G1 X73.607 Y101.589 E26.94052
G1 X73.527 Y98.807 E27.07937
G1 X73.417 Y96.756 E27.18184
G1 X73.414 Y95.862 E27.22644
G1 X73.418 Y95.717 E27.23368
G1 X73.448 Y95.019 E27.26854
G1 X73.528 Y93.603 E27.33929
G1 X73.608 Y90.794 E27.47949
G1 X73.614 Y90.371 E27.5006
G1 X73.663 Y89.728 E27.53277
G1 X73.791 Y89.096 E27.56494
G1 X73.996 Y88.485 E27.59709
G1 X74.275 Y87.904 E27.62925
G1 X74.819 Y87.114 E27.6771
G1 X75.225 Y86.63 E27.70862
G1 X75.962 Y85.795 E27.76418
G1 X77.708 Y83.757 E27.89807
G1 X79.387 Y81.683 E28.0312
G1 X81.021 Y79.544 E28.16549
G1 X82.588 Y77.366 E28.29935
G1 X84.173 Y75.024 E28.44044
G1 X84.38 Y74.709 E28.45924
G1 X84.767 Y74.194 E28.49138
M204 S3000
M205 X10 Y10
G1 F2400 E22.49138
G1 F600 Z0.375
;MESH:clip.stl(5)
G0 F3000 X91.109 Y78.124 Z0.375
M204 S1800
M205 X8 Y8
;TYPE:WALL-INNER
G1 F600 Z0.3
G1 F2400 E28.49138
G1 F1500 X89.688 Y78.124 E28.56228
G1 X89.353 Y77.789 E28.58591
G1 X89.662 Y77.524 E28.60622
G1 X90.992 Y77.524 E28.67257
G1 X91.591 Y78.124 E28.71487
G1 X91.109 Y78.124 E28.7235
M204 S3000
M205 X10 Y10
G1 F2400 E22.7235
G1 F600 Z0.375
G0 F3000 X95.896 Y81.962 Z0.375
M204 S1800
M205 X8 Y8
G1 F600 Z0.3
G1 F2400 E28.7235
G1 F1500 X97.713 Y82.124 E28.81451
G1 X95.84 Y82.124 E28.83449
G1 X95.24 Y82.924 E28.88438
G1 X94.64 Y82.124 E28.93427
G1 X92.767 Y82.124 E29.02772
G1 X91.591 Y82.124
G1 X90.992 Y82.724 E29.07001
G1 X89.662 Y82.724 E29.13637
G1 X89.353 Y82.459 E29.15668
G1 X89.688 Y82.124 E29.18031
G1 X91.109 Y82.124 E29.25121
G1 X91.591 Y82.124 E29.27525
G1 X92.767 Y82.124
G1 X94.584 Y81.962 E29.36626
G1 X94.846 Y80.124 E29.45889
G1 X94.584 Y78.286 E29.55151
G1 X92.767 Y78.124 E29.64252
G1 X94.64 Y78.124 E29.66354
G1 X95.24 Y77.324 E29.71343
G1 X95.84 Y78.124 E29.76332
G1 X97.713 Y78.124 E29.85676
G1 X95.896 Y78.286 E29.87533
G1 X95.634 Y80.124 E29.96796
G1 X95.896 Y81.962 E30.06058
M204 S3000
M205 X10 Y10
G1 F2400 E24.06058
G1 F600 Z0.375
G0 F3000 X100.818 Y82.724 Z0.375
M204 S1800
M205 X8 Y8
G1 F600 Z0.3
G1 F2400 E30.06058
G1 F1500 X99.488 Y82.724 E30.12694
G1 X98.889 Y82.124 E30.16923
G1 X99.371 Y82.124 E30.17787
G1 X100.792 Y82.124 E30.24876
G1 X101.127 Y82.459 E30.2724
G1 X100.818 Y82.724 E30.2927
M204 S3000
M205 X10 Y10
G1 F2400 E24.2927
G1 F600 Z0.375
G0 F3000 X99.371 Y78.124 Z0.375
M204 S1800
M205 X8 Y8
G1 F600 Z0.3
G1 F2400 E30.2927
G1 F1500 X98.889 Y78.124 E30.31675
G1 X99.488 Y77.524 E30.34362
G1 X100.818 Y77.524 E30.40997
G1 X101.127 Y77.789 E30.43028
G1 X100.792 Y78.124 E30.45392
G1 X99.371 Y78.124 E30.52481
M204 S3000
M205 X10 Y10
G1 F2400 E24.52481
G1 F600 Z0.375
G0 F3000 X96.247 Y81.592 Z0.375
M204 S1800
M205 X8 Y8
;TYPE:WALL-OUTER
G1 F600 Z0.3
G1 F2400 E30.52481
G1 F1500 X97.731 Y81.724 E30.59914
G1 X100.958 Y81.724 E30.76014
G1 X101.54 Y82.306 E30.8012
G1 X101.54 Y82.632 E30.81746
G1 X100.966 Y83.124 E30.85518
G1 X99.322 Y83.124 E30.9372
G1 X98.723 Y82.524 E30.9795
G1 X96.04 Y82.524 E31.11335
G1 X95.44 Y83.324 E31.16324
G1 X95.04 Y83.324 E31.1832
G1 X94.44 Y82.524 E31.23309
G1 X91.757 Y82.524 E31.36695
G1 X91.158 Y83.124 E31.40924
G1 X89.514 Y83.124 E31.49126
G1 X88.94 Y82.632 E31.52898
G1 X88.94 Y82.306 E31.54524
G1 X89.522 Y81.724 E31.58631
G1 X92.749 Y81.724 E31.7473
G1 X94.233 Y81.592 E31.82163
G1 X94.442 Y80.124 E31.89561
G1 X94.233 Y78.656 E31.96959
G1 X92.749 Y78.524 E32.04392
G1 X89.522 Y78.524 E32.20491
G1 X88.94 Y77.942 E32.24598
G1 X88.94 Y77.616 E32.26224
G1 X89.514 Y77.124 E32.29996
G1 X91.158 Y77.124 E32.38198
G1 X91.757 Y77.724 E32.42427
G1 X94.44 Y77.724 E32.55813
G1 X95.04 Y76.924 E32.60802
G1 X95.44 Y76.924 E32.62798
G1 X96.04 Y77.724 E32.67787
G1 X98.723 Y77.724 E32.81172
G1 X99.322 Y77.124 E32.85402
G1 X100.966 Y77.124 E32.93604
G1 X101.54 Y77.616 E32.97376
G1 X101.54 Y77.942 E32.99002
G1 X100.958 Y78.524 E33.03108
G1 X97.731 Y78.524 E33.19208
G1 X96.247 Y78.656 E33.26641
G1 X96.038 Y80.124 E33.34039
G1 X96.247 Y81.592 E33.41436
M204 S3000
M205 X10 Y10
G0 F3000 X96.446 Y81.609
G0 X95.498 Y81.931
M204 S1800
M205 X8 Y8
;TYPE:SKIN
G1 F1500 X95.24 Y82.274 E33.43578
G1 X94.982 Y81.931 E33.45719
G1 X95.24 Y80.124 E33.54826
G1 X94.982 Y78.317 E33.63932
G1 X95.24 Y77.974 E33.66073
G1 X95.498 Y78.317 E33.68215
G1 X95.24 Y80.124 E33.77321
G1 X95.498 Y81.931 E33.86428
M204 S3000
