;FLAVOR:Marlin
;TIME:2680
;Filament used: 2.76456m
;Layer height: 0.3
;MINX:80.787
;MINY:67.899
;MINZ:0.3
;MAXX:127.5
;MAXY:127.51
;MAXZ:18.075
;Generated with Cura_SteamEngine 4.12.1
M82 ;absolute extrusion mode
G21 ;metric values
G90 ;absolute positioning
M82 ;set extruder to absolute mode
M107 ;start with the fan off

M104 S200 T0 ; start heating T0 to what is set in Cura
M140 S60 ; start heating the bed to what is set in Cura
M190 S60 ; start heating the bed to what is set in Cura
M109 S200 T0 ; start heating T0 to what is set in Cura

G28 X0 Y0 ;move X/Y to min endstops
G28 Z0 ;move Z to min endstops
G1 Z15.0 F2400 ;move the platform down 15mm
G92 E0 ;zero the extruded length
G1 F200 E3 ;extrude 3mm of feed stock
G92 E0 ;zero the extruded length again
G1 F2400
G0 Y20 F2400
M117 Printing...
G5
G92 E0
G92 E0
G1 F2400 E-6
;LAYER_COUNT:60
;LAYER:0
M107
M204 S3000
M205 X10 Y10
G1 F600 Z0.375
G0 F3000 X83.079 Y81.827 Z0.375
M204 S1800
M205 X8 Y8
;TYPE:SKIRT
G1 F600 Z0.3
G1 F2400 E0
G1 X83.566 Y81.334 E0.03457
G1 X84.106 Y80.901 E0.0691
G1 X84.692 Y80.532 E0.10365
G1 X85.44 Y80.185 E0.14479
G1 X86.017 Y79.964 E0.17562
G1 X88.541 Y78.953 E0.31127
G1 X90.964 Y77.901 E0.44305
G1 X93.411 Y76.757 E0.57782
G1 X95.744 Y75.585 E0.70807
G1 X98.126 Y74.301 E0.84308
G1 X100.498 Y72.934 E0.97966
G1 X100.871 Y72.712 E1.00132
G1 X101.468 Y72.401 E1.0349
G1 X102.552 Y71.911 E1.09425
G1 X103.151 Y71.651 E1.12683
G1 X105.538 Y70.533 E1.25833
G1 X107.935 Y69.326 E1.39222
G1 X108.338 Y69.109 E1.41506
G1 X109.325 Y68.595 E1.47058
G1 X109.956 Y68.311 E1.5051
G1 X110.617 Y68.102 E1.53969
G1 X111.296 Y67.971 E1.57419
G1 X111.962 Y67.918 E1.60752
G1 X112.544 Y67.905 E1.63656
G1 X113.176 Y67.911 E1.66809
G1 X115.911 Y67.911 E1.80454
G1 X116.873 Y67.899 E1.85254
G1 X117.384 Y67.905 E1.87804
G1 X118.074 Y67.954 E1.91255
G1 X118.755 Y68.084 E1.94714
G1 X119.416 Y68.29 E1.98168
G1 X120.049 Y68.572 E2.01625
G1 X120.645 Y68.924 E2.05078
G1 X121.196 Y69.343 E2.08532
G1 X121.768 Y69.901 E2.12519
G1 X122.231 Y70.418 E2.15981
G1 X122.525 Y70.766 E2.18254
G1 X122.936 Y71.324 E2.21711
G1 X123.279 Y71.925 E2.25164
G1 X123.551 Y72.562 E2.28619
G1 X123.8 Y73.471 E2.33321
G1 X123.877 Y73.873 E2.35363
G1 X124.424 Y76.577 E2.49127
G1 X125.01 Y79.104 E2.62069
G1 X125.695 Y81.715 E2.75536
G1 X126.843 Y85.544 E2.95479
G1 X127.199 Y86.645 E3.01252
G1 X127.374 Y87.316 E3.04712
G1 X127.487 Y88.308 E3.09693
G1 X127.5 Y88.82 E3.12248
G1 X127.5 Y98.536 E3.60721
G1 X127.495 Y99.692 E3.66489
G1 X127.5 Y100.349 E3.69767
G1 X127.5 Y110.03 E4.18065
G1 X127.496 Y111.18 E4.23803
G1 X127.5 Y111.678 E4.26287
G1 X127.499 Y120.857 E4.72081
G1 X127.489 Y121.584 E4.75709
G1 X127.44 Y122.274 E4.7916
G1 X127.311 Y122.955 E4.82618
G1 X127.105 Y123.616 E4.86072
G1 X126.824 Y124.249 E4.89527
G1 X126.472 Y124.845 E4.92981
G1 X126.053 Y125.397 E4.96438
G1 X125.574 Y125.897 E4.99893
G1 X125.04 Y126.338 E5.03348
G1 X124.459 Y126.715 E5.06803
G1 X123.839 Y127.022 E5.10255
G1 X123.187 Y127.256 E5.13711
G1 X122.512 Y127.413 E5.17168
G1 X121.659 Y127.499 E5.21445
G1 X121.17 Y127.51 E5.23886
G1 X112.115 Y127.509 E5.69061
G1 X111.397 Y127.498 E5.72644
G1 X110.981 Y127.477 E5.74722
G1 X108.263 Y127.246 E5.88331
G1 X105.594 Y127.096 E6.01668
G1 X101.532 Y127.01 E6.21938
G1 X100.622 Y127.009 E6.26478
G1 X99.919 Y126.999 E6.29985
G1 X99.228 Y126.95 E6.33441
G1 X98.548 Y126.821 E6.36894
G1 X97.887 Y126.614 E6.4035
G1 X97.254 Y126.333 E6.43805
G1 X96.658 Y125.98 E6.47261
G1 X96.106 Y125.561 E6.50718
G1 X95.674 Y125.153 E6.53683
G1 X95.213 Y124.672 E6.57007
G1 X94.24 Y123.627 E6.64131
G1 X92.387 Y121.746 E6.77304
G1 X90.44 Y119.878 E6.90765
G1 X88.498 Y118.116 E7.03847
G1 X86.465 Y116.376 E7.17198
G1 X85.171 Y115.332 E7.25492
G1 X84.676 Y114.921 E7.28702
G1 X84.17 Y114.449 E7.32155
G1 X83.721 Y113.921 E7.35612
G1 X83.336 Y113.345 E7.39069
G1 X83.02 Y112.729 E7.42523
G1 X82.778 Y112.081 E7.45974
G1 X82.611 Y111.408 E7.49433
G1 X82.53 Y110.81 E7.52444
G1 X82.493 Y110.359 E7.54702
G1 X82.351 Y108.395 E7.64526
G1 X82.079 Y105.704 E7.7802
G1 X81.743 Y103.108 E7.91079
G1 X81.32 Y100.438 E8.04566
G1 X81.087 Y99.139 E8.1115
G1 X80.994 Y98.171 E8.16002
G1 X80.986 Y97.651 E8.18596
G1 X80.906 Y94.872 E8.32466
G1 X80.797 Y92.82 E8.42718
G1 X80.787 Y92.284 E8.45393
G1 X80.798 Y91.722 E8.48197
G1 X80.829 Y91.013 E8.51738
G1 X80.907 Y89.645 E8.58574
G1 X80.987 Y86.81 E8.72724
G1 X80.993 Y86.399 E8.74774
G1 X81.042 Y85.708 E8.7823
G1 X81.171 Y85.027 E8.81688
G1 X81.378 Y84.366 E8.85144
G1 X81.659 Y83.733 E8.88599
G1 X82.011 Y83.137 E8.92052
G1 X82.384 Y82.641 E8.95149
G1 X82.796 Y82.149 E8.9835
G1 X83.079 Y81.827 E9.00489
M204 S3000
M205 X10 Y10
G0 F3000 X83.38 Y82.091
M204 S1800
M205 X8 Y8
G1 F2400 X83.851 Y81.616 E9.03826
G1 X84.375 Y81.2 E9.07164
G1 X84.945 Y80.85 E9.10501
G1 X85.583 Y80.559 E9.14
G1 X86.16 Y80.338 E9.17082
G1 X88.682 Y79.328 E9.30636
G1 X91.158 Y78.253 E9.44103
G1 X93.539 Y77.14 E9.57216
G1 X95.956 Y75.925 E9.70712
G1 X98.31 Y74.656 E9.84054
G1 X100.697 Y73.281 E9.97797
G1 X101.076 Y73.055 E9.99999
G1 X101.632 Y72.765 E10.03127
G1 X102.711 Y72.278 E10.09033
G1 X103.315 Y72.016 E10.12318
G1 X105.709 Y70.894 E10.25508
G1 X108.126 Y69.677 E10.39009
G1 X108.522 Y69.464 E10.41252
G1 X109.509 Y68.95 E10.46804
G1 X110.12 Y68.677 E10.50143
G1 X110.759 Y68.479 E10.5348
G1 X111.417 Y68.358 E10.56818
G1 X111.971 Y68.318 E10.59589
G1 X112.553 Y68.305 E10.62494
G1 X113.171 Y68.311 E10.65577
G1 X115.916 Y68.311 E10.79272
G1 X116.878 Y68.299 E10.84072
G1 X117.378 Y68.305 E10.86566
G1 X118.045 Y68.354 E10.89903
G1 X118.702 Y68.483 E10.93243
G1 X119.338 Y68.689 E10.96579
G1 X119.946 Y68.969 E10.99918
G1 X120.515 Y69.32 E11.03254
G1 X121.039 Y69.737 E11.06595
G1 X121.47 Y70.168 E11.09636
G1 X121.933 Y70.685 E11.13098
G1 X122.217 Y71.022 E11.15297
G1 X122.613 Y71.561 E11.18634
G1 X122.941 Y72.144 E11.21971
G1 X123.198 Y72.762 E11.2531
G1 X123.408 Y73.546 E11.29359
G1 X123.495 Y73.999 E11.31661
G1 X124.036 Y76.675 E11.45281
G1 X124.621 Y79.199 E11.58208
G1 X125.307 Y81.815 E11.717
G1 X126.456 Y85.646 E11.91654
G1 X126.819 Y86.768 E11.97537
G1 X126.986 Y87.416 E12.00876
G1 X127.087 Y88.32 E12.05414
G1 X127.1 Y88.82 E12.0791
G1 X127.1 Y98.534 E12.56373
G1 X127.095 Y99.69 E12.6214
G1 X127.1 Y100.351 E12.65438
G1 X127.1 Y110.028 E13.13717
G1 X127.096 Y111.183 E13.19479
G1 X127.1 Y111.681 E13.21964
G1 X127.099 Y120.851 E13.67713
G1 X127.089 Y121.578 E13.7134
G1 X127.04 Y122.245 E13.74677
G1 X126.912 Y122.902 E13.78016
G1 X126.706 Y123.538 E13.81352
G1 X126.426 Y124.146 E13.84691
G1 X126.075 Y124.716 E13.88031
G1 X125.659 Y125.24 E13.91369
G1 X125.184 Y125.71 E13.94703
G1 X124.655 Y126.121 E13.98045
G1 X124.082 Y126.465 E14.01379
G1 X123.471 Y126.739 E14.0472
G1 X122.833 Y126.938 E14.08054
G1 X122.175 Y127.059 E14.11392
G1 X121.647 Y127.099 E14.14034
G1 X121.17 Y127.11 E14.16414
G1 X112.121 Y127.109 E14.6156
G1 X111.403 Y127.098 E14.65142
G1 X111.015 Y127.079 E14.6708
G1 X108.25 Y126.844 E14.80925
G1 X105.624 Y126.696 E14.94047
G1 X101.541 Y126.61 E15.14421
G1 X100.627 Y126.609 E15.18981
G1 X99.924 Y126.599 E15.22489
G1 X99.257 Y126.55 E15.25826
G1 X98.601 Y126.421 E15.29161
G1 X97.964 Y126.215 E15.32501
G1 X97.357 Y125.935 E15.35836
G1 X96.787 Y125.584 E15.39176
G1 X96.263 Y125.167 E15.42517
G1 X95.963 Y124.877 E15.44599
G1 X95.506 Y124.399 E15.47898
G1 X94.535 Y123.356 E15.55007
G1 X92.666 Y121.459 E15.68293
G1 X90.722 Y119.594 E15.81733
G1 X88.762 Y117.815 E15.94939
G1 X86.713 Y116.062 E16.08392
G1 X85.427 Y115.024 E16.16637
G1 X84.932 Y114.613 E16.19847
G1 X84.443 Y114.156 E16.23186
G1 X84.013 Y113.644 E16.26522
G1 X83.647 Y113.084 E16.2986
G1 X83.35 Y112.484 E16.332
G1 X83.127 Y111.853 E16.36539
G1 X82.981 Y111.201 E16.39872
G1 X82.897 Y110.397 E16.43905
G1 X82.749 Y108.36 E16.54095
G1 X82.479 Y105.684 E16.67513
G1 X82.135 Y103.026 E16.80884
G1 X81.711 Y100.351 E16.94397
G1 X81.481 Y99.069 E17.00895
G1 X81.394 Y98.165 E17.05426
G1 X81.386 Y97.639 E17.0805
G1 X81.307 Y94.878 E17.2183
G1 X81.202 Y92.937 E17.31528
G1 X81.187 Y92.29 E17.34757
G1 X81.197 Y91.739 E17.37507
G1 X81.228 Y91.036 E17.41017
G1 X81.307 Y89.645 E17.47968
G1 X81.387 Y86.821 E17.62063
G1 X81.393 Y86.404 E17.64143
G1 X81.442 Y85.737 E17.6748
G1 X81.571 Y85.08 E17.7082
G1 X81.776 Y84.444 E17.74154
G1 X82.057 Y83.836 E17.77496
G1 X82.408 Y83.267 E17.80831
G1 X83.002 Y82.524 E17.85577
G1 X83.38 Y82.091 E17.88445
M204 S3000
M205 X10 Y10
G0 F3000 X83.68 Y82.355
M204 S1800
M205 X8 Y8
G1 F2400 X84.135 Y81.898 E17.91662
G1 X84.643 Y81.501 E17.94879
G1 X85.196 Y81.17 E17.98094
G1 X85.726 Y80.932 E18.00992
G1 X86.326 Y80.702 E18.04198
G1 X88.841 Y79.695 E18.17714
G1 X91.307 Y78.624 E18.31127
G1 X93.752 Y77.481 E18.44592
G1 X96.112 Y76.295 E18.5777
G1 X98.52 Y74.997 E18.71417
G1 X100.88 Y73.637 E18.85007
G1 X101.28 Y73.399 E18.87329
G1 X101.797 Y73.13 E18.90236
G1 X102.87 Y72.645 E18.96111
G1 X103.478 Y72.381 E18.99418
G1 X105.909 Y71.242 E19.12811
G1 X108.274 Y70.051 E19.26022
G1 X108.707 Y69.819 E19.28473
G1 X109.694 Y69.305 E19.34025
G1 X110.283 Y69.043 E19.37241
G1 X110.9 Y68.856 E19.40458
G1 X111.536 Y68.747 E19.43677
G1 X111.98 Y68.718 E19.45897
G1 X112.562 Y68.705 E19.48801
G1 X113.165 Y68.711 E19.5181
G1 X115.921 Y68.711 E19.65559
G1 X116.883 Y68.699 E19.70359
G1 X117.372 Y68.705 E19.72799
G1 X118.015 Y68.754 E19.76016
G1 X118.647 Y68.882 E19.79233
G1 X119.258 Y69.087 E19.82448
G1 X119.839 Y69.367 E19.85666
G1 X120.381 Y69.716 E19.88882
G1 X120.875 Y70.13 E19.92098
G1 X121.172 Y70.435 E19.94222
G1 X121.635 Y70.952 E19.97684
G1 X121.909 Y71.277 E19.99805
G1 X122.289 Y71.798 E20.03022
G1 X122.602 Y72.361 E20.06236
G1 X122.842 Y72.96 E20.09455
G1 X123.015 Y73.621 E20.12864
G1 X123.093 Y74.032 E20.14951
G1 X123.639 Y76.731 E20.28689
G1 X124.239 Y79.318 E20.41939
G1 X124.922 Y81.921 E20.55365
G1 X126.075 Y85.767 E20.75396
G1 X126.438 Y86.891 E20.81289
G1 X126.598 Y87.516 E20.84508
G1 X126.688 Y88.332 E20.88603
G1 X126.7 Y88.82 E20.91039
G1 X126.7 Y98.532 E21.39492
G1 X126.695 Y99.688 E21.45259
G1 X126.7 Y100.354 E21.48582
G1 X126.7 Y110.027 E21.96841
G1 X126.696 Y111.245 E22.02918
G1 X126.7 Y111.684 E22.05108
G1 X126.7 Y120.846 E22.50817
G1 X126.69 Y121.573 E22.54445
G1 X126.641 Y122.215 E22.57657
G1 X126.513 Y122.847 E22.60874
G1 X126.308 Y123.458 E22.64089
G1 X126.028 Y124.039 E22.67307
G1 X125.679 Y124.581 E22.70523
G1 X125.266 Y125.076 E22.73739
G1 X124.795 Y125.516 E22.76955
G1 X124.272 Y125.894 E22.80174
G1 X123.707 Y126.204 E22.8339
G1 X123.108 Y126.443 E22.86607
G1 X122.485 Y126.605 E22.89819
G1 X121.636 Y126.699 E22.9408
G1 X121.17 Y126.71 E22.96406
G1 X112.127 Y126.709 E23.41522
G1 X111.409 Y126.698 E23.45104
G1 X111.049 Y126.68 E23.46902
G1 X108.306 Y126.447 E23.60637
G1 X105.628 Y126.296 E23.74018
G1 X101.549 Y126.21 E23.94373
G1 X100.633 Y126.209 E23.98943
G1 X99.93 Y126.199 E24.02451
G1 X99.287 Y126.15 E24.05668
G1 X98.655 Y126.022 E24.08885
G1 X98.044 Y125.817 E24.121
G1 X97.463 Y125.537 E24.15318
G1 X96.922 Y125.188 E24.1853
G1 X96.251 Y124.6 E24.22981
G1 X95.798 Y124.127 E24.26248
G1 X94.795 Y123.05 E24.33591
G1 X92.945 Y121.172 E24.46743
G1 X91.004 Y119.31 E24.60162
G1 X89.025 Y117.514 E24.73495
G1 X86.979 Y115.763 E24.8693
G1 X85.682 Y114.717 E24.95243
G1 X85.187 Y114.306 E24.98453
G1 X84.718 Y113.864 E25.01668
G1 X84.306 Y113.367 E25.04889
G1 X83.96 Y112.824 E25.08101
G1 X83.683 Y112.242 E25.11317
G1 X83.481 Y111.63 E25.14532
G1 X83.327 Y110.742 E25.19028
G1 X83.291 Y110.302 E25.21231
G1 X83.148 Y108.327 E25.3111
G1 X82.875 Y105.625 E25.44659
G1 X82.534 Y102.988 E25.57925
G1 X82.111 Y100.32 E25.71402
G1 X81.874 Y98.998 E25.78102
G1 X81.794 Y98.159 E25.82307
G1 X81.786 Y97.628 E25.84956
G1 X81.706 Y94.846 E25.98842
G1 X81.596 Y92.795 E26.09089
G1 X81.593 Y91.901 E26.13549
G1 X81.597 Y91.756 E26.14273
G1 X81.627 Y91.058 E26.17758
G1 X81.707 Y89.642 E26.24834
G1 X81.787 Y86.833 E26.38854
G1 X81.793 Y86.41 E26.40964
G1 X81.842 Y85.767 E26.44182
G1 X81.97 Y85.135 E26.47399
G1 X82.175 Y84.524 E26.50614
G1 X82.454 Y83.943 E26.53829
G1 X82.998 Y83.153 E26.58615
G1 X83.397 Y82.677 E26.61714
G1 X83.68 Y82.355 E26.63852
M204 S3000
M205 X10 Y10
G1 F2400 E20.63852
G1 F600 Z0.375
G0 F3000 X91.2 Y103.21 Z0.375
M204 S1800
M205 X8 Y8
;TYPE:SUPPORT
G1 F600 Z0.3
G1 F2400 E26.63852
G1 F1500 X95.8 Y103.21 E26.86802
G1 X95.8 Y107.39 E27.07656
G1 X91.2 Y107.39 E27.30605
G1 X91.2 Y103.21 E27.51459
M204 S3000
M205 X10 Y10
G1 F2400 E21.51459
G1 F600 Z0.375
G0 F3000 X92.8 Y103.35 Z0.375
M204 S1800
M205 X8 Y8
G1 F600 Z0.3
G1 F2400 E27.51459
G1 F1500 X92.8 Y107.25 E27.70917
M204 S3000
M205 X10 Y10
G1 F2400 E21.70917
G1 F600 Z0.375
G0 F3000 X91.34 Y105.6 Z0.375
M204 S1800
M205 X8 Y8
G1 F600 Z0.3
G1 F2400 E27.70917
G1 F1500 X95.66 Y105.6 E27.92469
M204 S3000
M205 X10 Y10
G1 F2400 E21.92469
G1 F600 Z0.375
G0 F3000 X102.7 Y106.59 Z0.375
M204 S1800
M205 X8 Y8
G1 F600 Z0.3
G1 F2400 E27.92469
G1 F1500 X102.7 Y102.41 E28.13323
G1 X107.3 Y102.41 E28.36273
G1 X107.3 Y106.59 E28.57127
G1 X102.7 Y106.59 E28.80076
M204 S3000
M205 X10 Y10
G0 F3000 X102.84 Y105.6
M204 S1800
M205 X8 Y8
G1 F1500 X107.16 Y105.6 E29.01629
M204 S3000
M205 X10 Y10
G1 F2400 E23.01629
G1 F600 Z0.375
G0 F3000 X105.6 Y106.45 Z0.375
M204 S1800
M205 X8 Y8
G1 F600 Z0.3
G1 F2400 E29.01629
G1 F1500 X105.6 Y102.55 E29.21086
M204 S3000
M205 X10 Y10
G1 F2400 E23.21086
G1 F600 Z0.375
G0 F3000 X107.3 Y113.91 Z0.375
M204 S1800
M205 X8 Y8
G1 F600 Z0.3
G1 F2400 E29.21086
G1 F1500 X107.3 Y118.09 E29.4194
G1 X102.7 Y118.09 E29.6489
G1 X102.7 Y113.91 E29.85744
G1 X107.3 Y113.91 E30.08693
M204 S3000
M205 X10 Y10
G0 F3000 X107.16 Y115.2
M204 S1800
M205 X8 Y8
G1 F1500 X102.84 Y115.2 E30.30246
M204 S3000
M205 X10 Y10
G1 F2400 E24.30246
G1 F600 Z0.375
G0 F3000 X105.6 Y114.05 Z0.375
M204 S1800
M205 X8 Y8
G1 F600 Z0.3
G1 F2400 E30.30246
G1 F1500 X105.6 Y117.95 E30.49703
M204 S3000
M205 X10 Y10
G1 F2400 E24.49703
G1 F600 Z0.375
G0 F3000 X114.2 Y118.59 Z0.375
M204 S1800
M205 X8 Y8
G1 F600 Z0.3
G1 F2400 E30.49703
G1 F1500 X114.2 Y114.41 E30.70557
G1 X118.8 Y114.41 E30.93507
G1 X118.8 Y118.59 E31.14361
G1 X114.2 Y118.59 E31.3731
M204 S3000
M205 X10 Y10
G0 F3000 X114.34 Y118.4
M204 S1800
M205 X8 Y8
G1 F1500 X118.66 Y118.4 E31.58863
M204 S3000
M205 X10 Y10
G0 F3000 X118.4 Y118.45
M204 S1800
M205 X8 Y8
G1 F1500 X118.4 Y114.55 E31.7832
M204 S3000
M205 X10 Y10
G0 F3000 X118.66 Y115.2
M204 S1800
M205 X8 Y8
G1 F1500 X114.34 Y115.2 E31.99873
M204 S3000
M205 X10 Y10
G0 F3000 X115.2 Y114.55
M204 S1800
M205 X8 Y8
G1 F1500 X115.2 Y118.45 E32.1933
M204 S3000
M205 X10 Y10
G1 F2400 E26.1933
G1 F600 Z0.375
G0 F3000 X114.2 Y107.09 Z0.375
M204 S1800
M205 X8 Y8
G1 F600 Z0.3
G1 F2400 E32.1933
G1 F1500 X114.2 Y102.91 E32.40184
G1 X118.8 Y102.91 E32.63133
G1 X118.8 Y107.09 E32.83988
G1 X114.2 Y107.09 E33.06937
M204 S3000
M205 X10 Y10
G0 F3000 X115.2 Y106.95
M204 S1800
M205 X8 Y8
G1 F1500 X115.2 Y103.05 E33.26394
M204 S3000
M205 X10 Y10
G1 F2400 E27.26394
G1 F600 Z0.375
G0 F3000 X114.34 Y105.6 Z0.375
M204 S1800
M205 X8 Y8
G1 F600 Z0.3
G1 F2400 E33.26394
G1 F1500 X118.66 Y105.6 E33.47947
M204 S3000
M205 X10 Y10
G0 F3000 X118.4 Y106.95
M204 S1800
M205 X8 Y8
G1 F1500 X118.4 Y103.05 E33.67404
M204 S3000
M205 X10 Y10
G1 F2400 E27.67404
G1 F600 Z0.375
G0 F3000 X118.8 Y95.59 Z0.375
M204 S1800
M205 X8 Y8
G1 F600 Z0.3
G1 F2400 E33.67404
G1 F1500 X114.2 Y95.59 E33.90353
G1 X114.2 Y91.41 E34.11208
G1 X118.8 Y91.41 E34.34157
G1 X118.8 Y95.59 E34.55011
M204 S3000
M205 X10 Y10
G0 F3000 X118.4 Y95.45
M204 S1800
M205 X8 Y8
G1 F1500 X118.4 Y91.55 E34.74468
M204 S3000
M205 X10 Y10
G0 F3000 X118.66 Y92.8
M204 S1800
M205 X8 Y8
G1 F1500 X114.34 Y92.8 E34.96021
M204 S3000
M205 X10 Y10
G1 F2400 E28.96021
G1 F600 Z0.375
G0 F3000 X115.2 Y91.55 Z0.375
M204 S1800
M205 X8 Y8
G1 F600 Z0.3
G1 F2400 E34.96021
G1 F1500 X115.2 Y95.45 E35.15478
M204 S3000
M205 X10 Y10
G0 F3000 X113.8 Y95.59
M204 S1800
M205 X8 Y8
;TYPE:SUPPORT-INTERFACE
G1 F1500 X113.6 Y95.59 E35.16476
G1 X113.6 Y91.41 E35.3733
G1 X113.8 Y91.41 E35.38328
G1 X113.8 Y95.59 E35.59182
M204 S3000
M205 X10 Y10
G1 F2400 E29.59182
G1 F600 Z0.375
G0 F3000 X119.2 Y95.59 Z0.375
M204 S1800
M205 X8 Y8
G1 F600 Z0.3
