;FLAVOR:Marlin
;TIME:10778
;Filament used: 11.4253m
;Layer height: 0.3
;MINX:39
;MINY:39
;MINZ:0.3
;MAXX:171
;MAXY:171
;MAXZ:9.975
;Generated with Cura_SteamEngine 4.12.1
M82 ;absolute extrusion mode
G21 ;metric values
G90 ;absolute positioning
M82 ;set extruder to absolute mode
M107 ;start with the fan off

M104 S200 T0 ; start heating T0 to what is set in Cura
M140 S60 ; start heating the bed to what is set in Cura
M190 S60 ; start heating the bed to what is set in Cura
M109 S200 T0 ; start heating T0 to what is set in Cura

G28 X0 Y0 ;move X/Y to min endstops
G28 Z0 ;move Z to min endstops
G1 Z15.0 F2400 ;move the platform down 15mm
G92 E0 ;zero the extruded length
G1 F200 E3 ;extrude 3mm of feed stock
G92 E0 ;zero the extruded length again
G1 F2400
G0 Y20 F2400
M117 Printing...
G5
G92 E0
G92 E0
G1 F2400 E-6
;LAYER_COUNT:33
;LAYER:0
M107
M204 S3000
M205 X10 Y10
G1 F600 Z0.375
G0 F3000 X40.924 Y40.614 Z0.375
M204 S1800
M205 X8 Y8
;TYPE:SKIRT
G1 F600 Z0.3
G1 F2400 E0
G1 X41.458 Y40.173 E0.03455
G1 X42.039 Y39.796 E0.06911
G1 X42.659 Y39.488 E0.10364
G1 X43.311 Y39.254 E0.1382
G1 X43.985 Y39.097 E0.17273
G1 X44.841 Y39.011 E0.21565
G1 X45.33 Y39 E0.24005
G1 X164.293 Y39 E6.17514
G1 X165.077 Y39.011 E6.21426
G1 X165.768 Y39.06 E6.24882
G1 X166.448 Y39.19 E6.28336
G1 X167.109 Y39.396 E6.3179
G1 X167.742 Y39.678 E6.35247
G1 X168.338 Y40.03 E6.38701
G1 X168.889 Y40.449 E6.42154
G1 X169.389 Y40.929 E6.45612
G1 X169.83 Y41.463 E6.49067
G1 X170.207 Y42.044 E6.52523
G1 X170.514 Y42.665 E6.55979
G1 X170.747 Y43.317 E6.59433
G1 X170.904 Y43.991 E6.62886
G1 X170.989 Y44.841 E6.67148
G1 X171 Y45.33 E6.69588
G1 X171 Y164.338 E12.63321
G1 X170.991 Y165.065 E12.66948
G1 X170.942 Y165.756 E12.70405
G1 X170.814 Y166.437 E12.73862
G1 X170.609 Y167.098 E12.77314
G1 X170.329 Y167.731 E12.80767
G1 X169.977 Y168.328 E12.84225
G1 X169.56 Y168.881 E12.8768
G1 X169.081 Y169.381 E12.91135
G1 X168.548 Y169.823 E12.94589
G1 X167.967 Y170.201 E12.98048
G1 X167.347 Y170.509 E13.01501
G1 X166.696 Y170.744 E13.04954
G1 X166.021 Y170.902 E13.08413
G1 X165.159 Y170.989 E13.12735
G1 X164.67 Y171 E13.15176
G1 X45.63 Y171 E19.09069
G1 X44.932 Y170.991 E19.12551
G1 X44.241 Y170.942 E19.16007
G1 X43.56 Y170.813 E19.19465
G1 X42.899 Y170.608 E19.22918
G1 X42.266 Y170.327 E19.26373
G1 X41.669 Y169.976 E19.29828
G1 X41.117 Y169.558 E19.33283
G1 X40.617 Y169.079 E19.36737
G1 X40.175 Y168.545 E19.40196
G1 X39.798 Y167.965 E19.43647
G1 X39.49 Y167.344 E19.47105
G1 X39.255 Y166.693 E19.50558
G1 X39.098 Y166.018 E19.54016
G1 X39.011 Y165.153 E19.58353
G1 X39 Y164.658 E19.60823
G1 X39.001 Y45.593 E25.54841
G1 X39.01 Y44.928 E25.58159
G1 X39.059 Y44.237 E25.61615
G1 X39.187 Y43.557 E25.65067
G1 X39.394 Y42.895 E25.68527
G1 X39.675 Y42.262 E25.71983
G1 X40.027 Y41.666 E25.75436
G1 X40.445 Y41.114 E25.7889
G1 X40.924 Y40.614 E25.82345
M204 S3000
M205 X10 Y10
G0 F3000 X41.314 Y40.801
M204 S1800
M205 X8 Y8
G1 F2400 X41.843 Y40.39 E25.85687
G1 X42.416 Y40.045 E25.89024
G1 X43.027 Y39.772 E25.92363
G1 X43.665 Y39.573 E25.95697
G1 X44.323 Y39.451 E25.99035
G1 X44.852 Y39.411 E26.01682
G1 X45.33 Y39.4 E26.04068
G1 X164.293 Y39.4 E31.97576
G1 X165.071 Y39.411 E32.01458
G1 X165.738 Y39.46 E32.04795
G1 X166.395 Y39.589 E32.08135
G1 X167.031 Y39.795 E32.11471
G1 X167.639 Y40.076 E32.14812
G1 X168.208 Y40.426 E32.18145
G1 X168.732 Y40.843 E32.21486
G1 X169.202 Y41.319 E32.24823
G1 X169.612 Y41.847 E32.28159
G1 X169.957 Y42.421 E32.315
G1 X170.23 Y43.032 E32.34838
G1 X170.428 Y43.671 E32.38176
G1 X170.549 Y44.329 E32.41514
G1 X170.589 Y44.853 E32.44136
G1 X170.6 Y45.33 E32.46516
G1 X170.6 Y164.333 E38.40224
G1 X170.591 Y165.06 E38.43852
G1 X170.542 Y165.728 E38.47193
G1 X170.415 Y166.384 E38.50527
G1 X170.21 Y167.021 E38.53865
G1 X169.931 Y167.629 E38.57203
G1 X169.581 Y168.199 E38.6054
G1 X169.165 Y168.724 E38.63882
G1 X168.69 Y169.195 E38.67219
G1 X168.163 Y169.606 E38.70553
G1 X167.59 Y169.952 E38.73893
G1 X166.98 Y170.226 E38.77229
G1 X166.341 Y170.426 E38.80569
G1 X165.683 Y170.548 E38.83908
G1 X165.148 Y170.589 E38.86585
G1 X164.67 Y170.6 E38.8897
G1 X45.635 Y170.6 E44.82838
G1 X44.937 Y170.591 E44.86321
G1 X44.27 Y170.542 E44.89658
G1 X43.613 Y170.414 E44.92997
G1 X42.976 Y170.209 E44.96336
G1 X42.368 Y169.929 E44.99675
G1 X41.798 Y169.579 E45.03012
G1 X41.274 Y169.163 E45.0635
G1 X40.803 Y168.688 E45.09688
G1 X40.392 Y168.16 E45.13026
G1 X40.047 Y167.587 E45.16363
G1 X39.773 Y166.977 E45.19699
G1 X39.573 Y166.338 E45.23039
G1 X39.452 Y165.68 E45.26377
G1 X39.411 Y165.142 E45.29069
G1 X39.4 Y164.658 E45.31484
G1 X39.401 Y45.598 E51.25477
G1 X39.41 Y44.933 E51.28795
G1 X39.459 Y44.266 E51.32132
G1 X39.587 Y43.609 E51.35471
G1 X39.792 Y42.973 E51.38805
G1 X40.072 Y42.365 E51.42144
G1 X40.423 Y41.795 E51.45484
G1 X40.839 Y41.271 E51.48822
G1 X41.314 Y40.801 E51.52156
M204 S3000
M205 X10 Y10
G0 F3000 X41.703 Y40.995
M204 S1800
M205 X8 Y8
G1 F2400 X42.226 Y40.617 E51.55375
G1 X42.79 Y40.306 E51.58588
G1 X43.389 Y40.068 E51.61804
G1 X44.013 Y39.905 E51.65022
G1 X44.863 Y39.811 E51.69288
G1 X45.33 Y39.8 E51.71619
G1 X164.293 Y39.8 E57.65128
G1 X165.065 Y39.811 E57.68979
G1 X165.708 Y39.86 E57.72197
G1 X166.34 Y39.988 E57.75414
G1 X166.951 Y40.194 E57.78631
G1 X167.532 Y40.473 E57.81846
G1 X168.074 Y40.822 E57.85062
G1 X168.568 Y41.236 E57.88278
G1 X169.008 Y41.708 E57.91497
G1 X169.386 Y42.23 E57.94713
G1 X169.696 Y42.795 E57.97928
G1 X169.934 Y43.394 E58.01144
G1 X170.096 Y44.018 E58.0436
G1 X170.189 Y44.864 E58.08606
G1 X170.2 Y45.33 E58.10932
G1 X170.2 Y164.328 E64.04615
G1 X170.191 Y165.055 E64.08242
G1 X170.143 Y165.698 E64.11459
G1 X170.016 Y166.33 E64.14675
G1 X169.811 Y166.942 E64.17895
G1 X169.533 Y167.523 E64.21109
G1 X169.185 Y168.066 E64.24326
G1 X168.772 Y168.561 E64.27543
G1 X168.301 Y169.001 E64.30758
G1 X167.779 Y169.38 E64.33976
G1 X167.215 Y169.691 E64.3719
G1 X166.616 Y169.93 E64.40407
G1 X165.993 Y170.094 E64.43621
G1 X165.137 Y170.189 E64.47918
G1 X164.67 Y170.2 E64.50249
G1 X45.64 Y170.2 E70.44092
G1 X44.942 Y170.191 E70.47574
G1 X44.299 Y170.142 E70.50792
G1 X43.667 Y170.015 E70.54008
G1 X43.056 Y169.81 E70.57223
G1 X42.475 Y169.532 E70.60436
G1 X41.932 Y169.183 E70.63657
G1 X41.437 Y168.77 E70.66873
G1 X40.997 Y168.299 E70.70089
G1 X40.618 Y167.777 E70.73307
G1 X40.307 Y167.213 E70.7652
G1 X40.069 Y166.614 E70.79736
G1 X39.906 Y165.99 E70.82953
G1 X39.811 Y165.131 E70.87265
G1 X39.8 Y164.658 E70.89626
G1 X39.8 Y45.604 E76.83588
G1 X39.809 Y44.939 E76.86906
G1 X39.858 Y44.296 E76.90124
G1 X39.986 Y43.664 E76.93341
G1 X40.191 Y43.053 E76.96556
G1 X40.47 Y42.472 E76.99771
G1 X40.819 Y41.929 E77.02992
G1 X41.232 Y41.435 E77.06204
G1 X41.703 Y40.995 E77.0942
M204 S3000
M205 X10 Y10
G1 F2400 E71.0942
G1 F600 Z0.375
;MESH:clip_grid_2cm_type_d.stl
G0 F3000 X50.6 Y58.149 Z0.375
M204 S1800
M205 X8 Y8
;TYPE:WALL-INNER
G1 F600 Z0.3
G1 F2400 E77.0942
G1 F1500 X51.851 Y59.4 E77.18246
G1 X58.149 Y59.4 E77.49667
G1 X59.4 Y58.149 E77.58494
G1 X59.4 Y51.851 E77.89915
G1 X58.149 Y50.6 E77.98741
G1 X51.851 Y50.6 E78.30162
G1 X50.6 Y51.851 E78.38988
G1 X50.6 Y58.149 E78.70409
M204 S3000
M205 X10 Y10
G1 F2400 E72.70409
G1 F600 Z0.375
G0 F3000 X59.9 Y68.249 Z0.375
M204 S1800
M205 X8 Y8
G1 F600 Z0.3
G1 F2400 E78.70409
G1 F1500 X61.751 Y70.1 E78.83469
G1 X63.749 Y70.1 E78.93437
G1 X64.748 Y69.1 E79.00489
G1 X65.252 Y69.1 E79.03004
G1 X66.251 Y70.1 E79.10056
G1 X68.249 Y70.1 E79.20024
G1 X70.1 Y68.249 E79.33083
G1 X70.1 Y66.251 E79.43051
G1 X69.1 Y65.252 E79.50103
G1 X69.1 Y64.748 E79.52618
G1 X70.1 Y63.749 E79.5967
G1 X70.1 Y61.751 E79.69638
G1 X68.249 Y59.9 E79.82698
G1 X66.251 Y59.9 E79.92666
G1 X65.252 Y60.9 E79.99718
G1 X64.748 Y60.9 E80.02232
G1 X63.749 Y59.9 E80.09284
G1 X61.751 Y59.9 E80.19252
G1 X59.9 Y61.751 E80.32312
G1 X59.9 Y63.749 E80.4228
G1 X60.9 Y64.748 E80.49332
G1 X60.9 Y65.252 E80.51847
G1 X59.9 Y66.251 E80.58899
G1 X59.9 Y68.249 E80.68867
M204 S3000
M205 X10 Y10
G1 F2400 E74.68867
G1 F600 Z0.375
G0 F3000 X50.6 Y78.149 Z0.375
M204 S1800
M205 X8 Y8
G1 F600 Z0.3
G1 F2400 E80.68867
G1 F1500 X51.851 Y79.4 E80.77693
G1 X58.149 Y79.4 E81.09114
G1 X59.4 Y78.149 E81.17941
G1 X59.4 Y71.851 E81.49362
G1 X58.149 Y70.6 E81.58188
G1 X51.851 Y70.6 E81.89609
G1 X50.6 Y71.851 E81.98435
G1 X50.6 Y78.149 E82.29856
M204 S3000
M205 X10 Y10
G1 F2400 E76.29856
G1 F600 Z0.375
G0 F3000 X78.641 Y79.39 Z0.375
M204 S1800
M205 X8 Y8
G1 F600 Z0.3
G1 F2400 E82.29856
G1 F1500 X78.159 Y79.39 E82.32261
G1 X78.5 Y79.049 E82.33556
G1 X79.049 Y78.5 E82.3743
G1 X79.39 Y78.159 E82.39836
G1 X79.39 Y78.641 E82.4113
G1 X79.39 Y79.39 E82.44867
G1 X78.641 Y79.39 E82.48604
M204 S3000
M205 X10 Y10
G1 F2400 E76.48604
G1 F600 Z0.375
G0 F3000 X70.6 Y58.149 Z0.375
M204 S1800
M205 X8 Y8
G1 F600 Z0.3
G1 F2400 E82.48604
G1 F1500 X71.851 Y59.4 E82.5743
G1 X78.149 Y59.4 E82.88851
G1 X79.4 Y58.149 E82.97678
G1 X79.4 Y51.851 E83.29099
G1 X78.149 Y50.6 E83.37925
G1 X71.851 Y50.6 E83.69346
G1 X70.6 Y51.851 E83.78172
G1 X70.6 Y58.149 E84.09593
M204 S3000
M205 X10 Y10
G1 F2400 E78.09593
G1 F600 Z0.375
G0 F3000 X130.6 Y58.149 Z0.375
M204 S1800
M205 X8 Y8
G1 F600 Z0.3
G1 F2400 E84.09593
G1 F1500 X131.851 Y59.4 E84.1842
G1 X138.149 Y59.4 E84.49841
G1 X139.4 Y58.149 E84.58667
G1 X139.4 Y51.851 E84.90088
G1 X138.149 Y50.6 E84.98914
G1 X131.851 Y50.6 E85.30335
G1 X130.6 Y51.851 E85.39162
G1 X130.6 Y58.149 E85.70582
M204 S3000
M205 X10 Y10
G1 F2400 E79.70582
G1 F600 Z0.375
G0 F3000 X139.9 Y68.249 Z0.375
M204 S1800
M205 X8 Y8
G1 F600 Z0.3
G1 F2400 E85.70582
G1 F1500 X141.751 Y70.1 E85.83642
G1 X143.749 Y70.1 E85.9361
G1 X144.748 Y69.1 E86.00662
G1 X145.252 Y69.1 E86.03177
G1 X146.251 Y70.1 E86.10229
G1 X148.249 Y70.1 E86.20197
G1 X150.1 Y68.249 E86.33257
G1 X150.1 Y66.251 E86.43225
G1 X149.1 Y65.252 E86.50277
G1 X149.1 Y64.748 E86.52791
G1 X150.1 Y63.749 E86.59843
G1 X150.1 Y61.751 E86.69811
G1 X148.249 Y59.9 E86.82871
G1 X146.251 Y59.9 E86.92839
G1 X145.252 Y60.9 E86.99891
G1 X144.748 Y60.9 E87.02406
G1 X143.749 Y59.9 E87.09458
G1 X141.751 Y59.9 E87.19426
G1 X139.9 Y61.751 E87.32486
G1 X139.9 Y63.749 E87.42454
G1 X140.9 Y64.748 E87.49506
G1 X140.9 Y65.252 E87.5202
G1 X139.9 Y66.251 E87.59072
G1 X139.9 Y68.249 E87.6904
M204 S3000
M205 X10 Y10
G1 F2400 E81.6904
G1 F600 Z0.375
G0 F3000 X131.359 Y79.39 Z0.375
M204 S1800
M205 X8 Y8
G1 F600 Z0.3
G1 F2400 E87.6904
G1 F1500 X130.61 Y79.39 E87.72777
G1 X130.61 Y78.641 E87.76514
G1 X130.61 Y78.159 E87.78918
G1 X130.951 Y78.5 E87.80214
G1 X131.5 Y79.049 E87.84087
G1 X131.841 Y79.39 E87.86493
G1 X131.359 Y79.39 E87.87788
M204 S3000
M205 X10 Y10
G1 F2400 E81.87788
G1 F600 Z0.375
G0 F3000 X150.6 Y78.149 Z0.375
M204 S1800
M205 X8 Y8
G1 F600 Z0.3
G1 F2400 E87.87788
G1 F1500 X151.851 Y79.4 E87.96614
G1 X158.149 Y79.4 E88.28035
G1 X159.4 Y78.149 E88.36862
G1 X159.4 Y71.851 E88.68282
G1 X158.149 Y70.6 E88.77109
G1 X151.851 Y70.6 E89.0853
G1 X150.6 Y71.851 E89.17356
G1 X150.6 Y78.149 E89.48777
M204 S3000
M205 X10 Y10
G1 F2400 E83.48777
G1 F600 Z0.375
G0 F3000 X150.6 Y58.149 Z0.375
M204 S1800
M205 X8 Y8
G1 F600 Z0.3
G1 F2400 E89.48777
G1 F1500 X151.851 Y59.4 E89.57604
G1 X158.149 Y59.4 E89.89024
G1 X159.4 Y58.149 E89.97851
G1 X159.4 Y51.851 E90.29272
G1 X158.149 Y50.6 E90.38098
G1 X151.851 Y50.6 E90.69519
G1 X150.6 Y51.851 E90.78346
G1 X150.6 Y58.149 E91.09766
M204 S3000
M205 X10 Y10
G1 F2400 E85.09766
G1 F600 Z0.375
G0 F3000 X130.951 Y131.5 Z0.375
M204 S1800
M205 X8 Y8
G1 F600 Z0.3
G1 F2400 E91.09766
G1 F1500 X130.61 Y131.841 E91.12172
G1 X130.61 Y131.359 E91.13467
G1 X130.61 Y130.61 E91.17204
G1 X131.359 Y130.61 E91.20941
G1 X131.841 Y130.61 E91.23345
G1 X131.5 Y130.951 E91.24641
G1 X130.951 Y131.5 E91.28514
M204 S3000
M205 X10 Y10
G1 F2400 E85.28514
G1 F600 Z0.375
G0 F3000 X139.9 Y148.249 Z0.375
M204 S1800
M205 X8 Y8
G1 F600 Z0.3
G1 F2400 E91.28514
G1 F1500 X141.751 Y150.1 E91.41574
G1 X143.749 Y150.1 E91.51542
G1 X144.748 Y149.1 E91.58594
G1 X145.252 Y149.1 E91.61108
G1 X146.251 Y150.1 E91.6816
G1 X148.249 Y150.1 E91.78129
G1 X150.1 Y148.249 E91.91188
G1 X150.1 Y146.251 E92.01156
G1 X149.1 Y145.252 E92.08208
G1 X149.1 Y144.748 E92.10723
G1 X150.1 Y143.749 E92.17775
G1 X150.1 Y141.751 E92.27743
G1 X148.249 Y139.9 E92.40803
G1 X146.251 Y139.9 E92.50771
G1 X145.252 Y140.9 E92.57823
G1 X144.748 Y140.9 E92.60337
G1 X143.749 Y139.9 E92.67389
G1 X141.751 Y139.9 E92.77357
G1 X139.9 Y141.751 E92.90417
G1 X139.9 Y143.749 E93.00385
G1 X140.9 Y144.748 E93.07437
G1 X140.9 Y145.252 E93.09952
G1 X139.9 Y146.251 E93.17004
G1 X139.9 Y148.249 E93.26972
M204 S3000
M205 X10 Y10
G1 F2400 E87.26972
G1 F600 Z0.375
G0 F3000 X130.6 Y158.149 Z0.375
M204 S1800
M205 X8 Y8
G1 F600 Z0.3
G1 F2400 E93.26972
G1 F1500 X131.851 Y159.4 E93.35798
G1 X138.149 Y159.4 E93.67219
G1 X139.4 Y158.149 E93.76046
G1 X139.4 Y151.851 E94.07466
G1 X138.149 Y150.6 E94.16293
G1 X131.851 Y150.6 E94.47714
G1 X130.6 Y151.851 E94.5654
G1 X130.6 Y158.149 E94.87961
M204 S3000
M205 X10 Y10
G1 F2400 E88.87961
G1 F600 Z0.375
G0 F3000 X150.6 Y158.149 Z0.375
M204 S1800
M205 X8 Y8
G1 F600 Z0.3
G1 F2400 E94.87961
G1 F1500 X151.851 Y159.4 E94.96788
G1 X158.149 Y159.4 E95.28208
G1 X159.4 Y158.149 E95.37035
G1 X159.4 Y151.851 E95.68456
G1 X158.149 Y150.6 E95.77282
G1 X151.851 Y150.6 E96.08703
G1 X150.6 Y151.851 E96.1753
G1 X150.6 Y158.149 E96.4895
M204 S3000
M205 X10 Y10
G1 F2400 E90.4895
G1 F600 Z0.375
G0 F3000 X164.4 Y164.4 Z0.375
M204 S1800
M205 X8 Y8
G1 F600 Z0.3
G1 F2400 E96.4895
G1 F1500 X45.6 Y164.4 E102.41646
G1 X45.6 Y45.6 E108.34342
G1 X164.4 Y45.6 E114.27037
G1 X164.4 Y164.4 E120.19733
M204 S3000
M205 X10 Y10
G1 F2400 E114.19733
G1 F600 Z0.375
G0 F3000 X150.6 Y138.149 Z0.375
M204 S1800
M205 X8 Y8
G1 F600 Z0.3
G1 F2400 E120.19733
G1 F1500 X151.851 Y139.4 E120.28559
G1 X158.149 Y139.4 E120.5998
G1 X159.4 Y138.149 E120.68807
G1 X159.4 Y131.851 E121.00228
G1 X158.149 Y130.6 E121.09054
G1 X151.851 Y130.6 E121.40475
G1 X150.6 Y131.851 E121.49301
G1 X150.6 Y138.149 E121.80722
M204 S3000
M205 X10 Y10
G1 F2400 E115.80722
G1 F600 Z0.375
G0 F3000 X79.39 Y131.359 Z0.375
M204 S1800
M205 X8 Y8
G1 F600 Z0.3
G1 F2400 E121.80722
G1 F1500 X79.39 Y131.841 E121.83127
G1 X79.049 Y131.5 E121.84422
G1 X78.5 Y130.951 E121.88296
G1 X78.159 Y130.61 E121.90702
G1 X78.641 Y130.61 E121.91996
G1 X79.39 Y130.61 E121.95733
G1 X79.39 Y131.359 E121.9947
M204 S3000
M205 X10 Y10
G1 F2400 E115.9947
G1 F600 Z0.375
G0 F3000 X79.391 Y150.61 Z0.375
M204 S1800
M205 X8 Y8
G1 F600 Z0.3
G1 F2400 E121.9947
G1 F1500 X91.359 Y150.61 E122.59178
G1 X91.841 Y150.61 E122.61583
G1 X91.501 Y150.95 E122.62871
G1 X90.6 Y151.851 E122.69228
G1 X90.6 Y158.149 E123.00649
G1 X91.851 Y159.4 E123.09476
G1 X98.149 Y159.4 E123.40897
G1 X99.4 Y158.149 E123.49723
G1 X99.4 Y151.851 E123.81144
G1 X98.499 Y150.95 E123.87501
G1 X98.159 Y150.61 E123.899
G1 X98.641 Y150.61 E123.91196
G1 X111.36 Y150.609 E124.54651
G1 X111.842 Y150.609 E124.57056
G1 X111.502 Y150.949 E124.58344
G1 X110.6 Y151.851 E124.64708
G1 X110.6 Y158.149 E124.96129
G1 X111.851 Y159.4 E125.04955
G1 X118.149 Y159.4 E125.36376
G1 X119.4 Y158.149 E125.45203
G1 X119.4 Y151.851 E125.76624
G1 X118.498 Y150.949 E125.82988
G1 X118.158 Y150.609 E125.85386
G1 X118.64 Y150.609 E125.86682
G1 X130.61 Y150.609 E126.46401
G1 X130.61 Y138.641 E127.0611
G1 X130.61 Y138.159 E127.08514
G1 X130.95 Y138.499 E127.09802
G1 X131.851 Y139.4 E127.16159
G1 X138.149 Y139.4 E127.4758
G1 X139.4 Y138.149 E127.56407
G1 X139.4 Y131.851 E127.87828
G1 X138.499 Y130.95 E127.94185
G1 X138.159 Y130.61 E127.96584
G1 X138.641 Y130.61 E127.97879
G1 X150.61 Y130.609 E128.57593
G1 X150.61 Y118.641 E129.17302
G1 X150.61 Y118.159 E129.19706
G1 X150.95 Y118.499 E129.20994
G1 X151.851 Y119.4 E129.27352
G1 X158.149 Y119.4 E129.58772
G1 X159.4 Y118.149 E129.67599
G1 X159.4 Y111.851 E129.9902
G1 X158.149 Y110.6 E130.07846
G1 X151.851 Y110.6 E130.39267
G1 X150.95 Y111.501 E130.45624
G1 X150.61 Y111.841 E130.48023
G1 X150.61 Y111.359 E130.49319
G1 X150.609 Y98.64 E131.12774
G1 X150.609 Y98.158 E131.15179
G1 X150.949 Y98.498 E131.16467
G1 X151.851 Y99.4 E131.22831
G1 X158.149 Y99.4 E131.54252
G1 X159.4 Y98.149 E131.63079
G1 X159.4 Y91.851 E131.94499
