;FLAVOR:Marlin
;TIME:742
;Filament used: 0.726015m
;Layer height: 0.3
;MINX:71.649
;MINY:91.708
;MINZ:0.3
;MAXX:138.351
;MAXY:118.293
;MAXZ:11.175
;Generated with Cura_SteamEngine 4.12.1
M82 ;absolute extrusion mode
G21 ;metric values
G90 ;absolute positioning
M82 ;set extruder to absolute mode
M107 ;start with the fan off

M104 S200 T0 ; start heating T0 to what is set in Cura
M140 S60 ; start heating the bed to what is set in Cura
M190 S60 ; start heating the bed to what is set in Cura
M109 S200 T0 ; start heating T0 to what is set in Cura

G28 X0 Y0 ;move X/Y to min endstops
G28 Z0 ;move Z to min endstops
G1 Z15.0 F2400 ;move the platform down 15mm
G92 E0 ;zero the extruded length
G1 F200 E3 ;extrude 3mm of feed stock
G92 E0 ;zero the extruded length again
G1 F2400
G0 Y20 F2400
M117 Printing...
G5
G92 E0
G92 E0
G1 F2400 E-6
;LAYER_COUNT:37
;LAYER:0
M107
M204 S3000
M205 X10 Y10
G1 F600 Z0.375
G0 F3000 X74.107 Y92.881 Z0.375
M204 S1800
M205 X8 Y8
;TYPE:SKIRT
G1 F600 Z0.3
G1 F2400 E0
G1 X74.688 Y92.504 E0.03455
G1 X75.308 Y92.196 E0.06909
G1 X75.96 Y91.962 E0.10365
G1 X76.634 Y91.805 E0.13818
G1 X77.49 Y91.719 E0.1811
G1 X77.979 Y91.708 E0.2055
G1 X131.643 Y91.708 E2.88281
G1 X132.427 Y91.719 E2.92193
G1 X133.118 Y91.768 E2.95649
G1 X133.798 Y91.898 E2.99103
G1 X134.459 Y92.104 E3.02557
G1 X135.092 Y92.386 E3.06014
G1 X135.688 Y92.738 E3.09468
G1 X136.239 Y93.157 E3.12921
G1 X136.739 Y93.637 E3.16379
G1 X137.18 Y94.171 E3.19834
G1 X137.557 Y94.752 E3.2329
G1 X137.864 Y95.373 E3.26746
G1 X138.097 Y96.025 E3.302
G1 X138.254 Y96.699 E3.33653
G1 X138.339 Y97.549 E3.37914
G1 X138.35 Y98.038 E3.40355
G1 X138.349 Y99.05 E3.45404
G1 X138.335 Y99.961 E3.49949
G1 X138.291 Y101.002 E3.55147
G1 X138.214 Y103.718 E3.68703
G1 X138.214 Y106.349 E3.81829
G1 X138.29 Y109.041 E3.95265
G1 X138.329 Y109.825 E3.99181
G1 X138.348 Y110.443 E4.02266
G1 X138.351 Y110.623 E4.03164
G1 X138.351 Y111.631 E4.08193
G1 X138.342 Y112.358 E4.1182
G1 X138.293 Y113.049 E4.15276
G1 X138.165 Y113.73 E4.18733
G1 X137.96 Y114.391 E4.22186
G1 X137.68 Y115.024 E4.25639
G1 X137.328 Y115.621 E4.29097
G1 X136.911 Y116.174 E4.32552
G1 X136.432 Y116.674 E4.36007
G1 X135.899 Y117.116 E4.39461
G1 X135.318 Y117.494 E4.42919
G1 X134.698 Y117.802 E4.46373
G1 X134.047 Y118.037 E4.49826
G1 X133.372 Y118.195 E4.53285
G1 X132.51 Y118.282 E4.57607
G1 X132.021 Y118.293 E4.60047
G1 X78.268 Y118.291 E7.28222
G1 X77.59 Y118.281 E7.31605
G1 X76.899 Y118.231 E7.35061
G1 X76.218 Y118.102 E7.38519
G1 X75.558 Y117.895 E7.4197
G1 X74.925 Y117.613 E7.45428
G1 X74.329 Y117.26 E7.48883
G1 X73.778 Y116.841 E7.52337
G1 X73.238 Y116.318 E7.56087
G1 X73.218 Y116.296 E7.56236
G1 X72.783 Y115.758 E7.59687
G1 X72.412 Y115.173 E7.63143
G1 X72.112 Y114.549 E7.66598
G1 X71.885 Y113.894 E7.70056
G1 X71.735 Y113.218 E7.73511
G1 X71.66 Y112.417 E7.77524
G1 X71.65 Y111.954 E7.79835
G1 X71.651 Y110.886 E7.85163
G1 X71.665 Y110.038 E7.89394
G1 X71.71 Y108.978 E7.94688
G1 X71.786 Y106.278 E8.08163
G1 X71.786 Y103.653 E8.21259
G1 X71.71 Y100.959 E8.34705
G1 X71.671 Y100.178 E8.38606
G1 X71.652 Y99.557 E8.41706
G1 X71.649 Y99.378 E8.42599
G1 X71.65 Y98.301 E8.47972
G1 X71.659 Y97.636 E8.5129
G1 X71.708 Y96.945 E8.54747
G1 X71.836 Y96.265 E8.58199
G1 X72.043 Y95.603 E8.61659
G1 X72.324 Y94.97 E8.65114
G1 X72.676 Y94.374 E8.68568
G1 X73.094 Y93.822 E8.72022
G1 X73.573 Y93.322 E8.75477
G1 X74.107 Y92.881 E8.78932
M204 S3000
M205 X10 Y10
G0 F3000 X74.492 Y93.098
M204 S1800
M205 X8 Y8
G1 F2400 X75.065 Y92.753 E8.82269
G1 X75.676 Y92.48 E8.85607
G1 X76.314 Y92.281 E8.88942
G1 X76.972 Y92.159 E8.9228
G1 X77.501 Y92.119 E8.94927
G1 X77.979 Y92.108 E8.97312
G1 X131.643 Y92.108 E11.65043
G1 X132.421 Y92.119 E11.68925
G1 X133.088 Y92.168 E11.72262
G1 X133.745 Y92.297 E11.75602
G1 X134.381 Y92.503 E11.78937
G1 X134.989 Y92.784 E11.82279
G1 X135.558 Y93.134 E11.85612
G1 X136.082 Y93.551 E11.88953
G1 X136.552 Y94.027 E11.9229
G1 X136.962 Y94.555 E11.95625
G1 X137.307 Y95.129 E11.98966
G1 X137.58 Y95.74 E12.02305
G1 X137.778 Y96.379 E12.05643
G1 X137.899 Y97.037 E12.08981
G1 X137.939 Y97.561 E12.11602
G1 X137.95 Y98.038 E12.13983
G1 X137.949 Y99.045 E12.19007
G1 X137.939 Y99.783 E12.22689
G1 X137.935 Y99.944 E12.23492
G1 X137.892 Y100.95 E12.28516
G1 X137.814 Y103.706 E12.42271
G1 X137.814 Y106.361 E12.55517
G1 X137.89 Y109.053 E12.68953
G1 X137.933 Y109.954 E12.73453
G1 X137.948 Y110.455 E12.75954
G1 X137.951 Y110.623 E12.76792
G1 X137.951 Y111.626 E12.81796
G1 X137.942 Y112.353 E12.85423
G1 X137.893 Y113.021 E12.88765
G1 X137.766 Y113.677 E12.92098
G1 X137.561 Y114.314 E12.95437
G1 X137.282 Y114.922 E12.98774
G1 X136.932 Y115.492 E13.02111
G1 X136.516 Y116.017 E13.05453
G1 X136.041 Y116.488 E13.08791
G1 X135.514 Y116.899 E13.12125
G1 X134.941 Y117.245 E13.15464
G1 X134.331 Y117.519 E13.18801
G1 X133.692 Y117.719 E13.22141
G1 X133.034 Y117.841 E13.2548
G1 X132.499 Y117.882 E13.28157
G1 X132.021 Y117.893 E13.30542
G1 X78.273 Y117.891 E15.98692
G1 X77.595 Y117.881 E16.02075
G1 X76.928 Y117.832 E16.05411
G1 X76.272 Y117.703 E16.08747
G1 X75.635 Y117.496 E16.12089
G1 X75.028 Y117.215 E16.15426
G1 X74.459 Y116.864 E16.18761
G1 X73.935 Y116.448 E16.22099
G1 X73.534 Y116.049 E16.24921
G1 X73.514 Y116.027 E16.2507
G1 X73.095 Y115.506 E16.28405
G1 X72.74 Y114.939 E16.31743
G1 X72.456 Y114.333 E16.35081
G1 X72.246 Y113.698 E16.38418
G1 X72.113 Y113.042 E16.41758
G1 X72.06 Y112.406 E16.44942
G1 X72.05 Y111.954 E16.47197
G1 X72.051 Y110.892 E16.52496
G1 X72.065 Y110.055 E16.56672
G1 X72.11 Y108.998 E16.6195
G1 X72.186 Y106.29 E16.75466
G1 X72.186 Y103.641 E16.88682
G1 X72.109 Y100.928 E17.02222
G1 X72.066 Y100.048 E17.06618
G1 X72.051 Y99.545 E17.09128
G1 X72.049 Y99.378 E17.09962
G1 X72.05 Y98.306 E17.1531
G1 X72.059 Y97.641 E17.18628
G1 X72.108 Y96.974 E17.21965
G1 X72.236 Y96.317 E17.25304
G1 X72.441 Y95.681 E17.28638
G1 X72.721 Y95.073 E17.31977
G1 X73.072 Y94.503 E17.35317
G1 X73.488 Y93.979 E17.38655
G1 X73.963 Y93.509 E17.41989
G1 X74.492 Y93.098 E17.45331
M204 S3000
M205 X10 Y10
G0 F3000 X74.352 Y93.703
M204 S1800
M205 X8 Y8
G1 F2400 X74.875 Y93.325 E17.4855
G1 X75.439 Y93.014 E17.51763
G1 X76.038 Y92.776 E17.54979
G1 X76.662 Y92.613 E17.58197
G1 X77.512 Y92.519 E17.62463
G1 X77.979 Y92.508 E17.64794
G1 X131.643 Y92.508 E20.32525
G1 X132.415 Y92.519 E20.36377
G1 X133.058 Y92.568 E20.39594
G1 X133.69 Y92.696 E20.42811
G1 X134.301 Y92.902 E20.46028
G1 X134.882 Y93.181 E20.49243
G1 X135.424 Y93.53 E20.52459
G1 X135.918 Y93.944 E20.55675
G1 X136.358 Y94.416 E20.58894
G1 X136.736 Y94.938 E20.6211
G1 X137.046 Y95.503 E20.65325
G1 X137.284 Y96.102 E20.68541
G1 X137.446 Y96.726 E20.71757
G1 X137.539 Y97.572 E20.76003
G1 X137.55 Y98.038 E20.78329
G1 X137.55 Y99.039 E20.83323
G1 X137.54 Y99.777 E20.87005
G1 X137.492 Y100.939 E20.92807
G1 X137.414 Y103.695 E21.06562
G1 X137.414 Y106.372 E21.19918
G1 X137.49 Y109.057 E21.33319
G1 X137.534 Y109.966 E21.37859
G1 X137.549 Y110.467 E21.4036
G1 X137.551 Y110.623 E21.41138
G1 X137.551 Y111.621 E21.46117
G1 X137.542 Y112.348 E21.49744
G1 X137.494 Y112.991 E21.52961
G1 X137.367 Y113.623 E21.56177
G1 X137.162 Y114.235 E21.59397
G1 X136.884 Y114.816 E21.62611
G1 X136.536 Y115.359 E21.65828
G1 X136.123 Y115.854 E21.69045
G1 X135.652 Y116.294 E21.7226
G1 X135.13 Y116.673 E21.75479
G1 X134.566 Y116.984 E21.78692
G1 X133.967 Y117.223 E21.81909
G1 X133.344 Y117.387 E21.85123
G1 X132.488 Y117.482 E21.8942
G1 X132.021 Y117.493 E21.91751
G1 X78.279 Y117.491 E24.59871
G1 X77.601 Y117.481 E24.63254
G1 X76.959 Y117.432 E24.66466
G1 X76.327 Y117.303 E24.69684
G1 X75.716 Y117.098 E24.72899
G1 X75.135 Y116.818 E24.76117
G1 X74.593 Y116.468 E24.79336
G1 X74.099 Y116.054 E24.82551
G1 X73.81 Y115.758 E24.84615
G1 X73.407 Y115.255 E24.87831
G1 X73.069 Y114.706 E24.91047
G1 X72.802 Y114.119 E24.94265
G1 X72.609 Y113.504 E24.9748
G1 X72.494 Y112.87 E25.00695
G1 X72.452 Y112.09 E25.04592
G1 X72.45 Y111.954 E25.05271
G1 X72.451 Y110.898 E25.10539
G1 X72.461 Y110.217 E25.13937
G1 X72.465 Y110.072 E25.14661
G1 X72.508 Y109.054 E25.19744
G1 X72.586 Y106.301 E25.33484
G1 X72.586 Y103.619 E25.46865
G1 X72.51 Y100.939 E25.60241
G1 X72.466 Y100.036 E25.64751
G1 X72.451 Y99.533 E25.67262
G1 X72.449 Y99.378 E25.68035
G1 X72.449 Y98.312 E25.73353
G1 X72.458 Y97.647 E25.76671
G1 X72.507 Y97.004 E25.79889
G1 X72.635 Y96.372 E25.83106
G1 X72.84 Y95.761 E25.86321
G1 X73.119 Y95.18 E25.89537
G1 X73.468 Y94.637 E25.92757
G1 X73.881 Y94.143 E25.95969
G1 X74.352 Y93.703 E25.99185
M204 S3000
M205 X10 Y10
G1 F2400 E19.99185
G1 F600 Z0.375
;MESH:raspberry_pico_plate-holder.stl
G0 F3000 X89.1 Y100.108 Z0.375
M204 S1800
M205 X8 Y8
;TYPE:WALL-INNER
G1 F600 Z0.3
G1 F2400 E25.99185
G1 F1500 X89.1 Y101.362 E26.05441
G1 X89.1 Y101.844 E26.07846
G1 X88.76 Y101.504 E26.09134
G1 X87.849 Y100.593 E26.15562
G1 X81.551 Y100.593 E26.46982
G1 X80.64 Y101.504 E26.5341
G1 X80.3 Y101.844 E26.55809
G1 X80.3 Y101.362 E26.57105
G1 X80.3 Y100.108 E26.63361
G1 X79.281 Y100.108 E26.68445
G1 X78.491 Y99.108 E26.74803
G1 X78.249 Y99.108 E26.7601
G1 X78.249 Y98.308 E26.80001
G1 X131.75 Y98.308 E29.46919
G1 X131.75 Y99.108 E29.5091
G1 X131.509 Y99.108 E29.52113
G1 X130.719 Y100.108 E29.58471
G1 X129.1 Y100.108 E29.66548
G1 X129.1 Y101.362 E29.72804
G1 X129.1 Y101.844 E29.75209
G1 X128.76 Y101.504 E29.76497
G1 X127.849 Y100.593 E29.82925
G1 X121.551 Y100.593 E30.14345
G1 X120.64 Y101.504 E30.20773
G1 X120.3 Y101.844 E30.23172
G1 X120.3 Y101.362 E30.24468
G1 X120.3 Y100.108 E30.30724
G1 X89.1 Y100.108 E31.86381
M204 S3000
M205 X10 Y10
G1 F2400 E25.86381
G1 F600 Z0.375
G0 F3000 X129.1 Y109.893 Z0.375
M204 S1800
M205 X8 Y8
G1 F600 Z0.3
G1 F2400 E31.86381
G1 F1500 X130.719 Y109.893 E31.94459
G1 X131.509 Y110.893 E32.00817
G1 X131.751 Y110.893 E32.02024
G1 X131.751 Y111.693 E32.06015
G1 X78.25 Y111.692 E34.72933
G1 X78.25 Y110.892 E34.76924
G1 X78.491 Y110.892 E34.78126
G1 X79.281 Y109.892 E34.84484
G1 X80.3 Y109.892 E34.89568
G1 X80.3 Y108.624 E34.95894
G1 X80.3 Y108.142 E34.98299
G1 X80.64 Y108.482 E34.99587
G1 X81.551 Y109.393 E35.06015
G1 X87.849 Y109.393 E35.37436
G1 X88.76 Y108.482 E35.43863
G1 X89.1 Y108.142 E35.46262
G1 X89.1 Y108.624 E35.47558
G1 X89.1 Y109.893 E35.53889
G1 X120.3 Y109.893 E37.09546
G1 X120.3 Y108.624 E37.15878
G1 X120.3 Y108.142 E37.18282
G1 X120.64 Y108.482 E37.1957
G1 X121.551 Y109.393 E37.25998
G1 X127.849 Y109.393 E37.57419
G1 X128.76 Y108.482 E37.63846
G1 X129.1 Y108.142 E37.66245
G1 X129.1 Y108.624 E37.67541
G1 X129.1 Y109.893 E37.73872
M204 S3000
M205 X10 Y10
G0 F3000 X129.5 Y109.493
M204 S1800
M205 X8 Y8
;TYPE:WALL-OUTER
G1 F1500 X130.913 Y109.493 E37.80922
G1 X131.703 Y110.493 E37.8728
G1 X132.151 Y110.493 E37.89515
G1 X132.151 Y112.093 E37.97497
G1 X77.85 Y112.092 E40.68406
G1 X77.85 Y110.492 E40.76389
G1 X78.297 Y110.492 E40.78619
G1 X79.087 Y109.492 E40.84977
G1 X79.9 Y109.492 E40.89033
G1 X79.9 Y100.508 E41.33854
G1 X79.087 Y100.508 E41.3791
G1 X78.297 Y99.508 E41.44268
G1 X77.849 Y99.508 E41.46503
G1 X77.849 Y97.908 E41.54486
G1 X132.15 Y97.908 E44.25394
G1 X132.15 Y99.508 E44.33377
G1 X131.703 Y99.508 E44.35607
G1 X130.913 Y100.508 E44.41965
G1 X129.5 Y100.508 E44.49014
G1 X129.5 Y109.493 E44.93841
M204 S3000
M205 X10 Y10
G0 F3000 X129.7 Y109.493
G1 F2400 E38.93841
G1 F600 Z0.375
G0 F3000 X120.7 Y107.976 Z0.375
M204 S1800
M205 X8 Y8
G1 F600 Z0.3
G1 F2400 E44.93841
G1 F1500 X121.717 Y108.993 E45.01016
G1 X127.683 Y108.993 E45.30781
G1 X128.7 Y107.976 E45.37956
G1 X128.7 Y102.01 E45.67721
G1 X127.683 Y100.993 E45.74896
G1 X121.717 Y100.993 E46.04661
G1 X120.7 Y102.01 E46.11836
G1 X120.7 Y107.976 E46.41601
M204 S3000
M205 X10 Y10
G0 F3000 X120.841 Y108.117
G1 F2400 E40.41601
G1 F600 Z0.375
G0 F3000 X89.5 Y100.508 Z0.375
M204 S1800
M205 X8 Y8
G1 F600 Z0.3
G1 F2400 E46.41601
G1 F1500 X89.5 Y109.493 E46.86427
G1 X119.9 Y109.493 E48.38093
G1 X119.9 Y100.508 E48.8292
G1 X89.5 Y100.508 E50.34586
M204 S3000
M205 X10 Y10
G0 F3000 X89.5 Y100.708
G1 F2400 E44.34586
G1 F600 Z0.375
G0 F3000 X80.7 Y107.976 Z0.375
M204 S1800
M205 X8 Y8
G1 F600 Z0.3
G1 F2400 E50.34586
G1 F1500 X81.717 Y108.993 E50.41761
G1 X87.683 Y108.993 E50.71526
G1 X88.7 Y107.976 E50.78701
G1 X88.7 Y102.01 E51.08466
G1 X87.683 Y100.993 E51.15641
G1 X81.717 Y100.993 E51.45406
G1 X80.7 Y102.01 E51.52581
G1 X80.7 Y107.976 E51.82346
M204 S3000
M205 X10 Y10
G0 F3000 X80.841 Y108.117
G0 X80.69 Y109.083
M204 S1800
M205 X8 Y8
;TYPE:SKIN
G1 F1500 X81.389 Y109.783 E51.87281
G1 X88.011 Y109.783 E52.20318
G1 X88.71 Y109.083 E52.25254
G1 X88.71 Y110.283 E52.31241
G1 X120.69 Y110.283 E53.90789
G1 X120.69 Y109.083 E53.96776
G1 X121.389 Y109.783 E54.01712
G1 X128.011 Y109.783 E54.34749
G1 X128.71 Y109.083 E54.39684
G1 X128.71 Y110.283 E54.45671
G1 X130.53 Y110.283 E54.54751
G1 X131.32 Y111.283 E54.61109
G1 X131.361 Y111.303 E54.61337
G1 X78.64 Y111.302 E57.24363
G1 X78.68 Y111.282 E57.24586
G1 X79.47 Y110.282 E57.30944
G1 X80.69 Y110.282 E57.37031
G1 X80.69 Y109.083 E57.43012
M204 S3000
M205 X10 Y10
G1 F2400 E51.43012
G1 F600 Z0.375
G0 F3000 X79.215 Y110.893 Z0.375
M204 S1800
M205 X8 Y8
G1 F600 Z0.3
G1 F2400 E57.43012
G1 F1500 X79.442 Y111.121 E57.44618
M204 S3000
M205 X10 Y10
G0 F3000 X79.464 Y110.577
M204 S1800
M205 X8 Y8
G1 F1500 X80.008 Y111.121 E57.48456
M204 S3000
M205 X10 Y10
G0 F3000 X80.574 Y111.121
M204 S1800
M205 X8 Y8
G1 F1500 X79.914 Y110.461 E57.53112
M204 S3000
M205 X10 Y10
G0 F3000 X80.48 Y110.461
M204 S1800
M205 X8 Y8
G1 F1500 X81.139 Y111.121 E57.57766
M204 S3000
M205 X10 Y10
G0 F3000 X81.705 Y111.121
M204 S1800
M205 X8 Y8
G1 F1500 X80.87 Y110.286 E57.63657
M204 S3000
M205 X10 Y10
G0 F3000 X80.87 Y109.72
M204 S1800
M205 X8 Y8
G1 F1500 X82.271 Y111.121 E57.73542
M204 S3000
M205 X10 Y10
G0 F3000 X82.836 Y111.121
M204 S1800
M205 X8 Y8
G1 F1500 X81.677 Y109.962 E57.81719
M204 S3000
M205 X10 Y10
G0 F3000 X82.243 Y109.962
M204 S1800
M205 X8 Y8
G1 F1500 X83.402 Y111.121 E57.89897
M204 S3000
M205 X10 Y10
G0 F3000 X83.968 Y111.121
M204 S1800
M205 X8 Y8
G1 F1500 X82.809 Y109.962 E57.98074
M204 S3000
M205 X10 Y10
G0 F3000 X83.374 Y109.962
M204 S1800
M205 X8 Y8
G1 F1500 X84.533 Y111.121 E58.06251
M204 S3000
M205 X10 Y10
G0 F3000 X85.099 Y111.121
M204 S1800
M205 X8 Y8
G1 F1500 X83.94 Y109.962 E58.14429
M204 S3000
M205 X10 Y10
G0 F3000 X84.506 Y109.962
M204 S1800
M205 X8 Y8
G1 F1500 X85.665 Y111.121 E58.22606
M204 S3000
M205 X10 Y10
G0 F3000 X86.23 Y111.121
M204 S1800
M205 X8 Y8
G1 F1500 X85.072 Y109.962 E58.3078
M204 S3000
M205 X10 Y10
G0 F3000 X85.637 Y109.962
M204 S1800
M205 X8 Y8
G1 F1500 X86.796 Y111.121 E58.38957
M204 S3000
M205 X10 Y10
G0 F3000 X87.362 Y111.121
M204 S1800
M205 X8 Y8
G1 F1500 X86.203 Y109.962 E58.47135
M204 S3000
M205 X10 Y10
G0 F3000 X86.769 Y109.962
M204 S1800
M205 X8 Y8
G1 F1500 X87.928 Y111.121 E58.55312
M204 S3000
M205 X10 Y10
G0 F3000 X88.493 Y111.121
M204 S1800
M205 X8 Y8
G1 F1500 X87.334 Y109.962 E58.63489
M204 S3000
M205 X10 Y10
G0 F3000 X87.9 Y109.962
M204 S1800
M205 X8 Y8
G1 F1500 X89.059 Y111.121 E58.71667
M204 S3000
M205 X10 Y10
G0 F3000 X89.625 Y111.121
M204 S1800
M205 X8 Y8
G1 F1500 X88.966 Y110.462 E58.76316
M204 S3000
M205 X10 Y10
G0 F3000 X89.532 Y110.462
M204 S1800
M205 X8 Y8
G1 F1500 X90.19 Y111.121 E58.80962
M204 S3000
M205 X10 Y10
G0 F3000 X90.756 Y111.121
M204 S1800
M205 X8 Y8
G1 F1500 X90.098 Y110.462 E58.85608
M204 S3000
M205 X10 Y10
G0 F3000 X90.663 Y110.462
M204 S1800
M205 X8 Y8
G1 F1500 X91.322 Y111.121 E58.90258
M204 S3000
M205 X10 Y10
G0 F3000 X91.887 Y111.121
M204 S1800
M205 X8 Y8
G1 F1500 X91.229 Y110.462 E58.94904
M204 S3000
M205 X10 Y10
G0 F3000 X91.795 Y110.462
M204 S1800
M205 X8 Y8
G1 F1500 X92.453 Y111.121 E58.9955
M204 S3000
M205 X10 Y10
G0 F3000 X93.019 Y111.121
M204 S1800
M205 X8 Y8
G1 F1500 X92.36 Y110.462 E59.042
M204 S3000
M205 X10 Y10
G0 F3000 X92.926 Y110.462
M204 S1800
M205 X8 Y8
G1 F1500 X93.584 Y111.121 E59.08846
M204 S3000
M205 X10 Y10
G0 F3000 X94.15 Y111.121
M204 S1800
M205 X8 Y8
G1 F1500 X93.492 Y110.462 E59.13492
M204 S3000
M205 X10 Y10
G0 F3000 X94.057 Y110.462
M204 S1800
M205 X8 Y8
G1 F1500 X94.716 Y111.121 E59.18142
M204 S3000
M205 X10 Y10
G0 F3000 X95.281 Y111.121
M204 S1800
