;FLAVOR:Marlin
;TIME:3916
;Filament used: 4.00735m
;Layer height: 0.3
;MINX:54.5
;MINY:63.006
;MINZ:0.3
;MAXX:155.5
;MAXY:146.994
;MAXZ:17.775
;Generated with Cura_SteamEngine 4.12.1
M82 ;absolute extrusion mode
G21 ;metric values
G90 ;absolute positioning
M82 ;set extruder to absolute mode
M107 ;start with the fan off

M104 S200 T0 ; start heating T0 to what is set in Cura
M140 S60 ; start heating the bed to what is set in Cura
M190 S60 ; start heating the bed to what is set in Cura
M109 S200 T0 ; start heating T0 to what is set in Cura

G28 X0 Y0 ;move X/Y to min endstops
G28 Z0 ;move Z to min endstops
G1 Z15.0 F2400 ;move the platform down 15mm
G92 E0 ;zero the extruded length
G1 F200 E3 ;extrude 3mm of feed stock
G92 E0 ;zero the extruded length again
G1 F2400
G0 Y20 F2400
M117 Printing...
G5
G92 E0
G92 E0
G1 F2400 E-6
;LAYER_COUNT:59
;LAYER:0
M107
M204 S3000
M205 X10 Y10
G1 F600 Z0.375
G0 F3000 X56.925 Y68.804 Z0.375
M204 S1800
M205 X8 Y8
;TYPE:SKIRT
G1 F600 Z0.3
G1 F2400 E0
G1 X57.491 Y68.404 E0.03458
G1 X58.099 Y68.073 E0.06911
G1 X58.741 Y67.814 E0.10365
G1 X59.608 Y67.591 E0.14832
G1 X60.055 Y67.511 E0.17097
G1 X62.689 Y67 E0.30483
G1 X65.245 Y66.429 E0.43549
G1 X67.844 Y65.771 E0.56925
G1 X70.408 Y65.042 E0.70224
G1 X72.941 Y64.245 E0.83472
G1 X75.562 Y63.339 E0.97307
G1 X76.229 Y63.151 E1.00765
G1 X76.912 Y63.041 E1.04216
G1 X77.463 Y63.009 E1.0697
G1 X78.111 Y63.011 E1.10202
G1 X78.282 Y63.015 E1.11056
G1 X79.419 Y63.063 E1.16733
G1 X82.135 Y63.14 E1.30289
G1 X84.764 Y63.14 E1.43405
G1 X87.467 Y63.064 E1.56896
G1 X88.312 Y63.022 E1.61117
G1 X89.025 Y63.006 E1.64675
G1 X89.366 Y63.011 E1.66376
G1 X90.057 Y63.061 E1.69833
G1 X90.696 Y63.18 E1.73075
G1 X90.976 Y63.248 E1.74513
G1 X93.572 Y63.845 E1.87802
G1 X96.227 Y64.381 E2.01316
G1 X98.839 Y64.826 E2.14535
G1 X101.457 Y65.198 E2.27727
G1 X104.092 Y65.498 E2.40958
G1 X106.744 Y65.724 E2.54237
G1 X109.371 Y65.873 E2.67364
G1 X112.07 Y65.949 E2.80835
G1 X114.7 Y65.949 E2.93956
G1 X117.4 Y65.873 E3.07432
G1 X119.996 Y65.726 E3.20404
G1 X122.681 Y65.498 E3.33848
G1 X125.33 Y65.197 E3.47149
G1 X127.949 Y64.824 E3.60347
G1 X130.555 Y64.378 E3.73537
G1 X133.196 Y63.848 E3.86976
G1 X135.208 Y63.392 E3.97268
G1 X136.143 Y63.171 E4.02062
G1 X136.825 Y63.051 E4.05516
G1 X137.461 Y63.009 E4.08696
G1 X138.111 Y63.011 E4.11939
G1 X138.282 Y63.015 E4.12793
G1 X139.419 Y63.063 E4.1847
G1 X142.135 Y63.14 E4.32026
G1 X144.764 Y63.14 E4.45142
G1 X147.467 Y63.064 E4.58633
G1 X148.312 Y63.022 E4.62853
G1 X149.025 Y63.006 E4.66411
G1 X149.366 Y63.011 E4.68113
G1 X150.057 Y63.061 E4.71569
G1 X150.737 Y63.19 E4.75022
G1 X151.398 Y63.397 E4.78478
G1 X152.031 Y63.679 E4.81935
G1 X152.627 Y64.031 E4.85389
G1 X153.178 Y64.45 E4.88842
G1 X153.651 Y64.899 E4.92096
G1 X154.11 Y65.418 E4.95552
G1 X154.505 Y65.987 E4.99008
G1 X154.832 Y66.597 E5.02461
G1 X155.087 Y67.241 E5.05917
G1 X155.266 Y67.91 E5.09372
G1 X155.385 Y68.877 E5.14233
G1 X155.395 Y69.171 E5.157
G1 X155.405 Y70.02 E5.19936
G1 X155.415 Y70.114 E5.20408
G1 X155.462 Y72.732 E5.33471
G1 X155.491 Y73.535 E5.3748
G1 X155.5 Y74.132 E5.40459
G1 X155.499 Y135.72 E8.47723
G1 X155.488 Y136.541 E8.51819
G1 X155.409 Y139.317 E8.65674
G1 X155.405 Y139.808 E8.68124
G1 X155.389 Y140.961 E8.73877
G1 X155.34 Y141.652 E8.77333
G1 X155.211 Y142.332 E8.80786
G1 X155.005 Y142.994 E8.84245
G1 X154.724 Y143.626 E8.87695
G1 X154.371 Y144.223 E8.91156
G1 X153.953 Y144.774 E8.94606
G1 X153.521 Y145.233 E8.97751
G1 X153.004 Y145.693 E9.01203
G1 X152.437 Y146.091 E9.04659
G1 X151.828 Y146.421 E9.08115
G1 X151.185 Y146.679 E9.11572
G1 X150.517 Y146.861 E9.15026
G1 X149.832 Y146.964 E9.18482
G1 X149.048 Y146.994 E9.22396
G1 X148.52 Y146.985 E9.2503
G1 X147.383 Y146.937 E9.30708
G1 X144.667 Y146.86 E9.44264
G1 X142.036 Y146.86 E9.5739
G1 X139.344 Y146.936 E9.70826
G1 X138.353 Y146.984 E9.75775
G1 X137.775 Y146.994 E9.7866
G1 X137.436 Y146.989 E9.80351
G1 X136.716 Y146.935 E9.83953
G1 X136.068 Y146.812 E9.87244
G1 X135.838 Y146.755 E9.88426
G1 X133.228 Y146.155 E10.01787
G1 X130.573 Y145.619 E10.153
G1 X127.961 Y145.174 E10.28519
G1 X125.343 Y144.802 E10.41712
G1 X122.708 Y144.502 E10.54943
G1 X120.056 Y144.276 E10.68221
G1 X117.429 Y144.127 E10.81349
G1 X114.73 Y144.051 E10.94819
G1 X112.1 Y144.051 E11.0794
G1 X109.4 Y144.127 E11.21416
G1 X106.804 Y144.274 E11.34388
G1 X104.119 Y144.502 E11.47832
G1 X101.47 Y144.803 E11.61133
G1 X98.851 Y145.176 E11.74331
G1 X96.245 Y145.622 E11.87522
G1 X93.604 Y146.152 E12.0096
G1 X91.592 Y146.608 E12.11253
G1 X90.657 Y146.829 E12.16046
G1 X89.975 Y146.949 E12.19501
G1 X89.339 Y146.991 E12.22681
G1 X88.689 Y146.989 E12.25924
G1 X88.518 Y146.985 E12.26777
G1 X87.381 Y146.937 E12.32455
G1 X84.665 Y146.86 E12.4601
G1 X82.036 Y146.86 E12.59126
G1 X79.333 Y146.936 E12.72617
G1 X78.488 Y146.978 E12.76838
G1 X77.759 Y146.994 E12.80476
G1 X77.413 Y146.988 E12.82202
G1 X76.722 Y146.936 E12.85659
G1 X76.042 Y146.805 E12.89114
G1 X75.597 Y146.673 E12.9143
G1 X75.003 Y146.472 E12.94559
G1 X73.442 Y145.922 E13.02816
G1 X70.901 Y145.104 E13.16133
G1 X68.349 Y144.363 E13.29391
G1 X65.771 Y143.692 E13.42682
G1 X63.15 Y143.088 E13.561
G1 X60.55 Y142.569 E13.69328
G1 X59.525 Y142.378 E13.7453
G1 X58.853 Y142.212 E13.77983
G1 X58.204 Y141.97 E13.81439
G1 X57.587 Y141.654 E13.84897
G1 X57.011 Y141.27 E13.88351
G1 X56.399 Y140.74 E13.9239
G1 X56.286 Y140.628 E13.93184
G1 X55.823 Y140.113 E13.96639
G1 X55.423 Y139.548 E14.00092
G1 X55.09 Y138.941 E14.03547
G1 X54.83 Y138.299 E14.07002
G1 X54.645 Y137.632 E14.10455
G1 X54.538 Y136.948 E14.13909
G1 X54.508 Y136.422 E14.16538
G1 X54.5 Y135.833 E14.19477
G1 X54.5 Y131.132 E14.4293
G1 X54.502 Y130.056 E14.48298
G1 X54.5 Y129.833 E14.49411
G1 X54.5 Y79.881 E16.98622
G1 X54.502 Y78.804 E17.03996
G1 X54.5 Y78.581 E17.05108
G1 X54.501 Y74.213 E17.269
G1 X54.511 Y73.531 E17.30303
G1 X54.561 Y72.84 E17.3376
G1 X54.69 Y72.16 E17.37213
G1 X54.897 Y71.499 E17.40668
G1 X55.179 Y70.866 E17.44126
G1 X55.531 Y70.27 E17.47579
G1 X55.95 Y69.719 E17.51032
G1 X56.43 Y69.22 E17.54487
G1 X56.925 Y68.804 E17.57713
M204 S3000
M205 X10 Y10
G0 F3000 X57.174 Y69.117
M204 S1800
M205 X8 Y8
G1 F2400 X57.722 Y68.732 E17.61054
G1 X58.311 Y68.415 E17.64391
G1 X58.934 Y68.171 E17.67729
G1 X59.678 Y67.985 E17.71555
G1 X60.136 Y67.903 E17.73876
G1 X62.747 Y67.396 E17.87146
G1 X65.358 Y66.813 E18.00493
G1 X67.924 Y66.163 E18.13699
G1 X70.523 Y65.425 E18.27178
G1 X73.087 Y64.618 E18.40589
G1 X75.693 Y63.717 E18.54345
G1 X76.337 Y63.537 E18.57681
G1 X77.33 Y63.413 E18.62674
G1 X78.106 Y63.411 E18.66545
G1 X78.265 Y63.415 E18.67339
G1 X79.392 Y63.463 E18.72967
G1 X82.123 Y63.54 E18.86597
G1 X84.776 Y63.54 E18.99833
G1 X87.498 Y63.463 E19.13419
G1 X88.437 Y63.418 E19.18109
G1 X89.019 Y63.406 E19.21013
G1 X89.36 Y63.411 E19.22714
G1 X90.027 Y63.46 E19.26051
G1 X90.602 Y63.569 E19.28971
G1 X90.888 Y63.639 E19.3044
G1 X93.509 Y64.242 E19.43857
G1 X96.152 Y64.775 E19.57309
G1 X98.746 Y65.217 E19.70437
G1 X101.392 Y65.593 E19.83771
G1 X104.049 Y65.895 E19.97112
G1 X106.723 Y66.123 E20.10501
G1 X109.372 Y66.273 E20.23738
G1 X112.058 Y66.349 E20.37144
G1 X114.712 Y66.349 E20.50385
G1 X117.397 Y66.273 E20.63785
G1 X120.054 Y66.122 E20.77063
G1 X122.728 Y65.896 E20.90451
G1 X125.356 Y65.597 E21.03647
G1 X128.001 Y65.221 E21.16975
G1 X130.67 Y64.764 E21.30485
G1 X133.238 Y64.248 E21.43553
G1 X135.296 Y63.782 E21.5408
G1 X136.235 Y63.56 E21.58894
G1 X136.894 Y63.445 E21.62231
G1 X137.475 Y63.408 E21.65136
G1 X138.106 Y63.411 E21.68284
G1 X138.265 Y63.415 E21.69077
G1 X139.392 Y63.463 E21.74705
G1 X142.123 Y63.54 E21.88335
G1 X144.776 Y63.54 E22.01571
G1 X147.498 Y63.463 E22.15157
G1 X148.437 Y63.418 E22.19847
G1 X149.019 Y63.406 E22.22751
G1 X149.36 Y63.411 E22.24453
G1 X150.027 Y63.46 E22.27789
G1 X150.684 Y63.589 E22.3113
G1 X151.32 Y63.796 E22.34466
G1 X151.927 Y64.076 E22.37801
G1 X152.497 Y64.428 E22.41144
G1 X153.255 Y65.068 E22.46093
G1 X153.367 Y65.181 E22.46887
G1 X153.809 Y65.683 E22.50224
G1 X154.188 Y66.235 E22.53564
G1 X154.498 Y66.828 E22.56903
G1 X154.735 Y67.453 E22.60238
G1 X154.896 Y68.103 E22.63578
G1 X154.985 Y68.894 E22.6755
G1 X154.995 Y69.176 E22.68957
G1 X155.005 Y69.992 E22.73029
G1 X155.015 Y70.121 E22.73674
G1 X155.062 Y72.753 E22.86807
G1 X155.095 Y73.677 E22.9142
G1 X155.1 Y74.059 E22.93326
G1 X155.099 Y135.714 E26.00924
G1 X155.088 Y136.529 E26.04991
G1 X155.01 Y139.298 E26.18811
G1 X155.005 Y139.803 E26.2133
G1 X154.989 Y140.956 E26.27083
G1 X154.94 Y141.623 E26.3042
G1 X154.812 Y142.28 E26.33759
G1 X154.606 Y142.916 E26.37095
G1 X154.326 Y143.524 E26.40434
G1 X153.975 Y144.093 E26.4377
G1 X153.35 Y144.838 E26.48621
G1 X153.238 Y144.95 E26.49411
G1 X152.737 Y145.394 E26.52751
G1 X152.187 Y145.775 E26.56089
G1 X151.596 Y146.088 E26.59426
G1 X150.972 Y146.328 E26.62761
G1 X150.323 Y146.492 E26.66101
G1 X149.47 Y146.587 E26.70383
G1 X148.696 Y146.589 E26.74244
G1 X148.537 Y146.585 E26.75038
G1 X147.41 Y146.537 E26.80665
G1 X144.679 Y146.46 E26.94296
G1 X142.024 Y146.46 E27.07542
G1 X139.313 Y146.537 E27.21072
G1 X138.341 Y146.584 E27.25927
G1 X137.78 Y146.594 E27.28727
G1 X137.441 Y146.589 E27.30418
G1 X136.769 Y146.539 E27.3378
G1 X136.164 Y146.424 E27.36852
G1 X135.898 Y146.358 E27.3822
G1 X133.291 Y145.758 E27.51566
G1 X130.648 Y145.225 E27.65018
G1 X128.054 Y144.783 E27.78146
G1 X125.408 Y144.407 E27.91479
G1 X122.751 Y144.105 E28.0482
G1 X120.077 Y143.877 E28.18209
G1 X117.428 Y143.727 E28.31447
G1 X114.742 Y143.651 E28.44852
G1 X112.088 Y143.651 E28.58093
G1 X109.403 Y143.727 E28.71494
G1 X106.746 Y143.878 E28.84771
G1 X104.072 Y144.104 E28.9816
G1 X101.444 Y144.403 E29.11355
G1 X98.799 Y144.779 E29.24684
G1 X96.13 Y145.236 E29.38193
G1 X93.562 Y145.752 E29.51261
G1 X91.504 Y146.218 E29.61789
G1 X90.565 Y146.44 E29.66602
G1 X89.906 Y146.555 E29.6994
G1 X89.325 Y146.592 E29.72844
G1 X88.694 Y146.589 E29.75993
G1 X88.535 Y146.585 E29.76786
G1 X87.408 Y146.537 E29.82414
G1 X84.677 Y146.46 E29.96044
G1 X82.024 Y146.46 E30.0928
G1 X79.302 Y146.537 E30.22866
G1 X78.363 Y146.582 E30.27556
G1 X77.766 Y146.594 E30.30535
G1 X77.42 Y146.588 E30.32261
G1 X76.753 Y146.537 E30.35599
G1 X76.097 Y146.406 E30.38936
G1 X75.725 Y146.294 E30.40874
G1 X75.136 Y146.095 E30.43976
G1 X73.55 Y145.536 E30.52366
G1 X71.031 Y144.725 E30.65568
G1 X68.456 Y143.978 E30.78945
G1 X65.856 Y143.301 E30.92349
G1 X63.221 Y142.694 E31.05839
G1 X60.623 Y142.175 E31.19056
G1 X59.598 Y141.984 E31.24258
G1 X58.949 Y141.823 E31.27594
G1 X58.324 Y141.585 E31.30931
G1 X57.731 Y141.275 E31.34269
G1 X57.18 Y140.895 E31.37608
G1 X56.681 Y140.456 E31.40924
G1 X56.568 Y140.344 E31.41718
G1 X56.122 Y139.846 E31.45053
G1 X55.738 Y139.298 E31.48392
G1 X55.423 Y138.708 E31.51728
G1 X55.18 Y138.084 E31.55069
G1 X55.013 Y137.436 E31.58408
G1 X54.913 Y136.556 E31.62826
G1 X54.9 Y135.829 E31.66454
G1 X54.9 Y131.133 E31.89882
G1 X54.902 Y130.057 E31.95251
G1 X54.9 Y129.83 E31.96383
G1 X54.9 Y79.882 E34.45575
G1 X54.902 Y78.805 E34.50948
G1 X54.9 Y78.578 E34.52081
G1 X54.901 Y74.219 E34.73828
G1 X54.911 Y73.537 E34.77231
G1 X54.96 Y72.87 E34.80567
G1 X55.089 Y72.213 E34.83908
G1 X55.296 Y71.577 E34.87244
G1 X55.576 Y70.97 E34.90579
G1 X55.928 Y70.4 E34.93922
G1 X56.344 Y69.877 E34.97256
G1 X57.022 Y69.238 E35.01904
G1 X57.174 Y69.117 E35.02873
M204 S3000
M205 X10 Y10
G0 F3000 X57.423 Y69.43
M204 S1800
M205 X8 Y8
G1 F2400 X57.952 Y69.06 E35.06094
G1 X58.522 Y68.759 E35.0931
G1 X59.124 Y68.531 E35.12521
G1 X59.748 Y68.379 E35.15725
G1 X60.152 Y68.307 E35.17773
G1 X62.846 Y67.784 E35.31464
G1 X65.464 Y67.199 E35.44848
G1 X68.026 Y66.55 E35.58033
G1 X70.647 Y65.805 E35.71627
G1 X73.189 Y65.005 E35.84923
G1 X75.823 Y64.095 E35.98826
G1 X76.445 Y63.923 E36.02045
G1 X77.344 Y63.813 E36.06564
G1 X78.1 Y63.811 E36.10336
G1 X78.248 Y63.815 E36.11074
G1 X79.362 Y63.862 E36.16637
G1 X82.112 Y63.94 E36.30362
G1 X84.787 Y63.94 E36.43708
G1 X87.482 Y63.864 E36.57159
G1 X88.449 Y63.817 E36.61989
G1 X89.013 Y63.806 E36.64803
G1 X89.354 Y63.811 E36.66505
G1 X89.997 Y63.86 E36.69722
G1 X90.507 Y63.957 E36.72312
G1 X90.765 Y64.02 E36.73637
G1 X93.455 Y64.639 E36.87408
G1 X96.071 Y65.166 E37.00722
G1 X98.695 Y65.613 E37.14001
G1 X101.331 Y65.988 E37.27285
G1 X104.037 Y66.296 E37.40872
G1 X106.667 Y66.52 E37.54041
G1 X109.372 Y66.673 E37.67558
G1 X112.047 Y66.749 E37.80909
G1 X114.723 Y66.749 E37.94259
G1 X117.397 Y66.673 E38.07605
G1 X120.11 Y66.52 E38.21162
G1 X122.735 Y66.297 E38.34306
G1 X125.421 Y65.992 E38.47792
G1 X128.094 Y65.611 E38.61263
G1 X130.704 Y65.165 E38.74473
G1 X133.326 Y64.638 E38.87815
G1 X135.384 Y64.172 E38.98343
G1 X136.327 Y63.949 E39.03177
G1 X136.962 Y63.84 E39.06392
G1 X137.489 Y63.808 E39.09026
G1 X138.1 Y63.811 E39.12074
G1 X138.248 Y63.815 E39.12813
G1 X139.362 Y63.862 E39.18375
G1 X142.112 Y63.94 E39.32101
G1 X144.787 Y63.94 E39.45446
G1 X147.482 Y63.864 E39.58897
G1 X148.449 Y63.817 E39.63727
G1 X149.013 Y63.806 E39.66541
G1 X149.354 Y63.811 E39.68243
G1 X149.997 Y63.86 E39.7146
G1 X150.629 Y63.988 E39.74677
G1 X151.24 Y64.194 E39.77894
G1 X151.821 Y64.474 E39.81112
G1 X152.362 Y64.823 E39.84324
G1 X152.971 Y65.349 E39.88338
G1 X153.083 Y65.462 E39.89132
G1 X153.508 Y65.948 E39.92353
G1 X153.869 Y66.481 E39.95565
G1 X154.162 Y67.056 E39.98784
G1 X154.381 Y67.662 E40.01999
G1 X154.523 Y68.291 E40.05216
G1 X154.586 Y68.91 E40.0832
G1 X154.595 Y69.181 E40.09673
G1 X154.604 Y69.912 E40.1332
G1 X154.615 Y70.128 E40.14399
G1 X154.661 Y72.7 E40.27233
G1 X154.695 Y73.682 E40.32135
G1 X154.7 Y74.064 E40.34041
G1 X154.7 Y135.709 E43.4159
G1 X154.688 Y136.518 E43.45626
G1 X154.61 Y139.288 E43.59451
G1 X154.605 Y139.797 E43.61991
G1 X154.589 Y140.95 E43.67744
G1 X154.541 Y141.593 E43.7096
G1 X154.413 Y142.225 E43.74178
G1 X154.207 Y142.836 E43.77394
G1 X153.928 Y143.417 E43.8061
G1 X153.579 Y143.959 E43.83826
G1 X153.067 Y144.555 E43.87746
G1 X152.955 Y144.667 E43.88536
G1 X152.472 Y145.094 E43.91753
G1 X151.939 Y145.457 E43.9497
G1 X151.366 Y145.752 E43.98185
G1 X150.761 Y145.974 E44.014
G1 X150.133 Y146.119 E44.04616
G1 X149.456 Y146.187 E44.0801
G1 X148.701 Y146.189 E44.11777
G1 X148.554 Y146.185 E44.12511
G1 X147.44 Y146.138 E44.18074
G1 X144.69 Y146.06 E44.31799
G1 X142.013 Y146.06 E44.45155
G1 X139.328 Y146.136 E44.58555
G1 X138.443 Y146.18 E44.62976
G1 X137.786 Y146.194 E44.66255
G1 X137.447 Y146.189 E44.67946
G1 X136.822 Y146.142 E44.71073
G1 X136.26 Y146.036 E44.73926
G1 X136.029 Y145.979 E44.75113
G1 X133.345 Y145.361 E44.88854
G1 X130.729 Y144.834 E45.02168
G1 X128.105 Y144.387 E45.15448
G1 X125.469 Y144.012 E45.28731
G1 X122.763 Y143.704 E45.42318
G1 X120.133 Y143.48 E45.55487
G1 X117.428 Y143.327 E45.69004
G1 X114.753 Y143.251 E45.82355
G1 X112.077 Y143.251 E45.95706
G1 X109.403 Y143.327 E46.09052
G1 X106.69 Y143.48 E46.22608
G1 X104.065 Y143.703 E46.35752
G1 X101.379 Y144.008 E46.49238
G1 X98.706 Y144.389 E46.62709
G1 X96.096 Y144.835 E46.75919
G1 X93.474 Y145.362 E46.89262
G1 X91.416 Y145.828 E46.99789
G1 X90.473 Y146.051 E47.04623
G1 X89.838 Y146.16 E47.07838
G1 X89.311 Y146.192 E47.10472
G1 X88.7 Y146.189 E47.1352
G1 X88.552 Y146.185 E47.14259
G1 X87.438 Y146.138 E47.19821
G1 X84.688 Y146.06 E47.33547
G1 X82.013 Y146.06 E47.46892
G1 X79.318 Y146.136 E47.60343
G1 X78.351 Y146.183 E47.65173
G1 X77.773 Y146.194 E47.68057
G1 X77.427 Y146.188 E47.69784
G1 X76.784 Y146.137 E47.73002
G1 X75.853 Y145.915 E47.77777
G1 X75.269 Y145.718 E47.80852
G1 X73.668 Y145.153 E47.89322
G1 X71.159 Y144.346 E48.02471
G1 X68.554 Y143.59 E48.16004
G1 X65.942 Y142.91 E48.29469
G1 X63.324 Y142.307 E48.42873
G1 X60.696 Y141.782 E48.56243
G1 X59.671 Y141.591 E48.61445
G1 X59.046 Y141.434 E48.6466
G1 X58.445 Y141.201 E48.67875
G1 X57.878 Y140.895 E48.7109
G1 X57.352 Y140.522 E48.74307
G1 X56.962 Y140.172 E48.76921
G1 X56.849 Y140.06 E48.77715
G1 X56.421 Y139.579 E48.80927
G1 X56.055 Y139.048 E48.84145
G1 X55.757 Y138.476 E48.87363
G1 X55.533 Y137.872 E48.90576
G1 X55.385 Y137.245 E48.93791
G1 X55.313 Y136.543 E48.97311
G1 X55.3 Y135.825 E49.00894
G1 X55.3 Y131.133 E49.24302
G1 X55.302 Y130.057 E49.29671
G1 X55.3 Y129.828 E49.30813
