;FLAVOR:Marlin
;TIME:3599
;Filament used: 3.89155m
;Layer height: 0.3
;MINX:67.311
;MINY:67.899
;MINZ:0.3
;MAXX:153.311
;MAXY:152.505
;MAXZ:20.175
;Generated with Cura_SteamEngine 4.12.1
M82 ;absolute extrusion mode
G21 ;metric values
G90 ;absolute positioning
M82 ;set extruder to absolute mode
M107 ;start with the fan off

M104 S200 T0 ; start heating T0 to what is set in Cura
M140 S60 ; start heating the bed to what is set in Cura
M190 S60 ; start heating the bed to what is set in Cura
M109 S200 T0 ; start heating T0 to what is set in Cura

G28 X0 Y0 ;move X/Y to min endstops
G28 Z0 ;move Z to min endstops
G1 Z15.0 F2400 ;move the platform down 15mm
G92 E0 ;zero the extruded length
G1 F200 E3 ;extrude 3mm of feed stock
G92 E0 ;zero the extruded length again
G1 F2400
G0 Y20 F2400
M117 Printing...
G5
G92 E0
G92 E0
G1 F2400 E-6
;LAYER_COUNT:67
;LAYER:0
M107
M204 S3000
M205 X10 Y10
G1 F600 Z0.375
G0 F3000 X83.079 Y81.827 Z0.375
M204 S1800
M205 X8 Y8
;TYPE:SKIRT
G1 F600 Z0.3
G1 F2400 E0
G1 X83.566 Y81.334 E0.03457
G1 X84.106 Y80.901 E0.0691
G1 X84.692 Y80.532 E0.10365
G1 X85.44 Y80.185 E0.14479
G1 X86.017 Y79.964 E0.17562
G1 X88.541 Y78.953 E0.31127
G1 X90.964 Y77.901 E0.44305
G1 X93.411 Y76.757 E0.57782
G1 X95.744 Y75.585 E0.70807
G1 X98.126 Y74.301 E0.84308
G1 X100.498 Y72.934 E0.97966
G1 X100.871 Y72.712 E1.00132
G1 X101.468 Y72.401 E1.0349
G1 X102.552 Y71.911 E1.09425
G1 X103.151 Y71.651 E1.12683
G1 X105.538 Y70.533 E1.25833
G1 X107.935 Y69.326 E1.39222
G1 X108.338 Y69.109 E1.41506
G1 X109.325 Y68.595 E1.47058
G1 X109.956 Y68.311 E1.5051
G1 X110.617 Y68.102 E1.53969
G1 X111.296 Y67.971 E1.57419
G1 X111.962 Y67.918 E1.60752
G1 X112.544 Y67.905 E1.63656
G1 X113.176 Y67.911 E1.66809
G1 X115.911 Y67.911 E1.80454
G1 X116.873 Y67.899 E1.85254
G1 X117.384 Y67.905 E1.87804
G1 X118.074 Y67.954 E1.91255
G1 X118.755 Y68.084 E1.94714
G1 X119.416 Y68.29 E1.98168
G1 X120.049 Y68.572 E2.01625
G1 X120.645 Y68.924 E2.05078
G1 X121.196 Y69.343 E2.08532
G1 X121.768 Y69.901 E2.12519
G1 X122.231 Y70.418 E2.15981
G1 X122.515 Y70.754 E2.18176
G1 X122.927 Y71.311 E2.21632
G1 X123.298 Y71.949 E2.25314
G1 X124.624 Y74.318 E2.38859
G1 X125.998 Y76.615 E2.52212
G1 X127.417 Y78.843 E2.65391
G1 X128.903 Y81.039 E2.7862
G1 X130.473 Y83.221 E2.92031
G1 X132.073 Y85.315 E3.05178
G1 X133.748 Y87.385 E3.18463
G1 X135.46 Y89.385 E3.31597
G1 X137.269 Y91.378 E3.45026
G1 X139.117 Y93.301 E3.58332
G1 X140.999 Y95.154 E3.71508
G1 X142.959 Y96.978 E3.84866
G1 X144.933 Y98.71 E3.97968
G1 X146.977 Y100.406 E4.11218
G1 X150.198 Y102.891 E4.31515
G1 X150.867 Y103.386 E4.35667
G1 X151.4 Y103.829 E4.39124
G1 X151.877 Y104.33 E4.42576
G1 X152.294 Y104.884 E4.46035
G1 X152.644 Y105.481 E4.49488
G1 X152.923 Y106.115 E4.52943
G1 X153.127 Y106.777 E4.56399
G1 X153.254 Y107.458 E4.59855
G1 X153.298 Y108.026 E4.62698
G1 X153.311 Y108.535 E4.65238
G1 X153.31 Y109.662 E4.70861
G1 X153.296 Y110.567 E4.75376
G1 X153.238 Y111.944 E4.82252
G1 X153.162 Y114.659 E4.95803
G1 X153.162 Y117.29 E5.08929
G1 X153.24 Y120.015 E5.22529
G1 X153.291 Y121.037 E5.27634
G1 X153.308 Y121.583 E5.3036
G1 X153.311 Y121.77 E5.31293
G1 X153.31 Y145.736 E6.5086
G1 X153.3 Y146.465 E6.54497
G1 X153.251 Y147.156 E6.57953
G1 X153.122 Y147.837 E6.61411
G1 X152.916 Y148.498 E6.64865
G1 X152.635 Y149.131 E6.6832
G1 X152.283 Y149.727 E6.71774
G1 X151.864 Y150.279 E6.75231
G1 X151.472 Y150.699 E6.78097
G1 X150.959 Y151.165 E6.81555
G1 X150.396 Y151.568 E6.85009
G1 X149.79 Y151.903 E6.88464
G1 X149.149 Y152.166 E6.91921
G1 X148.483 Y152.354 E6.95373
G1 X147.799 Y152.464 E6.9883
G1 X147.241 Y152.497 E7.01618
G1 X146.705 Y152.505 E7.04293
G1 X138.049 Y152.504 E7.47478
G1 X137.349 Y152.494 E7.5097
G1 X136.48 Y152.419 E7.55322
G1 X135.82 Y152.276 E7.58691
G1 X135.291 Y152.13 E7.61429
G1 X132.689 Y151.453 E7.74843
G1 X130.049 Y150.845 E7.88358
G1 X127.488 Y150.334 E8.01387
G1 X124.863 Y149.885 E8.14673
G1 X122.245 Y149.513 E8.27866
G1 X119.597 Y149.213 E8.41161
G1 X116.941 Y148.987 E8.5446
G1 X114.281 Y148.838 E8.67752
G1 X111.616 Y148.763 E8.81053
G1 X108.987 Y148.763 E8.94169
G1 X106.288 Y148.84 E9.0764
G1 X103.655 Y148.99 E9.20797
G1 X101.006 Y149.216 E9.34061
G1 X98.382 Y149.515 E9.47237
G1 X95.731 Y149.892 E9.60596
G1 X93.137 Y150.339 E9.73728
G1 X90.476 Y150.873 E9.87269
G1 X87.969 Y151.449 E10.00102
G1 X85.906 Y151.979 E10.10728
G1 X84.754 Y152.288 E10.16679
G1 X84.076 Y152.429 E10.20134
G1 X83.463 Y152.487 E10.23206
G1 X82.705 Y152.505 E10.26989
G1 X74.05 Y152.504 E10.70169
G1 X73.348 Y152.494 E10.73671
G1 X72.657 Y152.445 E10.77127
G1 X71.976 Y152.316 E10.80585
G1 X71.315 Y152.109 E10.84041
G1 X70.683 Y151.827 E10.87494
G1 X70.086 Y151.475 E10.90951
G1 X69.535 Y151.056 E10.94405
G1 X69.078 Y150.626 E10.97535
G1 X68.618 Y150.109 E11.00988
G1 X68.22 Y149.542 E11.04444
G1 X67.89 Y148.933 E11.079
G1 X67.632 Y148.29 E11.11356
G1 X67.45 Y147.622 E11.1481
G1 X67.347 Y146.937 E11.18266
G1 X67.316 Y146.301 E11.21443
G1 X67.311 Y145.849 E11.23698
G1 X67.312 Y122.068 E12.42342
G1 X67.326 Y121.185 E12.46748
G1 X67.383 Y119.844 E12.53444
G1 X67.461 Y117.129 E12.66995
G1 X67.461 Y114.499 E12.80116
G1 X67.385 Y111.78 E12.93687
G1 X67.327 Y110.611 E12.99526
G1 X67.311 Y110.001 E13.0257
G1 X67.312 Y108.801 E13.08557
G1 X67.322 Y108.121 E13.1195
G1 X67.372 Y107.43 E13.15406
G1 X67.501 Y106.75 E13.18859
G1 X67.708 Y106.089 E13.22315
G1 X67.99 Y105.456 E13.25772
G1 X68.342 Y104.86 E13.29226
G1 X68.798 Y104.254 E13.33009
G1 X70.203 Y102.511 E13.44179
G1 X71.816 Y100.391 E13.57469
G1 X73.375 Y98.218 E13.70811
G1 X74.85 Y96.032 E13.83968
G1 X76.269 Y93.798 E13.97172
G1 X77.634 Y91.508 E14.10472
G1 X78.932 Y89.183 E14.23757
G1 X80.163 Y86.823 E14.37036
G1 X81.352 Y84.378 E14.506
G1 X81.558 Y83.938 E14.53024
G1 X81.888 Y83.329 E14.5648
G1 X82.379 Y82.647 E14.60672
G1 X82.796 Y82.149 E14.63913
G1 X83.079 Y81.827 E14.66052
M204 S3000
M205 X10 Y10
G0 F3000 X83.38 Y82.091
M204 S1800
M205 X8 Y8
G1 F2400 X83.851 Y81.616 E14.69389
G1 X84.375 Y81.2 E14.72727
G1 X84.945 Y80.85 E14.76064
G1 X85.583 Y80.559 E14.79562
G1 X86.16 Y80.338 E14.82645
G1 X88.682 Y79.328 E14.96199
G1 X91.158 Y78.253 E15.09666
G1 X93.539 Y77.14 E15.22778
G1 X95.956 Y75.925 E15.36275
G1 X98.31 Y74.656 E15.49617
G1 X100.697 Y73.281 E15.6336
G1 X101.076 Y73.055 E15.65561
G1 X101.632 Y72.765 E15.6869
G1 X102.711 Y72.278 E15.74596
G1 X103.315 Y72.016 E15.77881
G1 X105.709 Y70.894 E15.91071
G1 X108.126 Y69.677 E16.04572
G1 X108.522 Y69.464 E16.06815
G1 X109.509 Y68.95 E16.12367
G1 X110.12 Y68.677 E16.15706
G1 X110.759 Y68.479 E16.19043
G1 X111.417 Y68.358 E16.22381
G1 X111.971 Y68.318 E16.25152
G1 X112.553 Y68.305 E16.28056
G1 X113.171 Y68.311 E16.3114
G1 X115.916 Y68.311 E16.44835
G1 X116.878 Y68.299 E16.49634
G1 X117.378 Y68.305 E16.52129
G1 X118.045 Y68.354 E16.55466
G1 X118.702 Y68.483 E16.58806
G1 X119.338 Y68.689 E16.62141
G1 X119.946 Y68.969 E16.65481
G1 X120.515 Y69.32 E16.68816
G1 X121.039 Y69.737 E16.72157
G1 X121.47 Y70.168 E16.75198
G1 X121.933 Y70.685 E16.78661
G1 X122.208 Y71.01 E16.80785
G1 X122.605 Y71.549 E16.84125
G1 X122.939 Y72.127 E16.87455
G1 X124.284 Y74.528 E17.01185
G1 X125.651 Y76.814 E17.14474
G1 X127.081 Y79.061 E17.27762
G1 X128.591 Y81.291 E17.41198
G1 X130.13 Y83.43 E17.54344
G1 X131.778 Y85.587 E17.67887
G1 X133.434 Y87.634 E17.81023
G1 X135.176 Y89.668 E17.94384
G1 X136.962 Y91.636 E18.07643
G1 X138.83 Y93.581 E18.21097
G1 X140.711 Y95.432 E18.34263
G1 X142.687 Y97.271 E18.4773
G1 X144.698 Y99.035 E18.61076
G1 X146.73 Y100.721 E18.74249
G1 X149.925 Y103.187 E18.94384
G1 X150.63 Y103.708 E18.98758
G1 X151.143 Y104.137 E19.02094
G1 X151.601 Y104.624 E19.05429
G1 X151.998 Y105.162 E19.08765
G1 X152.328 Y105.744 E19.12103
G1 X152.587 Y106.362 E19.15446
G1 X152.77 Y107.005 E19.18781
G1 X152.874 Y107.666 E19.2212
G1 X152.908 Y108.362 E19.25596
G1 X152.911 Y108.535 E19.26459
G1 X152.91 Y109.656 E19.32052
G1 X152.9 Y110.39 E19.35714
G1 X152.896 Y110.55 E19.36513
G1 X152.839 Y111.891 E19.43209
G1 X152.762 Y114.647 E19.56964
G1 X152.762 Y117.302 E19.7021
G1 X152.839 Y120 E19.83676
G1 X152.887 Y120.94 E19.88372
G1 X152.908 Y121.596 E19.91646
G1 X152.911 Y121.77 E19.92514
G1 X152.91 Y145.731 E21.12056
G1 X152.9 Y146.46 E21.15694
G1 X152.851 Y147.127 E21.1903
G1 X152.723 Y147.784 E21.2237
G1 X152.517 Y148.42 E21.25705
G1 X152.237 Y149.028 E21.29045
G1 X151.886 Y149.598 E21.32384
G1 X151.296 Y150.307 E21.36986
G1 X151.186 Y150.419 E21.37769
G1 X150.69 Y150.867 E21.41104
G1 X150.143 Y151.253 E21.44444
G1 X149.555 Y151.572 E21.47781
G1 X148.933 Y151.817 E21.51116
G1 X148.285 Y151.987 E21.54459
G1 X147.378 Y152.092 E21.59014
G1 X146.7 Y152.105 E21.62397
G1 X138.055 Y152.104 E22.05527
G1 X137.355 Y152.094 E22.0902
G1 X136.543 Y152.023 E22.13086
G1 X135.926 Y151.89 E22.16235
G1 X135.416 Y151.749 E22.18875
G1 X132.774 Y151.062 E22.32495
G1 X130.151 Y150.458 E22.45923
G1 X127.562 Y149.941 E22.59095
G1 X124.91 Y149.488 E22.72517
G1 X122.28 Y149.114 E22.8577
G1 X119.64 Y148.814 E22.99026
G1 X116.964 Y148.587 E23.12425
G1 X114.313 Y148.438 E23.25672
G1 X111.628 Y148.363 E23.39072
G1 X108.975 Y148.363 E23.52308
G1 X106.289 Y148.44 E23.65714
G1 X103.634 Y148.591 E23.78981
G1 X100.963 Y148.819 E23.92356
G1 X98.317 Y149.12 E24.05642
G1 X95.673 Y149.497 E24.18966
G1 X93.027 Y149.952 E24.32361
G1 X90.455 Y150.468 E24.45448
G1 X87.814 Y151.075 E24.58968
G1 X85.86 Y151.578 E24.69034
G1 X84.651 Y151.902 E24.75279
G1 X83.995 Y152.036 E24.78619
G1 X83.446 Y152.088 E24.8137
G1 X82.7 Y152.105 E24.85093
G1 X74.055 Y152.104 E25.28223
G1 X73.353 Y152.094 E25.31726
G1 X72.686 Y152.045 E25.35062
G1 X72.03 Y151.916 E25.38398
G1 X71.393 Y151.71 E25.41738
G1 X70.786 Y151.43 E25.45073
G1 X70.216 Y151.079 E25.48413
G1 X69.473 Y150.455 E25.53253
G1 X69.361 Y150.343 E25.54044
G1 X68.917 Y149.842 E25.57383
G1 X68.536 Y149.292 E25.60721
G1 X68.223 Y148.701 E25.64058
G1 X67.983 Y148.077 E25.67393
G1 X67.819 Y147.428 E25.70733
G1 X67.724 Y146.572 E25.7503
G1 X67.711 Y145.845 E25.78657
G1 X67.712 Y122.073 E26.97256
G1 X67.722 Y121.362 E27.00804
G1 X67.726 Y121.202 E27.01602
G1 X67.783 Y119.872 E27.08244
G1 X67.861 Y117.141 E27.21875
G1 X67.861 Y114.487 E27.35115
G1 X67.786 Y111.794 E27.48556
G1 X67.731 Y110.711 E27.53966
G1 X67.714 Y110.171 E27.56662
G1 X67.711 Y110.001 E27.5751
G1 X67.712 Y108.807 E27.63467
G1 X67.722 Y108.127 E27.6686
G1 X67.771 Y107.459 E27.70201
G1 X67.9 Y106.803 E27.73537
G1 X68.107 Y106.167 E27.76874
G1 X68.388 Y105.559 E27.80215
G1 X68.916 Y104.752 E27.85026
G1 X69.16 Y104.441 E27.86999
G1 X70.531 Y102.742 E27.9789
G1 X72.117 Y100.658 E28.10956
G1 X73.698 Y98.453 E28.24492
G1 X75.186 Y96.249 E28.3776
G1 X76.623 Y93.986 E28.51134
G1 X77.969 Y91.729 E28.64244
G1 X79.293 Y89.357 E28.77797
G1 X80.521 Y87.002 E28.91047
G1 X81.692 Y84.593 E29.04411
G1 X81.92 Y84.108 E29.07084
G1 X82.24 Y83.52 E29.10424
G1 X82.686 Y82.903 E29.14222
G1 X83.097 Y82.413 E29.17413
G1 X83.38 Y82.091 E29.19552
M204 S3000
M205 X10 Y10
G0 F3000 X83.68 Y82.355
M204 S1800
M205 X8 Y8
G1 F2400 X84.135 Y81.898 E29.22769
G1 X84.643 Y81.501 E29.25986
G1 X85.196 Y81.17 E29.29201
G1 X85.726 Y80.932 E29.321
G1 X86.326 Y80.702 E29.35305
G1 X88.841 Y79.695 E29.48821
G1 X91.307 Y78.624 E29.62234
G1 X93.752 Y77.481 E29.757
G1 X96.112 Y76.295 E29.88877
G1 X98.52 Y74.997 E30.02525
G1 X100.88 Y73.637 E30.16114
G1 X101.28 Y73.399 E30.18436
G1 X101.797 Y73.13 E30.21344
G1 X102.87 Y72.645 E30.27218
G1 X103.478 Y72.381 E30.30525
G1 X105.909 Y71.242 E30.43919
G1 X108.274 Y70.051 E30.57129
G1 X108.707 Y69.819 E30.5958
G1 X109.694 Y69.305 E30.65132
G1 X110.283 Y69.043 E30.68348
G1 X110.9 Y68.856 E30.71565
G1 X111.536 Y68.747 E30.74784
G1 X111.98 Y68.718 E30.77004
G1 X112.562 Y68.705 E30.79908
G1 X113.165 Y68.711 E30.82917
G1 X115.921 Y68.711 E30.96666
G1 X116.883 Y68.699 E31.01466
G1 X117.372 Y68.705 E31.03906
G1 X118.015 Y68.754 E31.07123
G1 X118.647 Y68.882 E31.1034
G1 X119.258 Y69.087 E31.13556
G1 X119.839 Y69.367 E31.16773
G1 X120.381 Y69.716 E31.19989
G1 X120.875 Y70.13 E31.23205
G1 X121.172 Y70.435 E31.25329
G1 X121.635 Y70.952 E31.28791
G1 X121.901 Y71.266 E31.30845
G1 X122.282 Y71.786 E31.34061
G1 X122.59 Y72.322 E31.37145
G1 X123.934 Y74.723 E31.50873
G1 X125.303 Y77.012 E31.64179
G1 X126.767 Y79.31 E31.77773
G1 X128.25 Y81.501 E31.90972
G1 X129.82 Y83.683 E32.04383
G1 X131.451 Y85.818 E32.17787
G1 X133.133 Y87.897 E32.31129
G1 X134.877 Y89.934 E32.44507
G1 X136.665 Y91.904 E32.5778
G1 X138.561 Y93.878 E32.71436
G1 X140.44 Y95.727 E32.84588
G1 X142.416 Y97.565 E32.98051
G1 X144.424 Y99.328 E33.11383
G1 X146.467 Y101.022 E33.24623
G1 X149.698 Y103.516 E33.44986
G1 X150.392 Y104.029 E33.49292
G1 X150.886 Y104.444 E33.52511
G1 X151.324 Y104.916 E33.55723
G1 X151.701 Y105.439 E33.5894
G1 X152.01 Y106.005 E33.62157
G1 X152.247 Y106.605 E33.65375
G1 X152.407 Y107.229 E33.68589
G1 X152.499 Y108.051 E33.72716
G1 X152.511 Y108.535 E33.75131
G1 X152.511 Y109.651 E33.80699
G1 X152.501 Y110.385 E33.84361
G1 X152.439 Y111.88 E33.91826
G1 X152.362 Y114.636 E34.05581
G1 X152.362 Y117.313 E34.18937
G1 X152.44 Y120.034 E34.32518
G1 X152.491 Y121.062 E34.37653
G1 X152.508 Y121.608 E34.40378
G1 X152.511 Y121.77 E34.41186
G1 X152.511 Y145.725 E35.60698
G1 X152.501 Y146.454 E35.64336
G1 X152.452 Y147.097 E35.67553
G1 X152.324 Y147.729 E35.7077
G1 X152.119 Y148.34 E35.73985
G1 X151.839 Y148.921 E35.77203
G1 X151.49 Y149.463 E35.80419
G1 X151.011 Y150.027 E35.84111
G1 X150.901 Y150.139 E35.84894
G1 X150.422 Y150.57 E35.88109
G1 X149.893 Y150.938 E35.91324
G1 X149.322 Y151.238 E35.94542
G1 X148.719 Y151.466 E35.97758
G1 X148.092 Y151.616 E36.00974
G1 X147.364 Y151.692 E36.04626
G1 X146.696 Y151.705 E36.07959
G1 X138.061 Y151.704 E36.5104
G1 X137.361 Y151.694 E36.54532
G1 X136.605 Y151.628 E36.58318
G1 X136.033 Y151.505 E36.61237
G1 X135.512 Y151.361 E36.63934
G1 X132.851 Y150.669 E36.77651
G1 X130.254 Y150.07 E36.90948
G1 X127.636 Y149.548 E37.04266
G1 X124.962 Y149.091 E37.178
G1 X122.345 Y148.719 E37.30988
G1 X119.65 Y148.413 E37.4452
G1 X117.016 Y148.19 E37.57708
G1 X114.313 Y148.038 E37.71214
G1 X111.639 Y147.963 E37.8456
G1 X108.964 Y147.963 E37.97906
G1 X106.289 Y148.04 E38.11257
G1 X103.578 Y148.194 E38.24804
G1 X100.951 Y148.418 E38.37958
G1 X98.251 Y148.725 E38.51515
G1 X95.62 Y149.1 E38.64774
G1 X92.958 Y149.558 E38.7825
G1 X90.351 Y150.081 E38.91515
G1 X87.739 Y150.682 E39.04887
G1 X85.744 Y151.195 E39.15164
G1 X84.547 Y151.516 E39.21347
G1 X83.915 Y151.644 E39.24564
G1 X83.268 Y151.695 E39.27802
G1 X82.696 Y151.705 E39.30656
G1 X74.061 Y151.704 E39.73736
G1 X73.359 Y151.694 E39.77239
G1 X72.716 Y151.645 E39.80456
G1 X72.084 Y151.517 E39.83673
G1 X71.473 Y151.312 E39.86888
G1 X70.892 Y151.032 E39.90106
G1 X70.35 Y150.683 E39.93322
G1 X69.756 Y150.172 E39.97231
G1 X69.644 Y150.06 E39.98022
G1 X69.217 Y149.577 E40.01238
G1 X68.854 Y149.044 E40.04455
G1 X68.559 Y148.471 E40.07671
G1 X68.337 Y147.866 E40.10886
G1 X68.192 Y147.238 E40.14101
G1 X68.124 Y146.559 E40.17506
G1 X68.111 Y145.841 E40.21088
G1 X68.112 Y122.079 E41.39638
G1 X68.122 Y121.368 E41.43185
G1 X68.126 Y121.219 E41.43929
G1 X68.182 Y119.901 E41.5051
G1 X68.261 Y117.152 E41.64231
G1 X68.261 Y114.476 E41.77581
G1 X68.184 Y111.735 E41.91262
G1 X68.126 Y110.586 E41.97001
G1 X68.111 Y110.001 E41.99921
G1 X68.112 Y108.813 E42.05848
G1 X68.122 Y108.133 E42.09241
G1 X68.171 Y107.49 E42.12458
G1 X68.3 Y106.858 E42.15676
G1 X68.505 Y106.247 E42.18891
G1 X68.785 Y105.666 E42.22109
G1 X69.23 Y104.998 E42.26113
G1 X69.471 Y104.693 E42.28053
G1 X70.831 Y103.007 E42.3886
G1 X72.455 Y100.874 E42.52235
G1 X74.027 Y98.681 E42.65696
G1 X75.512 Y96.482 E42.78934
G1 X76.945 Y94.225 E42.92272
G1 X78.35 Y91.868 E43.05962
G1 X79.624 Y89.585 E43.19005
G1 X80.891 Y87.157 E43.32669
G1 X82.043 Y84.788 E43.45811
G1 X82.282 Y84.278 E43.48621
G1 X82.591 Y83.712 E43.51838
G1 X82.994 Y83.159 E43.55252
G1 X83.397 Y82.677 E43.58387
G1 X83.68 Y82.355 E43.60525
M204 S3000
M205 X10 Y10
G1 F2400 E37.60525
G1 F600 Z0.375
G0 F3000 X83.111 Y111.105 Z0.375
M204 S1800
M205 X8 Y8
;TYPE:SUPPORT
G1 F600 Z0.3
G1 F2400 E43.60525
G1 F1500 X83.111 Y146.305 E45.36139
