;FLAVOR:Marlin
;TIME:2892
;Filament used: 3.13068m
;Layer height: 0.3
;MINX:61.998
;MINY:67.899
;MINZ:0.3
;MAXX:148.002
;MAXY:134.505
;MAXZ:20.175
;Generated with Cura_SteamEngine 4.12.1
M82 ;absolute extrusion mode
G21 ;metric values
G90 ;absolute positioning
M82 ;set extruder to absolute mode
M107 ;start with the fan off

M104 S200 T0 ; start heating T0 to what is set in Cura
M140 S60 ; start heating the bed to what is set in Cura
M190 S60 ; start heating the bed to what is set in Cura
M109 S200 T0 ; start heating T0 to what is set in Cura

G28 X0 Y0 ;move X/Y to min endstops
G28 Z0 ;move Z to min endstops
G1 Z15.0 F2400 ;move the platform down 15mm
G92 E0 ;zero the extruded length
G1 F200 E3 ;extrude 3mm of feed stock
G92 E0 ;zero the extruded length again
G1 F2400
G0 Y20 F2400
M117 Printing...
G5
G92 E0
G92 E0
G1 F2400 E-6
;LAYER_COUNT:67
;LAYER:0
M107
M204 S3000
M205 X10 Y10
G1 F600 Z0.375
G0 F3000 X84.125 Y73.714 Z0.375
M204 S1800
M205 X8 Y8
;TYPE:SKIRT
G1 F600 Z0.3
G1 F2400 E0
G1 X84.727 Y73.092 E0.04319
G1 X85.274 Y72.603 E0.07979
G1 X85.587 Y72.337 E0.10028
G1 X86.143 Y71.924 E0.13484
G1 X86.742 Y71.577 E0.16937
G1 X87.378 Y71.302 E0.20394
G1 X88.041 Y71.102 E0.23849
G1 X88.695 Y70.983 E0.27166
G1 X89.202 Y70.938 E0.29705
G1 X89.522 Y70.924 E0.31303
G1 X91.685 Y70.862 E0.42099
G1 X94.303 Y70.712 E0.55181
G1 X96.966 Y70.484 E0.68516
G1 X99.581 Y70.185 E0.81647
G1 X102.246 Y69.804 E0.95078
G1 X104.86 Y69.354 E1.08311
G1 X107.423 Y68.839 E1.21354
G1 X109.395 Y68.371 E1.31465
G1 X110.721 Y68.068 E1.38251
G1 X111.404 Y67.953 E1.41707
G1 X111.932 Y67.918 E1.44347
G1 X112.552 Y67.905 E1.47441
G1 X113.176 Y67.911 E1.50554
G1 X115.911 Y67.911 E1.64199
G1 X116.873 Y67.899 E1.68999
G1 X117.416 Y67.906 E1.71708
G1 X118.107 Y67.957 E1.75165
G1 X118.787 Y68.087 E1.78619
G1 X119.715 Y68.404 E1.83511
G1 X120.649 Y68.811 E1.88594
G1 X121.415 Y69.157 E1.92787
G1 X123.888 Y70.191 E2.0616
G1 X126.369 Y71.149 E2.19429
G1 X128.861 Y72.026 E2.32609
G1 X131.385 Y72.838 E2.45837
G1 X133.962 Y73.587 E2.59225
G1 X136.513 Y74.251 E2.72377
G1 X139.11 Y74.848 E2.85671
G1 X141.739 Y75.376 E2.99049
G1 X142.974 Y75.606 E3.05316
G1 X143.647 Y75.772 E3.08775
G1 X144.295 Y76.014 E3.12226
G1 X144.912 Y76.329 E3.15682
G1 X145.488 Y76.713 E3.19135
G1 X146.139 Y77.281 E3.23446
G1 X146.251 Y77.394 E3.2424
G1 X146.71 Y77.913 E3.27696
G1 X147.105 Y78.482 E3.31152
G1 X147.432 Y79.092 E3.34605
G1 X147.687 Y79.736 E3.38061
G1 X147.866 Y80.405 E3.41516
G1 X147.987 Y81.415 E3.46591
G1 X147.999 Y82.072 E3.49869
G1 X148.002 Y116.807 E5.23162
G1 X147.999 Y118.841 E5.3331
G1 X147.989 Y119.57 E5.36948
G1 X147.94 Y120.261 E5.40404
G1 X147.811 Y120.942 E5.43862
G1 X147.605 Y121.603 E5.47316
G1 X147.324 Y122.236 E5.50771
G1 X146.972 Y122.832 E5.54224
G1 X146.553 Y123.384 E5.57682
G1 X146.074 Y123.884 E5.61136
G1 X145.54 Y124.325 E5.64591
G1 X144.959 Y124.702 E5.68047
G1 X144.307 Y125.023 E5.71672
G1 X143.822 Y125.226 E5.74296
G1 X141.402 Y126.279 E5.87462
G1 X138.966 Y127.424 E6.00891
G1 X136.614 Y128.61 E6.14033
G1 X134.277 Y129.873 E6.27286
G1 X131.945 Y131.221 E6.40724
G1 X129.702 Y132.604 E6.53871
G1 X129.208 Y132.927 E6.56815
G1 X128.213 Y133.559 E6.62696
G1 X127.608 Y133.896 E6.66151
G1 X126.968 Y134.161 E6.69607
G1 X126.443 Y134.317 E6.7234
G1 X125.763 Y134.446 E6.75793
G1 X125.158 Y134.494 E6.7882
G1 X124.67 Y134.505 E6.81256
G1 X115.615 Y134.504 E7.26431
G1 X114.895 Y134.493 E7.30024
G1 X114.475 Y134.472 E7.32122
G1 X111.698 Y134.234 E7.46027
G1 X109.022 Y134.084 E7.59399
G1 X106.353 Y134.008 E7.7272
G1 X103.724 Y134.008 E7.85836
G1 X101.024 Y134.084 E7.99312
G1 X98.427 Y134.232 E8.12289
G1 X96.901 Y134.361 E8.19929
G1 X96.778 Y134.364 E8.20543
G1 X95.504 Y134.474 E8.26923
G1 X94.839 Y134.503 E8.30244
G1 X94.67 Y134.505 E8.31087
G1 X85.622 Y134.504 E8.76228
G1 X84.918 Y134.494 E8.7974
G1 X84.227 Y134.445 E8.83196
G1 X83.547 Y134.316 E8.86649
G1 X82.886 Y134.109 E8.90105
G1 X82.253 Y133.828 E8.9356
G1 X81.707 Y133.509 E8.96715
G1 X81.458 Y133.345 E8.98203
G1 X79.179 Y131.898 E9.11671
G1 X76.907 Y130.544 E9.24866
G1 X74.577 Y129.242 E9.38182
G1 X72.206 Y128.005 E9.51524
G1 X69.853 Y126.86 E9.6458
G1 X67.401 Y125.752 E9.78004
G1 X66.432 Y125.346 E9.83245
G1 X65.616 Y124.991 E9.87685
G1 X64.998 Y124.678 E9.91141
G1 X64.42 Y124.297 E9.94595
G1 X63.89 Y123.851 E9.98051
G1 X63.415 Y123.347 E10.01506
G1 X63.001 Y122.792 E10.0496
G1 X62.654 Y122.193 E10.08414
G1 X62.378 Y121.558 E10.11868
G1 X62.177 Y120.895 E10.15325
G1 X62.054 Y120.214 E10.18777
G1 X62.013 Y119.671 E10.21494
G1 X62 Y119.166 E10.24014
G1 X61.998 Y117.483 E10.32411
G1 X62 Y116.444 E10.37594
G1 X62.001 Y113.234 E10.53609
G1 X62.011 Y112.53 E10.57122
G1 X62.06 Y111.839 E10.60578
G1 X62.189 Y111.159 E10.64031
G1 X62.396 Y110.498 E10.67486
G1 X62.677 Y109.865 E10.70942
G1 X63.052 Y109.223 E10.74651
G1 X64.26 Y107.32 E10.85896
G1 X65.639 Y105.004 E10.99344
G1 X66.915 Y102.718 E11.12405
G1 X68.152 Y100.344 E11.25761
G1 X69.316 Y97.95 E11.39041
G1 X70.404 Y95.54 E11.52233
G1 X71.453 Y93.034 E11.65787
G1 X72.384 Y90.609 E11.78746
G1 X73.054 Y88.717 E11.8876
G1 X73.187 Y88.359 E11.90665
G1 X73.465 Y87.725 E11.94119
G1 X73.814 Y87.127 E11.97573
G1 X74.19 Y86.622 E12.00715
G1 X74.626 Y86.101 E12.04104
G1 X75.305 Y85.331 E12.09226
G1 X77.096 Y83.241 E12.22958
G1 X78.774 Y81.168 E12.36263
G1 X80.367 Y79.083 E12.49354
G1 X81.936 Y76.902 E12.62758
G1 X83.55 Y74.517 E12.77126
G1 X83.712 Y74.27 E12.78599
G1 X84.125 Y73.714 E12.82055
M204 S3000
M205 X10 Y10
G0 F3000 X84.446 Y73.953
M204 S1800
M205 X8 Y8
G1 F2400 X84.994 Y73.39 E12.85974
G1 X85.541 Y72.901 E12.89635
G1 X85.844 Y72.643 E12.9162
G1 X86.381 Y72.245 E12.94955
G1 X86.963 Y71.914 E12.98295
G1 X87.579 Y71.655 E13.01629
G1 X88.223 Y71.471 E13.04971
G1 X88.744 Y71.38 E13.07609
G1 X89.436 Y71.328 E13.11072
G1 X91.684 Y71.262 E13.22292
G1 X94.359 Y71.109 E13.35659
G1 X96.978 Y70.885 E13.48773
G1 X99.647 Y70.58 E13.62175
G1 X102.3 Y70.201 E13.75546
G1 X104.936 Y69.747 E13.8889
G1 X107.538 Y69.223 E14.02132
G1 X109.485 Y68.761 E14.12116
G1 X110.811 Y68.458 E14.18902
G1 X111.47 Y68.348 E14.22235
G1 X111.941 Y68.318 E14.2459
G1 X112.561 Y68.305 E14.27683
G1 X113.171 Y68.311 E14.30727
G1 X115.916 Y68.311 E14.44422
G1 X116.878 Y68.299 E14.49222
G1 X117.41 Y68.306 E14.51876
G1 X118.077 Y68.356 E14.55213
G1 X118.733 Y68.486 E14.58549
G1 X119.555 Y68.771 E14.6289
G1 X120.484 Y69.176 E14.67946
G1 X121.274 Y69.533 E14.72271
G1 X123.706 Y70.55 E14.85422
G1 X126.247 Y71.531 E14.99012
G1 X128.721 Y72.401 E15.12095
G1 X131.246 Y73.214 E15.25329
G1 X133.864 Y73.974 E15.3893
G1 X136.427 Y74.642 E15.52144
G1 X139.013 Y75.237 E15.65383
G1 X141.647 Y75.766 E15.78786
G1 X142.901 Y75.999 E15.85149
G1 X143.55 Y76.161 E15.88487
G1 X144.176 Y76.398 E15.91826
G1 X144.768 Y76.709 E15.95162
G1 X145.32 Y77.087 E15.985
G1 X145.855 Y77.563 E16.02073
G1 X145.967 Y77.676 E16.02867
G1 X146.409 Y78.178 E16.06203
G1 X146.788 Y78.73 E16.09544
G1 X147.098 Y79.323 E16.12882
G1 X147.335 Y79.948 E16.16217
G1 X147.496 Y80.598 E16.19558
G1 X147.587 Y81.429 E16.23729
G1 X147.6 Y82.077 E16.26962
G1 X147.602 Y116.806 E18.00226
G1 X147.599 Y118.836 E18.10354
G1 X147.589 Y119.565 E18.13991
G1 X147.54 Y120.232 E18.17328
G1 X147.412 Y120.889 E18.20667
G1 X147.206 Y121.525 E18.24002
G1 X146.926 Y122.133 E18.27342
G1 X146.575 Y122.703 E18.30682
G1 X146.159 Y123.226 E18.34016
G1 X145.684 Y123.697 E18.37353
G1 X145.155 Y124.107 E18.40692
G1 X144.582 Y124.452 E18.44029
G1 X144.152 Y124.654 E18.46399
G1 X143.68 Y124.852 E18.48953
G1 X141.239 Y125.915 E18.62236
G1 X138.795 Y127.062 E18.75705
G1 X136.423 Y128.259 E18.8896
G1 X134.051 Y129.54 E19.0241
G1 X131.782 Y130.852 E19.15486
G1 X129.495 Y132.262 E19.2889
G1 X128.994 Y132.589 E19.31875
G1 X127.999 Y133.221 E19.37755
G1 X127.413 Y133.545 E19.41096
G1 X126.794 Y133.798 E19.44432
G1 X126.346 Y133.929 E19.46761
G1 X125.689 Y134.052 E19.50096
G1 X125.146 Y134.094 E19.52813
G1 X124.67 Y134.105 E19.55188
G1 X115.621 Y134.104 E20.00334
G1 X114.901 Y134.093 E20.03926
G1 X114.509 Y134.074 E20.05884
G1 X111.687 Y133.832 E20.20015
G1 X109.054 Y133.684 E20.33172
G1 X106.365 Y133.608 E20.46593
G1 X103.712 Y133.608 E20.59829
G1 X101.025 Y133.684 E20.7324
G1 X98.37 Y133.835 E20.86507
G1 X96.867 Y133.962 E20.94032
G1 X96.745 Y133.965 E20.94641
G1 X95.47 Y134.075 E21.01025
G1 X94.828 Y134.103 E21.04231
G1 X94.67 Y134.105 E21.0502
G1 X85.627 Y134.104 E21.50136
G1 X84.923 Y134.094 E21.53648
G1 X84.256 Y134.045 E21.56985
G1 X83.6 Y133.916 E21.6032
G1 X82.963 Y133.71 E21.6366
G1 X82.356 Y133.43 E21.66995
G1 X81.641 Y132.987 E21.71192
G1 X79.393 Y131.559 E21.84478
G1 X77.128 Y130.209 E21.97634
G1 X74.751 Y128.881 E22.11218
G1 X72.387 Y127.648 E22.2452
G1 X70.014 Y126.493 E22.37686
G1 X67.584 Y125.395 E22.5099
G1 X66.592 Y124.979 E22.56357
G1 X65.776 Y124.624 E22.60796
G1 X65.18 Y124.321 E22.64132
G1 X64.623 Y123.949 E22.67473
G1 X64.116 Y123.513 E22.7081
G1 X63.664 Y123.02 E22.74146
G1 X63.274 Y122.477 E22.77482
G1 X62.951 Y121.89 E22.80824
G1 X62.701 Y121.27 E22.8416
G1 X62.526 Y120.624 E22.87499
G1 X62.413 Y119.659 E22.92346
G1 X62.4 Y119.166 E22.94806
G1 X62.398 Y117.484 E23.03198
G1 X62.4 Y116.445 E23.08382
G1 X62.401 Y113.239 E23.24376
G1 X62.411 Y112.535 E23.27889
G1 X62.46 Y111.868 E23.31226
G1 X62.589 Y111.212 E23.34561
G1 X62.795 Y110.575 E23.37901
G1 X63.241 Y109.68 E23.4289
G1 X63.434 Y109.367 E23.44725
G1 X64.608 Y107.517 E23.55656
G1 X65.974 Y105.225 E23.68968
G1 X67.276 Y102.891 E23.82301
G1 X68.509 Y100.525 E23.95612
G1 X69.676 Y98.124 E24.08931
G1 X70.766 Y95.71 E24.22145
G1 X71.824 Y93.183 E24.35812
G1 X72.763 Y90.738 E24.48879
G1 X73.429 Y88.857 E24.58834
G1 X73.562 Y88.499 E24.6074
G1 X73.832 Y87.887 E24.64077
G1 X74.173 Y87.311 E24.67417
G1 X74.498 Y86.877 E24.70122
G1 X74.925 Y86.365 E24.73448
G1 X75.662 Y85.53 E24.79004
G1 X77.395 Y83.508 E24.9229
G1 X79.087 Y81.417 E25.0571
G1 X80.694 Y79.314 E25.18914
G1 X82.248 Y77.154 E25.3219
G1 X83.881 Y74.741 E25.46726
G1 X84.046 Y74.49 E25.48224
G1 X84.446 Y73.953 E25.51565
M204 S3000
M205 X10 Y10
G0 F3000 X84.767 Y74.194
M204 S1800
M205 X8 Y8
G1 F2400 X85.26 Y73.688 E25.55089
G1 X85.807 Y73.199 E25.5875
G1 X86.101 Y72.95 E25.60672
G1 X86.62 Y72.568 E25.63887
G1 X87.182 Y72.252 E25.67104
G1 X87.779 Y72.009 E25.7032
G1 X88.401 Y71.842 E25.73533
G1 X89.239 Y71.738 E25.77746
G1 X89.545 Y71.724 E25.79274
G1 X91.683 Y71.662 E25.89945
G1 X94.38 Y71.509 E26.03422
G1 X97.056 Y71.279 E26.16822
G1 X99.682 Y70.979 E26.30008
G1 X102.347 Y70.598 E26.43439
G1 X105.017 Y70.138 E26.56956
G1 X107.619 Y69.615 E26.70197
G1 X109.574 Y69.151 E26.80221
G1 X110.9 Y68.848 E26.87007
G1 X111.536 Y68.743 E26.90223
G1 X111.949 Y68.718 E26.92288
G1 X112.569 Y68.705 E26.95381
G1 X113.165 Y68.711 E26.98355
G1 X115.921 Y68.711 E27.12105
G1 X116.883 Y68.699 E27.16905
G1 X117.403 Y68.706 E27.19499
G1 X118.046 Y68.756 E27.22717
G1 X118.677 Y68.886 E27.25931
G1 X119.395 Y69.138 E27.29727
G1 X120.319 Y69.541 E27.34757
G1 X121.091 Y69.89 E27.38983
G1 X123.557 Y70.921 E27.52318
G1 X126.107 Y71.905 E27.65955
G1 X128.603 Y72.784 E27.79157
G1 X131.16 Y73.606 E27.92557
G1 X133.723 Y74.351 E28.05873
G1 X136.301 Y75.022 E28.19163
G1 X138.958 Y75.633 E28.32765
G1 X141.631 Y76.171 E28.46368
G1 X142.828 Y76.393 E28.52442
G1 X143.453 Y76.549 E28.55655
G1 X144.054 Y76.782 E28.58871
G1 X144.622 Y77.088 E28.6209
G1 X145.147 Y77.461 E28.65303
G1 X145.571 Y77.844 E28.68154
G1 X145.683 Y77.957 E28.68947
G1 X146.108 Y78.443 E28.72168
G1 X146.469 Y78.976 E28.7538
G1 X146.762 Y79.551 E28.786
G1 X146.981 Y80.157 E28.81814
G1 X147.123 Y80.786 E28.85031
G1 X147.187 Y81.442 E28.8832
G1 X147.2 Y82.082 E28.91513
G1 X147.202 Y116.805 E30.64747
G1 X147.2 Y118.83 E30.7485
G1 X147.19 Y119.559 E30.78487
G1 X147.141 Y120.202 E30.81705
G1 X147.013 Y120.834 E30.84922
G1 X146.808 Y121.445 E30.88137
G1 X146.528 Y122.026 E30.91355
G1 X146.179 Y122.568 E30.94571
G1 X145.766 Y123.063 E30.97787
G1 X145.295 Y123.503 E31.01003
G1 X144.773 Y123.881 E31.04218
G1 X143.998 Y124.285 E31.08578
G1 X143.549 Y124.473 E31.11007
G1 X141.058 Y125.557 E31.2456
G1 X138.624 Y126.701 E31.37978
G1 X136.231 Y127.908 E31.51349
G1 X133.867 Y129.185 E31.64754
G1 X131.552 Y130.523 E31.78094
G1 X129.288 Y131.919 E31.91364
G1 X128.779 Y132.251 E31.94396
G1 X127.784 Y132.883 E32.00276
G1 X127.219 Y133.195 E32.03496
G1 X126.621 Y133.434 E32.06709
G1 X126.249 Y133.541 E32.0864
G1 X125.615 Y133.658 E32.11857
G1 X124.817 Y133.703 E32.15844
G1 X124.67 Y133.705 E32.16578
G1 X115.628 Y133.704 E32.61689
G1 X114.908 Y133.693 E32.65281
G1 X114.543 Y133.675 E32.67104
G1 X111.742 Y133.435 E32.8113
G1 X109.054 Y133.284 E32.94561
G1 X106.376 Y133.208 E33.07927
G1 X103.701 Y133.208 E33.21273
G1 X101.025 Y133.284 E33.34629
G1 X98.314 Y133.437 E33.48176
G1 X96.833 Y133.563 E33.55591
G1 X96.73 Y133.565 E33.56105
G1 X95.435 Y133.677 E33.6259
G1 X94.817 Y133.703 E33.65676
G1 X94.67 Y133.705 E33.66409
G1 X85.633 Y133.704 E34.11495
G1 X84.929 Y133.694 E34.15008
G1 X84.286 Y133.645 E34.18225
G1 X83.655 Y133.517 E34.21437
G1 X83.044 Y133.312 E34.24653
G1 X82.463 Y133.032 E34.2787
G1 X81.929 Y132.697 E34.31015
G1 X79.591 Y131.212 E34.44834
G1 X77.28 Y129.835 E34.58255
G1 X74.967 Y128.542 E34.71475
G1 X72.597 Y127.306 E34.8481
G1 X70.175 Y126.127 E34.98249
G1 X67.737 Y125.025 E35.11597
G1 X66.752 Y124.612 E35.16926
G1 X65.936 Y124.257 E35.21366
G1 X65.361 Y123.964 E35.24585
G1 X64.828 Y123.602 E35.278
G1 X64.344 Y123.177 E35.31013
G1 X63.916 Y122.695 E35.34229
G1 X63.55 Y122.163 E35.37451
G1 X63.254 Y121.591 E35.40664
G1 X63.03 Y120.986 E35.43883
G1 X62.883 Y120.359 E35.47096
G1 X62.812 Y119.647 E35.50665
G1 X62.8 Y119.165 E35.53071
G1 X62.798 Y117.485 E35.61452
G1 X62.8 Y116.446 E35.66636
G1 X62.801 Y113.245 E35.82606
G1 X62.811 Y112.541 E35.86118
G1 X62.86 Y111.898 E35.89336
G1 X62.988 Y111.267 E35.92548
G1 X63.193 Y110.656 E35.95763
G1 X63.581 Y109.89 E36.00047
G1 X63.772 Y109.582 E36.01855
G1 X64.947 Y107.731 E36.12793
G1 X66.309 Y105.445 E36.26069
G1 X67.648 Y103.044 E36.39784
G1 X68.866 Y100.706 E36.52937
G1 X70.029 Y98.314 E36.66206
G1 X71.141 Y95.85 E36.79693
G1 X72.197 Y93.327 E36.93338
G1 X73.13 Y90.898 E37.0632
G1 X73.804 Y88.996 E37.16387
G1 X73.937 Y88.638 E37.18293
G1 X74.198 Y88.049 E37.21507
G1 X74.53 Y87.497 E37.2472
G1 X75.119 Y86.755 E37.29447
G1 X75.225 Y86.63 E37.30264
G1 X75.962 Y85.795 E37.35821
G1 X77.708 Y83.757 E37.4921
G1 X79.387 Y81.683 E37.62523
G1 X81.021 Y79.544 E37.75952
G1 X82.588 Y77.366 E37.89338
G1 X84.182 Y75.011 E38.03525
G1 X84.38 Y74.709 E38.05327
G1 X84.767 Y74.194 E38.08541
M204 S3000
M205 X10 Y10
G1 F2400 E32.08541
G1 F600 Z0.375
G0 F3000 X77.8 Y112.695 Z0.375
M204 S1800
M205 X8 Y8
;TYPE:SUPPORT
G1 F600 Z0.3
G1 F2400 E38.08541
G1 F1500 X77.8 Y116.595 E38.27998
G1 X68.2 Y116.595 E38.75892
G1 X68.2 Y112.695 E38.9535
G1 X77.8 Y112.695 E39.43244
M204 S3000
M205 X10 Y10
G0 F3000 X76.8 Y112.835
M204 S1800
M205 X8 Y8
G1 F1500 X76.8 Y116.455 E39.61305
M204 S3000
M205 X10 Y10
G1 F2400 E33.61305
G1 F600 Z0.375
G0 F3000 X77.66 Y115.2 Z0.375
M204 S1800
M205 X8 Y8
G1 F600 Z0.3
G1 F2400 E39.61305
G1 F1500 X68.34 Y115.2 E40.07802
M204 S3000
M205 X10 Y10
G1 F2400 E34.07802
G1 F600 Z0.375
G0 F3000 X70.4 Y116.455 Z0.375
M204 S1800
M205 X8 Y8
G1 F600 Z0.3
G1 F2400 E40.07802
G1 F1500 X70.4 Y112.835 E40.25862
M204 S3000
M205 X10 Y10
G1 F2400 E34.25862
G1 F600 Z0.375
G0 F3000 X73.6 Y112.835 Z0.375
M204 S1800
M205 X8 Y8
G1 F600 Z0.3
G1 F2400 E40.25862
G1 F1500 X73.6 Y116.455 E40.43923
M204 S3000
M205 X10 Y10
G1 F2400 E34.43923
G1 F600 Z0.375
G0 F3000 X132.2 Y116.595 Z0.375
M204 S1800
M205 X8 Y8
G1 F600 Z0.3
G1 F2400 E40.43923
G1 F1500 X132.2 Y81.695 E42.1804
G1 X141.8 Y81.695 E42.65934
G1 X141.8 Y116.595 E44.40051
G1 X132.2 Y116.595 E44.87946
M204 S3000
M205 X10 Y10
G0 F3000 X132.34 Y115.2
M204 S1800
M205 X8 Y8
G1 F1500 X141.66 Y115.2 E45.34443
M204 S3000
M205 X10 Y10
G1 F2400 E39.34443
G1 F600 Z0.375
G0 F3000 X140.8 Y116.455 Z0.375
M204 S1800
M205 X8 Y8
G1 F600 Z0.3
G1 F2400 E45.34443
G1 F1500 X140.8 Y81.835 E47.07163
M204 S3000
M205 X10 Y10
G1 F2400 E41.07163
G1 F600 Z0.375
