;FLAVOR:Marlin
;TIME:2736
;Filament used: 2.87612m
;Layer height: 0.3
;MINX:61.998
;MINY:72.281
;MINZ:0.3
;MAXX:148.002
;MAXY:134.505
;MAXZ:20.175
;Generated with Cura_SteamEngine 4.12.1
M82 ;absolute extrusion mode
G21 ;metric values
G90 ;absolute positioning
M82 ;set extruder to absolute mode
M107 ;start with the fan off

M104 S200 T0 ; start heating T0 to what is set in Cura
M140 S60 ; start heating the bed to what is set in Cura
M190 S60 ; start heating the bed to what is set in Cura
M109 S200 T0 ; start heating T0 to what is set in Cura

G28 X0 Y0 ;move X/Y to min endstops
G28 Z0 ;move Z to min endstops
G1 Z15.0 F2400 ;move the platform down 15mm
G92 E0 ;zero the extruded length
G1 F200 E3 ;extrude 3mm of feed stock
G92 E0 ;zero the extruded length again
G1 F2400
G0 Y20 F2400
M117 Printing...
G5
G92 E0
G92 E0
G1 F2400 E-6
;LAYER_COUNT:67
;LAYER:0
M107
M204 S3000
M205 X10 Y10
G1 F600 Z0.375
G0 F3000 X74.923 Y86.116 Z0.375
M204 S1800
M205 X8 Y8
;TYPE:SKIRT
G1 F600 Z0.3
G1 F2400 E0
G1 X75.316 Y85.782 E0.02573
G1 X75.63 Y85.527 E0.04591
G1 X76.202 Y85.116 E0.08105
G1 X76.941 Y84.715 E0.123
G1 X77.778 Y84.336 E0.16884
G1 X78.738 Y83.917 E0.2211
G1 X81.115 Y82.798 E0.35217
G1 X83.503 Y81.589 E0.48571
G1 X84.814 Y80.903 E0.55952
G1 X85.423 Y80.627 E0.59288
G1 X86.302 Y80.286 E0.63992
G1 X88.761 Y79.294 E0.77221
G1 X91.197 Y78.23 E0.90483
G1 X93.623 Y77.088 E1.0386
G1 X95.998 Y75.887 E1.17138
G1 X98.327 Y74.625 E1.30353
G1 X100.678 Y73.263 E1.43909
G1 X100.907 Y73.128 E1.45235
G1 X101.523 Y72.812 E1.48689
G1 X102.171 Y72.568 E1.52143
G1 X102.843 Y72.401 E1.55598
G1 X103.781 Y72.3 E1.60305
G1 X104.314 Y72.29 E1.62964
G1 X105.014 Y72.3 E1.66457
G1 X107.514 Y72.281 E1.7893
G1 X107.756 Y72.293 E1.80139
G1 X108.472 Y72.288 E1.83711
G1 X109.228 Y72.298 E1.87483
G1 X109.919 Y72.348 E1.90939
G1 X110.565 Y72.468 E1.94217
G1 X111.828 Y72.776 E2.00703
G1 X114.474 Y73.386 E2.1425
G1 X117.051 Y73.904 E2.27364
G1 X119.697 Y74.358 E2.40758
G1 X122.34 Y74.735 E2.54078
G1 X124.96 Y75.033 E2.67233
G1 X127.612 Y75.259 E2.80512
G1 X130.235 Y75.407 E2.93619
G1 X132.959 Y75.486 E3.07215
G1 X134.311 Y75.495 E3.1396
G1 X141.263 Y75.496 E3.48644
G1 X141.964 Y75.506 E3.52141
G1 X142.654 Y75.555 E3.55593
G1 X143.335 Y75.685 E3.59051
G1 X143.996 Y75.891 E3.62506
G1 X144.628 Y76.173 E3.65958
G1 X145.225 Y76.525 E3.69416
G1 X145.776 Y76.944 E3.72869
G1 X146.251 Y77.394 E3.76134
G1 X146.71 Y77.913 E3.7959
G1 X147.105 Y78.482 E3.83046
G1 X147.432 Y79.092 E3.86499
G1 X147.687 Y79.736 E3.89955
G1 X147.866 Y80.405 E3.9341
G1 X147.987 Y81.415 E3.98485
G1 X147.999 Y82.072 E4.01763
G1 X148.002 Y116.807 E5.75057
G1 X147.999 Y118.841 E5.85204
G1 X147.989 Y119.57 E5.88842
G1 X147.94 Y120.261 E5.92298
G1 X147.811 Y120.942 E5.95756
G1 X147.605 Y121.603 E5.9921
G1 X147.324 Y122.236 E6.02665
G1 X146.972 Y122.832 E6.06118
G1 X146.553 Y123.384 E6.09576
G1 X146.074 Y123.884 E6.1303
G1 X145.54 Y124.325 E6.16486
G1 X144.959 Y124.702 E6.19941
G1 X144.307 Y125.023 E6.23567
G1 X143.822 Y125.226 E6.2619
G1 X141.402 Y126.279 E6.39357
G1 X138.966 Y127.424 E6.52785
G1 X136.614 Y128.61 E6.65927
G1 X134.277 Y129.873 E6.7918
G1 X131.945 Y131.221 E6.92618
G1 X129.702 Y132.604 E7.05765
G1 X129.208 Y132.927 E7.0871
G1 X128.213 Y133.559 E7.1459
G1 X127.608 Y133.896 E7.18045
G1 X126.968 Y134.161 E7.21501
G1 X126.443 Y134.317 E7.24234
G1 X125.763 Y134.446 E7.27687
G1 X125.158 Y134.494 E7.30715
G1 X124.67 Y134.505 E7.3315
G1 X115.615 Y134.504 E7.78325
G1 X114.895 Y134.493 E7.81918
G1 X114.475 Y134.472 E7.84016
G1 X111.698 Y134.234 E7.97921
G1 X109.022 Y134.084 E8.11293
G1 X106.353 Y134.008 E8.24614
G1 X103.724 Y134.008 E8.3773
G1 X101.024 Y134.084 E8.51206
G1 X98.427 Y134.232 E8.64183
G1 X96.901 Y134.361 E8.71824
G1 X96.778 Y134.364 E8.72437
G1 X95.504 Y134.474 E8.78817
G1 X94.839 Y134.503 E8.82138
G1 X94.67 Y134.505 E8.82981
G1 X85.622 Y134.504 E9.28122
G1 X84.918 Y134.494 E9.31634
G1 X84.227 Y134.445 E9.35091
G1 X83.547 Y134.316 E9.38544
G1 X82.886 Y134.109 E9.41999
G1 X82.253 Y133.828 E9.45454
G1 X81.707 Y133.509 E9.48609
G1 X81.458 Y133.345 E9.50097
G1 X79.179 Y131.898 E9.63565
G1 X76.907 Y130.544 E9.7676
G1 X74.577 Y129.242 E9.90077
G1 X72.206 Y128.005 E10.03419
G1 X69.853 Y126.86 E10.16474
G1 X67.401 Y125.752 E10.29898
G1 X66.432 Y125.346 E10.35139
G1 X65.616 Y124.991 E10.39579
G1 X64.998 Y124.678 E10.43035
G1 X64.42 Y124.297 E10.46489
G1 X63.89 Y123.851 E10.49945
G1 X63.415 Y123.347 E10.534
G1 X63.001 Y122.792 E10.56854
G1 X62.654 Y122.193 E10.60308
G1 X62.378 Y121.558 E10.63762
G1 X62.177 Y120.895 E10.67219
G1 X62.054 Y120.214 E10.70671
G1 X62.013 Y119.671 E10.73388
G1 X62 Y119.166 E10.75908
G1 X61.998 Y117.483 E10.84305
G1 X62 Y116.444 E10.89488
G1 X62.001 Y113.234 E11.05503
G1 X62.011 Y112.53 E11.09016
G1 X62.06 Y111.839 E11.12472
G1 X62.189 Y111.159 E11.15925
G1 X62.396 Y110.498 E11.19381
G1 X62.677 Y109.865 E11.22836
G1 X62.945 Y109.398 E11.25522
G1 X64.43 Y107.061 E11.39336
G1 X65.791 Y104.779 E11.52592
G1 X67.086 Y102.459 E11.65848
G1 X68.325 Y100.084 E11.79212
G1 X69.478 Y97.715 E11.92357
G1 X70.577 Y95.284 E12.05667
G1 X71.609 Y92.82 E12.18994
G1 X72.553 Y90.364 E12.32121
G1 X72.863 Y89.488 E12.36757
G1 X73.196 Y88.59 E12.41536
G1 X73.474 Y87.956 E12.44989
G1 X73.823 Y87.357 E12.48448
G1 X74.239 Y86.804 E12.519
G1 X74.923 Y86.116 E12.56741
M204 S3000
M205 X10 Y10
G0 F3000 X75.183 Y86.42
M204 S1800
M205 X8 Y8
G1 F2400 X75.568 Y86.093 E12.59261
G1 X75.882 Y85.838 E12.61279
G1 X76.416 Y85.453 E12.64563
G1 X77.107 Y85.079 E12.68483
G1 X77.938 Y84.703 E12.73034
G1 X78.889 Y84.288 E12.7821
G1 X81.301 Y83.152 E12.91512
G1 X83.696 Y81.94 E13.04903
G1 X85 Y81.258 E13.12245
G1 X85.568 Y81 E13.15357
G1 X86.432 Y80.665 E13.1998
G1 X88.904 Y79.668 E13.33279
G1 X91.378 Y78.587 E13.46748
G1 X93.809 Y77.442 E13.60154
G1 X96.148 Y76.26 E13.73229
G1 X98.538 Y74.965 E13.86791
G1 X100.881 Y73.608 E14.00299
G1 X101.11 Y73.473 E14.01625
G1 X101.706 Y73.168 E14.04965
G1 X102.333 Y72.937 E14.08299
G1 X102.984 Y72.782 E14.11638
G1 X103.792 Y72.699 E14.1569
G1 X104.309 Y72.69 E14.1827
G1 X105.012 Y72.7 E14.21777
G1 X107.517 Y72.681 E14.34275
G1 X107.752 Y72.693 E14.35449
G1 X108.475 Y72.688 E14.39056
G1 X109.223 Y72.698 E14.42789
G1 X109.89 Y72.747 E14.46125
G1 X110.471 Y72.857 E14.49075
G1 X111.739 Y73.167 E14.55588
G1 X114.377 Y73.774 E14.69093
G1 X116.976 Y74.297 E14.82319
G1 X119.644 Y74.755 E14.95824
G1 X122.274 Y75.129 E15.09078
G1 X124.913 Y75.43 E15.22329
G1 X127.589 Y75.658 E15.35728
G1 X130.239 Y75.808 E15.4897
G1 X132.944 Y75.885 E15.62471
G1 X134.308 Y75.895 E15.69276
G1 X141.257 Y75.896 E16.03945
G1 X141.958 Y75.906 E16.07442
G1 X142.625 Y75.955 E16.10779
G1 X143.282 Y76.084 E16.14119
G1 X143.918 Y76.29 E16.17455
G1 X144.525 Y76.57 E16.2079
G1 X145.095 Y76.921 E16.24129
G1 X145.855 Y77.563 E16.29093
G1 X145.967 Y77.676 E16.29887
G1 X146.409 Y78.178 E16.33223
G1 X146.788 Y78.73 E16.36564
G1 X147.098 Y79.323 E16.39902
G1 X147.335 Y79.948 E16.43237
G1 X147.496 Y80.598 E16.46578
G1 X147.587 Y81.429 E16.50749
G1 X147.6 Y82.077 E16.53982
G1 X147.602 Y116.806 E18.27246
G1 X147.599 Y118.836 E18.37374
G1 X147.589 Y119.565 E18.41011
G1 X147.54 Y120.232 E18.44348
G1 X147.412 Y120.889 E18.47687
G1 X147.206 Y121.525 E18.51022
G1 X146.926 Y122.133 E18.54362
G1 X146.575 Y122.703 E18.57702
G1 X146.159 Y123.226 E18.61036
G1 X145.684 Y123.697 E18.64373
G1 X145.155 Y124.107 E18.67712
G1 X144.582 Y124.452 E18.71049
G1 X144.152 Y124.654 E18.73419
G1 X143.68 Y124.852 E18.75973
G1 X141.239 Y125.915 E18.89255
G1 X138.795 Y127.062 E19.02725
G1 X136.423 Y128.259 E19.1598
G1 X134.051 Y129.54 E19.29429
G1 X131.782 Y130.852 E19.42506
G1 X129.495 Y132.262 E19.5591
G1 X128.994 Y132.589 E19.58895
G1 X127.999 Y133.221 E19.64775
G1 X127.413 Y133.545 E19.68116
G1 X126.794 Y133.798 E19.71452
G1 X126.346 Y133.929 E19.73781
G1 X125.689 Y134.052 E19.77116
G1 X125.146 Y134.094 E19.79833
G1 X124.67 Y134.105 E19.82208
G1 X115.621 Y134.104 E20.27354
G1 X114.901 Y134.093 E20.30946
G1 X114.509 Y134.074 E20.32904
G1 X111.687 Y133.832 E20.47035
G1 X109.054 Y133.684 E20.60192
G1 X106.365 Y133.608 E20.73613
G1 X103.712 Y133.608 E20.86849
G1 X101.025 Y133.684 E21.00259
G1 X98.37 Y133.835 E21.13527
G1 X96.867 Y133.962 E21.21052
G1 X96.745 Y133.965 E21.21661
G1 X95.47 Y134.075 E21.28045
G1 X94.828 Y134.103 E21.31251
G1 X94.67 Y134.105 E21.3204
G1 X85.627 Y134.104 E21.77155
G1 X84.923 Y134.094 E21.80668
G1 X84.256 Y134.045 E21.84005
G1 X83.6 Y133.916 E21.8734
G1 X82.963 Y133.71 E21.9068
G1 X82.356 Y133.43 E21.94015
G1 X81.641 Y132.987 E21.98212
G1 X79.393 Y131.559 E22.11498
G1 X77.128 Y130.209 E22.24653
G1 X74.751 Y128.881 E22.38238
G1 X72.387 Y127.648 E22.5154
G1 X70.014 Y126.493 E22.64706
G1 X67.584 Y125.395 E22.7801
G1 X66.592 Y124.979 E22.83376
G1 X65.776 Y124.624 E22.87816
G1 X65.18 Y124.321 E22.91152
G1 X64.623 Y123.949 E22.94493
G1 X64.116 Y123.513 E22.9783
G1 X63.664 Y123.02 E23.01166
G1 X63.274 Y122.477 E23.04502
G1 X62.951 Y121.89 E23.07844
G1 X62.701 Y121.27 E23.1118
G1 X62.526 Y120.624 E23.14519
G1 X62.413 Y119.659 E23.19366
G1 X62.4 Y119.166 E23.21826
G1 X62.398 Y117.484 E23.30218
G1 X62.4 Y116.445 E23.35402
G1 X62.401 Y113.239 E23.51396
G1 X62.411 Y112.535 E23.54909
G1 X62.46 Y111.868 E23.58246
G1 X62.589 Y111.212 E23.61581
G1 X62.795 Y110.575 E23.64921
G1 X63.075 Y109.968 E23.68256
G1 X63.283 Y109.612 E23.70313
G1 X64.778 Y107.258 E23.84226
G1 X66.126 Y104.999 E23.9735
G1 X67.447 Y102.633 E24.10869
G1 X68.686 Y100.258 E24.24233
G1 X69.831 Y97.905 E24.37289
G1 X70.952 Y95.425 E24.50867
G1 X71.983 Y92.964 E24.64179
G1 X72.932 Y90.492 E24.77389
G1 X73.238 Y89.627 E24.81967
G1 X73.571 Y88.729 E24.86745
G1 X73.841 Y88.117 E24.90082
G1 X74.182 Y87.541 E24.93422
G1 X74.589 Y87.01 E24.96759
G1 X75.183 Y86.42 E25.00936
M204 S3000
M205 X10 Y10
G0 F3000 X75.443 Y86.724
M204 S1800
M205 X8 Y8
G1 F2400 X76.134 Y86.148 E25.05424
G1 X76.631 Y85.791 E25.08477
G1 X77.272 Y85.444 E25.12114
G1 X78.098 Y85.069 E25.1664
G1 X79.054 Y84.652 E25.21843
G1 X81.502 Y83.499 E25.35343
G1 X83.889 Y82.291 E25.4869
G1 X83.985 Y82.239 E25.49235
G1 X85.185 Y81.612 E25.55989
G1 X85.712 Y81.373 E25.58876
G1 X86.591 Y81.032 E25.6358
G1 X89.065 Y80.034 E25.76889
G1 X91.543 Y78.952 E25.90379
G1 X93.967 Y77.81 E26.03748
G1 X96.354 Y76.603 E26.17092
G1 X98.708 Y75.328 E26.30449
G1 X101.084 Y73.952 E26.44147
G1 X101.313 Y73.817 E26.45473
G1 X101.888 Y73.525 E26.4869
G1 X102.494 Y73.306 E26.51905
G1 X103.123 Y73.164 E26.55122
G1 X103.804 Y73.099 E26.58535
G1 X104.303 Y73.09 E26.61025
G1 X105.009 Y73.1 E26.64548
G1 X107.52 Y73.081 E26.77075
G1 X107.747 Y73.093 E26.7821
G1 X108.478 Y73.088 E26.81857
G1 X109.217 Y73.098 E26.85544
G1 X109.86 Y73.147 E26.88761
G1 X110.376 Y73.245 E26.91381
G1 X111.674 Y73.562 E26.98048
G1 X114.288 Y74.164 E27.1143
G1 X116.934 Y74.697 E27.24896
G1 X119.551 Y75.145 E27.38143
G1 X122.209 Y75.524 E27.51537
G1 X124.905 Y75.831 E27.65075
G1 X127.533 Y76.055 E27.78233
G1 X130.239 Y76.208 E27.91755
G1 X132.93 Y76.285 E28.05186
G1 X134.305 Y76.295 E28.12046
G1 X141.251 Y76.296 E28.467
G1 X141.952 Y76.306 E28.50198
G1 X142.595 Y76.355 E28.53415
G1 X143.227 Y76.483 E28.56632
G1 X143.838 Y76.688 E28.59847
G1 X144.419 Y76.968 E28.63065
G1 X144.961 Y77.317 E28.66281
G1 X145.571 Y77.844 E28.70303
G1 X145.683 Y77.957 E28.71097
G1 X146.108 Y78.443 E28.74318
G1 X146.469 Y78.976 E28.77529
G1 X146.762 Y79.551 E28.80749
G1 X146.981 Y80.157 E28.83964
G1 X147.123 Y80.786 E28.87181
G1 X147.187 Y81.442 E28.90469
G1 X147.2 Y82.082 E28.93663
G1 X147.202 Y116.805 E30.66896
G1 X147.2 Y118.83 E30.76999
G1 X147.19 Y119.559 E30.80637
G1 X147.141 Y120.202 E30.83854
G1 X147.013 Y120.834 E30.87071
G1 X146.808 Y121.445 E30.90286
G1 X146.528 Y122.026 E30.93504
G1 X146.179 Y122.568 E30.9672
G1 X145.766 Y123.063 E30.99936
G1 X145.295 Y123.503 E31.03152
G1 X144.773 Y123.881 E31.06367
G1 X143.998 Y124.285 E31.10728
G1 X143.549 Y124.473 E31.13156
G1 X141.058 Y125.557 E31.26709
G1 X138.624 Y126.701 E31.40127
G1 X136.231 Y127.908 E31.53499
G1 X133.867 Y129.185 E31.66903
G1 X131.552 Y130.523 E31.80243
G1 X129.288 Y131.919 E31.93513
G1 X128.779 Y132.251 E31.96545
G1 X127.784 Y132.883 E32.02426
G1 X127.219 Y133.195 E32.05646
G1 X126.621 Y133.434 E32.08859
G1 X126.249 Y133.541 E32.1079
G1 X125.615 Y133.658 E32.14006
G1 X124.817 Y133.703 E32.17994
G1 X124.67 Y133.705 E32.18727
G1 X115.628 Y133.704 E32.63838
G1 X114.908 Y133.693 E32.6743
G1 X114.543 Y133.675 E32.69254
G1 X111.742 Y133.435 E32.83279
G1 X109.054 Y133.284 E32.96711
G1 X106.376 Y133.208 E33.10077
G1 X103.701 Y133.208 E33.23422
G1 X101.025 Y133.284 E33.36778
G1 X98.314 Y133.437 E33.50325
G1 X96.833 Y133.563 E33.57741
G1 X96.73 Y133.565 E33.58254
G1 X95.435 Y133.677 E33.64739
G1 X94.817 Y133.703 E33.67825
G1 X94.67 Y133.705 E33.68559
G1 X85.633 Y133.704 E34.13645
G1 X84.929 Y133.694 E34.17157
G1 X84.286 Y133.645 E34.20374
G1 X83.655 Y133.517 E34.23587
G1 X83.044 Y133.312 E34.26802
G1 X82.463 Y133.032 E34.3002
G1 X81.929 Y132.697 E34.33165
G1 X79.591 Y131.212 E34.46983
G1 X77.28 Y129.835 E34.60404
G1 X74.967 Y128.542 E34.73624
G1 X72.597 Y127.306 E34.8696
G1 X70.175 Y126.127 E35.00399
G1 X67.737 Y125.025 E35.13747
G1 X66.752 Y124.612 E35.19075
G1 X65.936 Y124.257 E35.23515
G1 X65.361 Y123.964 E35.26735
G1 X64.828 Y123.602 E35.29949
G1 X64.344 Y123.177 E35.33163
G1 X63.916 Y122.695 E35.36379
G1 X63.55 Y122.163 E35.396
G1 X63.254 Y121.591 E35.42813
G1 X63.03 Y120.986 E35.46032
G1 X62.883 Y120.359 E35.49245
G1 X62.812 Y119.647 E35.52815
G1 X62.8 Y119.165 E35.5522
G1 X62.798 Y117.485 E35.63602
G1 X62.8 Y116.446 E35.68785
G1 X62.801 Y113.245 E35.84755
G1 X62.811 Y112.541 E35.88268
G1 X62.86 Y111.898 E35.91485
G1 X62.988 Y111.267 E35.94697
G1 X63.193 Y110.656 E35.97912
G1 X63.621 Y109.827 E36.02567
G1 X65.1 Y107.498 E36.16331
G1 X66.491 Y105.167 E36.29874
G1 X67.794 Y102.833 E36.4321
G1 X69.024 Y100.475 E36.56479
G1 X70.211 Y98.037 E36.70007
G1 X71.309 Y95.608 E36.83306
G1 X72.354 Y93.113 E36.96801
G1 X73.307 Y90.632 E37.10061
G1 X73.613 Y89.766 E37.14643
G1 X73.946 Y88.868 E37.19421
G1 X74.208 Y88.279 E37.22637
G1 X74.54 Y87.726 E37.25855
G1 X74.938 Y87.219 E37.29071
G1 X75.443 Y86.724 E37.32599
M204 S3000
M205 X10 Y10
G1 F2400 E31.32599
G1 F600 Z0.375
G0 F3000 X77.8 Y112.695 Z0.375
M204 S1800
M205 X8 Y8
;TYPE:SUPPORT
G1 F600 Z0.3
G1 F2400 E37.32599
G1 F1500 X77.8 Y116.595 E37.52056
G1 X68.2 Y116.595 E37.99951
G1 X68.2 Y112.695 E38.19408
G1 X77.8 Y112.695 E38.67302
M204 S3000
M205 X10 Y10
G0 F3000 X76.8 Y112.835
M204 S1800
M205 X8 Y8
G1 F1500 X76.8 Y116.455 E38.85363
M204 S3000
M205 X10 Y10
G1 F2400 E32.85363
G1 F600 Z0.375
G0 F3000 X77.66 Y115.2 Z0.375
M204 S1800
M205 X8 Y8
G1 F600 Z0.3
G1 F2400 E38.85363
G1 F1500 X68.34 Y115.2 E39.3186
M204 S3000
M205 X10 Y10
G1 F2400 E33.3186
G1 F600 Z0.375
G0 F3000 X70.4 Y116.455 Z0.375
M204 S1800
M205 X8 Y8
G1 F600 Z0.3
G1 F2400 E39.3186
G1 F1500 X70.4 Y112.835 E39.49921
M204 S3000
M205 X10 Y10
G1 F2400 E33.49921
G1 F600 Z0.375
G0 F3000 X73.6 Y112.835 Z0.375
M204 S1800
M205 X8 Y8
G1 F600 Z0.3
G1 F2400 E39.49921
G1 F1500 X73.6 Y116.455 E39.67981
M204 S3000
M205 X10 Y10
G1 F2400 E33.67981
G1 F600 Z0.375
G0 F3000 X132.2 Y116.595 Z0.375
M204 S1800
M205 X8 Y8
G1 F600 Z0.3
G1 F2400 E39.67981
G1 F1500 X132.2 Y81.695 E41.42098
G1 X141.8 Y81.695 E41.89992
G1 X141.8 Y116.595 E43.64109
G1 X132.2 Y116.595 E44.12004
M204 S3000
M205 X10 Y10
G0 F3000 X132.34 Y115.2
M204 S1800
M205 X8 Y8
G1 F1500 X141.66 Y115.2 E44.58501
M204 S3000
M205 X10 Y10
G1 F2400 E38.58501
G1 F600 Z0.375
G0 F3000 X140.8 Y116.455 Z0.375
M204 S1800
M205 X8 Y8
G1 F600 Z0.3
G1 F2400 E44.58501
G1 F1500 X140.8 Y81.835 E46.31221
M204 S3000
M205 X10 Y10
G1 F2400 E40.31221
G1 F600 Z0.375
G0 F3000 X141.66 Y83.2 Z0.375
M204 S1800
M205 X8 Y8
G1 F600 Z0.3
G1 F2400 E46.31221
G1 F1500 X132.34 Y83.2 E46.77719
M204 S3000
M205 X10 Y10
G1 F2400 E40.77719
G1 F600 Z0.375
G0 F3000 X134.4 Y81.835 Z0.375
M204 S1800
M205 X8 Y8
G1 F600 Z0.3
G1 F2400 E46.77719
G1 F1500 X134.4 Y116.455 E48.50439
M204 S3000
M205 X10 Y10
G1 F2400 E42.50439
G1 F600 Z0.375
G0 F3000 X137.6 Y116.455 Z0.375
M204 S1800
M205 X8 Y8
G1 F600 Z0.3
